;PancakePainter v1.4.0 GCODE header start
;Originally generated @ Wed Dec 04 2019 08:29:56 GMT-0600 (Central Standard Time)
;Settings used to generate this file:
;----------------------------------------
;botSpeed: 4620
;flattenResolution: 5
;lineEndPreShutoff: 25
;startWait: 350
;endWait: 250
;shadeChangeWait: 15
;useLineFill: false
;useShortest: true
;shapeFillWidth: 6.9
;fillSpacing: 10
;fillAngle: 23
;fillGroupThreshold: 27
;useColorSpeed: false
;botColorSpeed: 6600,5280,5280,3300
;----------------------------------------
W1 X42 Y210 L485 T0 ;Define Workspace of this file
G21 ;Set units to MM
G1 F4620 ;Set Speed
M107 ;Pump off
G4 P1000 ;Pause for 1000 milliseconds
M84 ;Motors off
G00 X1 Y1 ;Help homing
G28 X0 Y0 ;Home All Axis
;PancakePainter header complete
;Starting stroke path #1/8, segments: 43, length: 520, color #4
G00 X235.441 Y45.157
M106 ;Pump on
G4 P350 ;Pause for 350 milliseconds
G00 X235.407 Y45.162
G00 X232.912 Y49.655
G00 X232.912 Y49.721
G00 X233.012 Y55.31
G00 X233.012 Y79.979
G00 X232.793 Y85.041
G00 X232.808 Y85.103
G00 X233.885 Y89.771
G00 X233.889 Y89.79
G00 X233.894 Y89.804
G00 X233.951 Y89.828
G00 X238.985 Y91.579
G00 X239.046 Y91.598
G00 X244.853 Y91.365
G00 X244.929 Y91.365
G00 X260.926 Y91.56
G00 X261.031 Y91.546
G00 X261.031 Y91.55
G00 X276.615 Y88.789
G00 X276.615 Y88.784
G00 X276.663 Y88.775
G00 X276.658 Y88.775
G00 X276.682 Y88.761
G00 X276.686 Y88.756
G00 X285.202 Y82.005
G00 X285.207 Y82
G00 X289.946 Y71.653
G00 X289.951 Y71.615
G00 X289.937 Y60.358
G00 X289.923 Y60.324
G00 X284.211 Y50.798
G00 X284.144 Y50.755
G00 X276.264 Y46.443
G00 X276.207 Y46.429
G00 X266.985 Y44.782
G00 X266.923 Y44.782
G00 X248.274 Y44.873
G00 X248.188 Y44.873
;Nearing path end, moving to preshutoff position
G00 X244.218 Y44.645
M107 ;Pump off
G00 X241.731 Y44.503
G00 X241.684 Y44.507
G00 X235.441 Y45.152
G00 X235.441 Y45.157
G4 P250 ;Pause for 250 milliseconds
;Completed path #1/8 on color #4
;Starting stroke path #2/8, segments: 51, length: 568, color #4
G00 X235.441 Y113.468
M106 ;Pump on
G4 P350 ;Pause for 350 milliseconds
G00 X235.441 Y113.473
G00 X235.412 Y113.478
G00 X235.398 Y113.487
G00 X233.514 Y115.38
G00 X233.51 Y115.39
G00 X233.496 Y115.437
G00 X232.865 Y118.355
G00 X232.855 Y118.412
G00 X232.85 Y118.445
G00 X233.012 Y124.574
G00 X233.012 Y152.09
G00 X232.732 Y157.684
G00 X233.837 Y162.926
G00 X233.894 Y162.95
G00 X239.198 Y164.7
G00 X239.231 Y164.7
G00 X239.255 Y164.705
G00 X245.304 Y164.425
G00 X245.413 Y164.425
G00 X262.615 Y164.971
G00 X262.701 Y164.966
G00 X262.701 Y164.971
G00 X271.401 Y164.444
G00 X271.43 Y164.44
G00 X271.492 Y164.43
G00 X279.466 Y162.333
G00 X279.49 Y162.328
G00 X279.495 Y162.324
G00 X279.547 Y162.29
G00 X289.073 Y154.458
G00 X289.088 Y154.425
G00 X294.098 Y142.631
G00 X294.098 Y142.616
G00 X294.102 Y142.545
G00 X293.723 Y129.831
G00 X293.704 Y129.774
G00 X291.242 Y124.005
G00 X291.213 Y123.962
G00 X287.081 Y119.043
G00 X287.043 Y119.019
G00 X278.693 Y114.507
G00 X268.972 Y112.909
G00 X268.93 Y112.904
G00 X268.873 Y112.899
G00 X249.156 Y113.188
G00 X249.056 Y113.184
;Nearing path end, moving to preshutoff position
G00 X244.218 Y112.902
M107 ;Pump off
G00 X242.201 Y112.785
G00 X242.201 Y112.79
G00 X242.149 Y112.79
G00 X235.441 Y113.468
G4 P250 ;Pause for 250 milliseconds
;Completed path #2/8 on color #4
;Starting stroke path #3/8, segments: 146, length: 1527, color #4
G00 X300.758 Y100.868
M106 ;Pump on
G4 P350 ;Pause for 350 milliseconds
G00 X303.401 Y104.435
G00 X303.41 Y104.44
G00 X303.429 Y104.454
G00 X307.386 Y106.798
G00 X307.481 Y106.86
G00 X307.599 Y106.955
G00 X313.724 Y112.33
G00 X313.81 Y112.406
G00 X313.885 Y112.496
G00 X313.947 Y112.576
G00 X318.639 Y119.223
G00 X318.701 Y119.323
G00 X318.758 Y119.422
G00 X318.796 Y119.512
G00 X322.425 Y128.536
G00 X322.468 Y128.645
G00 X322.496 Y128.759
G00 X322.515 Y128.863
G00 X323.872 Y138.166
G00 X323.881 Y138.28
G00 X323.886 Y138.399
G00 X323.881 Y138.479
G00 X323.156 Y147.726
G00 X323.141 Y147.844
G00 X323.118 Y147.958
G00 X323.103 Y148.02
G00 X320.461 Y156.958
G00 X320.423 Y157.067
G00 X320.352 Y157.219
G00 X315.992 Y165.464
G00 X315.935 Y165.564
G00 X315.84 Y165.697
G00 X309.938 Y172.998
G00 X309.862 Y173.083
G00 X309.739 Y173.197
G00 X302.509 Y179.189
G00 X302.419 Y179.26
G00 X302.319 Y179.322
G00 X302.267 Y179.355
G00 X293.889 Y183.758
G00 X293.78 Y183.805
G00 X293.675 Y183.848
G00 X293.571 Y183.876
G00 X277.749 Y187.866
G00 X277.635 Y187.89
G00 X277.493 Y187.904
G00 X260.556 Y188.995
G00 X260.428 Y189
G00 X226.332 Y188.146
G00 X210.709 Y188.146
G00 X207.905 Y188.094
G00 X207.792 Y188.084
G00 X207.678 Y188.07
G00 X207.564 Y188.046
G00 X207.45 Y188.008
G00 X207.346 Y187.966
G00 X207.256 Y187.923
G00 X205.543 Y186.998
G00 X205.443 Y186.936
G00 X205.348 Y186.87
G00 X205.263 Y186.794
G00 X205.178 Y186.713
G00 X205.102 Y186.628
G00 X205.035 Y186.533
G00 X204.974 Y186.433
G00 X204.921 Y186.329
G00 X204.879 Y186.22
G00 X204.845 Y186.111
G00 X204.822 Y185.997
G00 X204.808 Y185.921
G00 X204.082 Y180.157
G00 X204.072 Y180.043
G00 X204.072 Y102.742
G00 X203.598 Y41.077
G00 X203.323 Y36.419
G00 X203.114 Y30.479
G00 X203.114 Y30.36
G00 X203.128 Y30.237
G00 X203.802 Y25.175
G00 X203.821 Y25.061
G00 X203.849 Y24.952
G00 X203.887 Y24.838
G00 X203.935 Y24.734
G00 X203.992 Y24.634
G00 X204.053 Y24.534
G00 X204.096 Y24.482
G00 X206.046 Y22.02
G00 X206.122 Y21.93
G00 X206.202 Y21.849
G00 X206.292 Y21.773
G00 X206.387 Y21.707
G00 X206.487 Y21.65
G00 X206.591 Y21.598
G00 X206.7 Y21.555
G00 X206.81 Y21.522
G00 X206.923 Y21.498
G00 X207.042 Y21.484
G00 X207.108 Y21.479
G00 X216.459 Y21.152
G00 X238.705 Y21.152
G00 X259.74 Y21
G00 X259.868 Y21.005
G00 X281.891 Y22.836
G00 X282.005 Y22.85
G00 X282.137 Y22.879
G00 X292.285 Y25.559
G00 X292.394 Y25.592
G00 X292.541 Y25.654
G00 X301.598 Y30.052
G00 X301.702 Y30.109
G00 X301.797 Y30.17
G00 X301.906 Y30.256
G00 X309.44 Y36.751
G00 X309.526 Y36.831
G00 X309.601 Y36.917
G00 X309.673 Y37.007
G00 X309.715 Y37.073
G00 X315.37 Y46.111
G00 X315.427 Y46.21
G00 X315.479 Y46.315
G00 X315.517 Y46.424
G00 X315.541 Y46.505
G00 X319.161 Y60.31
G00 X319.185 Y60.424
G00 X319.204 Y60.538
G00 X319.208 Y60.656
G00 X319.204 Y60.761
G00 X318.316 Y74.96
G00 X318.307 Y75.074
G00 X318.283 Y75.188
G00 X318.255 Y75.302
G00 X318.217 Y75.411
G00 X318.184 Y75.477
G00 X312.14 Y88.248
G00 X312.087 Y88.353
G00 X312.026 Y88.452
G00 X311.955 Y88.543
G00 X311.879 Y88.633
G00 X311.803 Y88.704
;Nearing path end, moving to preshutoff position
G00 X305.932 Y93.937
M107 ;Pump off
G00 X305.417 Y94.397
G00 X302.087 Y97.713
G00 X302.068 Y97.737
G00 X300.754 Y100.839
G00 X300.754 Y100.858
G00 X300.758 Y100.868
G4 P250 ;Pause for 250 milliseconds
;Completed path #3/8 on color #4
;Switching Color to: Medium dark
G4 P1000 ;Pause for 1000 milliseconds
G00 X1 Y1 ;Help homing
G28 X0 Y0 ;Home All Axis
M84 ;Motors off
M142 ;Bottle change
G4 P15000 ;Pause for 15000 milliseconds
;Starting stroke path #4/8, segments: 2, length: 195, color #3
G00 X218.779 Y102.751
M106 ;Pump on
G4 P350 ;Pause for 350 milliseconds
;Nearing path end, moving to preshutoff position
G00 X278.751 Y101.924
M107 ;Pump off
G00 X287.57 Y101.802
G4 P250 ;Pause for 250 milliseconds
;Completed path #4/8 on color #3
;Starting stroke path #5/8, segments: 17, length: 1239, color #3
G00 X287.57 Y101.802
M106 ;Pump on
G4 P350 ;Pause for 350 milliseconds
G00 X292.616 Y109.787
G00 X302.966 Y121.728
G00 X307.465 Y142.408
G00 X301.228 Y162.528
G00 X289.22 Y172.248
G00 X273.539 Y176.307
G00 X241.077 Y176.76
G00 X230.004 Y177.32
G00 X219.932 Y174.675
G00 X218.305 Y167.746
G00 X218.305 Y152.09
G00 X218.305 Y88.519
G00 X218.305 Y48.193
G00 X218.105 Y40.577
G00 X221.172 Y34.287
G00 X230.165 Y33.487
G00 X249.616 Y33.487
G00 X270.534 Y33.824
G00 X290.416 Y39.395
G00 X298.793 Y47.779
G00 X302.588 Y58.862
G00 X302.526 Y70.951
G00 X299.33 Y82.351
G00 X292.558 Y91.84
;Nearing path end, moving to preshutoff position
G00 X291.518 Y93.916
M107 ;Pump off
G00 X287.57 Y101.802
G4 P250 ;Pause for 250 milliseconds
;Completed path #5/8 on color #3
;Starting fill path #6/8, segments: 611, length: 3348, color #3
G00 X226.072 Y34.999
M106 ;Pump on
G4 P350 ;Pause for 350 milliseconds
G00 X225.808 Y35.247
G00 X225.682 Y35.371
G00 X225.438 Y35.62
G00 X225.316 Y35.749
G00 X225.081 Y36.008
G00 X224.965 Y36.141
G00 X224.739 Y36.409
G00 X224.628 Y36.546
G00 X224.411 Y36.825
G00 X224.305 Y36.966
G00 X224.099 Y37.252
G00 X223.999 Y37.398
G00 X223.81 Y37.684
G00 X223.715 Y37.833
G00 X223.583 Y38.045
G00 X223.518 Y38.155
G00 X223.428 Y38.312
G00 X223.343 Y38.461
G00 X220.848 Y42.953
G00 X220.763 Y43.11
G00 X220.68 Y43.265
G00 X220.527 Y43.568
G00 X220.45 Y43.727
G00 X220.295 Y44.065
G00 X220.224 Y44.227
G00 X220.092 Y44.548
G00 X220.027 Y44.712
G00 X219.906 Y45.042
G00 X219.848 Y45.208
G00 X219.739 Y45.543
G00 X219.687 Y45.712
G00 X219.591 Y46.05
G00 X219.546 Y46.221
G00 X219.46 Y46.574
G00 X219.422 Y46.747
G00 X219.354 Y47.082
G00 X219.322 Y47.256
G00 X219.265 Y47.608
G00 X219.24 Y47.783
G00 X219.196 Y48.135
G00 X219.178 Y48.31
G00 X219.148 Y48.664
G00 X219.136 Y48.84
G00 X219.123 Y49.09
G00 X219.119 Y49.222
G00 X219.114 Y49.436
G00 X219.111 Y49.697
G00 X219.114 Y49.967
G00 X219.211 Y55.442
G00 X219.211 Y79.684
G00 X219.006 Y84.447
G00 X219 Y84.613
G00 X218.996 Y84.79
G00 X218.994 Y85.161
G00 X218.997 Y85.337
G00 X219.009 Y85.69
G00 X219.018 Y85.866
G00 X219.042 Y86.202
G00 X219.058 Y86.378
G00 X219.097 Y86.731
G00 X219.12 Y86.906
G00 X219.176 Y87.276
G00 X219.205 Y87.45
G00 X219.27 Y87.788
G00 X219.307 Y87.965
G00 X219.346 Y88.144
G00 X220.457 Y92.956
G00 X220.536 Y93.271
G00 X220.586 Y93.46
G00 X220.654 Y93.701
G00 X220.692 Y93.824
G00 X220.749 Y94.007
G00 X220.863 Y94.348
G00 X220.922 Y94.514
G00 X221.041 Y94.827
G00 X221.106 Y94.991
G00 X221.243 Y95.318
G00 X221.315 Y95.479
G00 X221.469 Y95.809
G00 X221.547 Y95.967
G00 X221.702 Y96.269
G00 X221.785 Y96.425
G00 X221.964 Y96.741
G00 X222.054 Y96.893
G00 X222.233 Y97.185
G00 X222.329 Y97.333
G00 X222.536 Y97.642
G00 X222.637 Y97.787
G00 X222.83 Y98.053
G00 X222.937 Y98.193
G00 X223.09 Y98.391
G00 X223.17 Y98.49
G00 X223.282 Y98.627
G00 X223.501 Y98.883
G00 X223.618 Y99.015
G00 X223.855 Y99.273
G00 X223.977 Y99.401
G00 X224.232 Y99.658
G00 X224.359 Y99.781
G00 X224.625 Y100.028
G00 X224.756 Y100.145
G00 X225.011 Y100.365
G00 X225.147 Y100.478
G00 X225.423 Y100.698
G00 X225.563 Y100.806
G00 X225.844 Y101.013
G00 X225.988 Y101.115
G00 X226.287 Y101.319
G00 X226.435 Y101.415
G00 X226.734 Y101.601
G00 X226.885 Y101.692
G00 X227.193 Y101.868
G00 X227.348 Y101.953
G00 X227.615 Y102.092
G00 X227.601 Y102.101
G00 X227.456 Y102.202
G00 X227.178 Y102.402
G00 X227.037 Y102.508
G00 X226.84 Y102.661
G00 X226.74 Y102.741
G00 X226.603 Y102.853
G00 X226.346 Y103.071
G00 X226.214 Y103.187
G00 X226.028 Y103.355
G00 X225.911 Y103.466
G00 X225.757 Y103.614
G00 X225.615 Y103.753
G00 X223.732 Y105.646
G00 X223.617 Y105.764
G00 X223.495 Y105.891
G00 X223.249 Y106.157
G00 X223.132 Y106.289
G00 X222.896 Y106.566
G00 X222.784 Y106.702
G00 X222.574 Y106.969
G00 X222.467 Y107.11
G00 X222.254 Y107.403
G00 X222.153 Y107.548
G00 X221.959 Y107.836
G00 X221.863 Y107.985
G00 X221.676 Y108.289
G00 X221.586 Y108.441
G00 X221.462 Y108.658
G00 X221.382 Y108.804
G00 X221.268 Y109.019
G00 X221.154 Y109.242
G00 X221.09 Y109.374
G00 X221.014 Y109.534
G00 X220.868 Y109.857
G00 X220.798 Y110.019
G00 X220.663 Y110.35
G00 X220.6 Y110.515
G00 X220.513 Y110.749
G00 X220.453 Y110.923
G00 X220.371 Y111.173
G00 X220.291 Y111.424
G00 X220.277 Y111.471
G00 X220.227 Y111.643
G00 X220.18 Y111.814
G00 X220.091 Y112.157
G00 X220.048 Y112.337
G00 X220.007 Y112.52
G00 X219.376 Y115.438
G00 X219.332 Y115.654
G00 X219.29 Y115.871
G00 X219.252 Y116.086
G00 X219.242 Y116.143
G00 X219.221 Y116.28
G00 X219.2 Y116.419
G00 X219.166 Y116.664
G00 X219.144 Y116.839
G00 X219.107 Y117.194
G00 X219.092 Y117.37
G00 X219.069 Y117.721
G00 X219.061 Y117.898
G00 X219.053 Y118.147
G00 X219.052 Y118.322
G00 X219.052 Y118.566
G00 X219.055 Y118.808
G00 X219.211 Y124.757
G00 X219.211 Y151.745
G00 X218.948 Y156.994
G00 X218.941 Y157.172
G00 X218.935 Y157.348
G00 X218.931 Y157.701
G00 X218.933 Y157.878
G00 X218.942 Y158.231
G00 X218.951 Y158.407
G00 X218.973 Y158.759
G00 X218.988 Y158.935
G00 X219.025 Y159.289
G00 X219.047 Y159.464
G00 X219.095 Y159.801
G00 X219.123 Y159.975
G00 X219.18 Y160.294
G00 X219.228 Y160.532
G00 X220.333 Y165.774
G00 X220.371 Y165.944
G00 X220.411 Y166.116
G00 X220.498 Y166.465
G00 X220.545 Y166.635
G00 X220.642 Y166.968
G00 X220.695 Y167.137
G00 X220.803 Y167.459
G00 X220.862 Y167.626
G00 X220.994 Y167.975
G00 X221.06 Y168.139
G00 X221.195 Y168.459
G00 X221.267 Y168.621
G00 X221.418 Y168.942
G00 X221.495 Y169.101
G00 X221.655 Y169.409
G00 X221.739 Y169.565
G00 X221.914 Y169.875
G00 X222.004 Y170.027
G00 X222.182 Y170.315
G00 X222.277 Y170.464
G00 X222.482 Y170.769
G00 X222.583 Y170.914
G00 X222.791 Y171.199
G00 X222.898 Y171.339
G00 X223.124 Y171.625
G00 X223.236 Y171.761
G00 X223.456 Y172.019
G00 X223.573 Y172.151
G00 X223.81 Y172.408
G00 X223.933 Y172.536
G00 X224.188 Y172.792
G00 X224.315 Y172.915
G00 X224.572 Y173.153
G00 X224.703 Y173.271
G00 X224.969 Y173.499
G00 X225.105 Y173.612
G00 X225.379 Y173.83
G00 X225.519 Y173.938
G00 X225.803 Y174.147
G00 X225.947 Y174.248
G00 X226.09 Y174.345
G00 X217.873 Y174.345
G00 X217.872 Y102.636
G00 X217.398 Y40.971
G00 X217.393 Y40.738
G00 X217.386 Y40.502
G00 X217.374 Y40.263
G00 X217.109 Y35.771
G00 X217.08 Y34.952
G00 X226.124 Y34.952
G00 X226.072 Y34.999
G00 X232.252 Y41.814
G00 X232.126 Y41.938
G00 X232.005 Y42.066
G00 X231.889 Y42.199
G00 X231.777 Y42.336
G00 X231.672 Y42.478
G00 X231.572 Y42.623
G00 X231.477 Y42.772
G00 X231.386 Y42.928
G00 X228.891 Y47.421
G00 X228.808 Y47.577
G00 X228.731 Y47.736
G00 X228.661 Y47.897
G00 X228.596 Y48.062
G00 X228.538 Y48.229
G00 X228.487 Y48.397
G00 X228.442 Y48.568
G00 X228.404 Y48.74
G00 X228.372 Y48.914
G00 X228.347 Y49.089
G00 X228.328 Y49.264
G00 X228.317 Y49.441
G00 X228.312 Y49.655
G00 X228.312 Y49.803
G00 X228.411 Y55.354
G00 X228.411 Y79.883
G00 X228.198 Y84.843
G00 X228.193 Y85.02
G00 X228.196 Y85.196
G00 X228.205 Y85.372
G00 X228.221 Y85.548
G00 X228.244 Y85.723
G00 X228.274 Y85.897
G00 X228.311 Y86.075
G00 X229.422 Y90.887
G00 X229.426 Y90.906
G00 X229.472 Y91.076
G00 X229.525 Y91.245
G00 X229.53 Y91.259
G00 X229.589 Y91.425
G00 X229.654 Y91.59
G00 X229.726 Y91.751
G00 X229.804 Y91.909
G00 X229.887 Y92.065
G00 X229.977 Y92.217
G00 X230.072 Y92.365
G00 X230.173 Y92.51
G00 X230.28 Y92.651
G00 X230.392 Y92.787
G00 X230.509 Y92.919
G00 X230.631 Y93.047
G00 X230.758 Y93.17
G00 X230.889 Y93.287
G00 X231.025 Y93.4
G00 X231.165 Y93.508
G00 X231.309 Y93.61
G00 X231.457 Y93.706
G00 X231.608 Y93.797
G00 X231.763 Y93.881
G00 X231.921 Y93.96
G00 X232.125 Y94.051
G00 X232.182 Y94.074
G00 X232.346 Y94.139
G00 X232.44 Y94.173
G00 X237.473 Y95.924
G00 X237.632 Y95.975
G00 X237.694 Y95.994
G00 X237.863 Y96.043
G00 X238.035 Y96.085
G00 X238.207 Y96.121
G00 X238.381 Y96.15
G00 X238.557 Y96.172
G00 X238.733 Y96.187
G00 X238.909 Y96.196
G00 X239.085 Y96.198
G00 X239.23 Y96.194
G00 X244.934 Y95.966
G00 X260.871 Y96.16
G00 X261.047 Y96.158
G00 X261.223 Y96.15
G00 X261.399 Y96.136
G00 X261.403 Y96.135
G00 X261.571 Y96.119
G00 X261.745 Y96.095
G00 X261.833 Y96.08
G00 X277.417 Y93.319
G00 X277.591 Y93.285
G00 X277.763 Y93.244
G00 X277.933 Y93.197
G00 X277.982 Y93.181
G00 X278.077 Y93.153
G00 X278.244 Y93.095
G00 X278.408 Y93.031
G00 X278.57 Y92.961
G00 X278.729 Y92.885
G00 X278.886 Y92.802
G00 X279.038 Y92.714
G00 X279.188 Y92.62
G00 X279.334 Y92.521
G00 X279.403 Y92.469
G00 X279.463 Y92.425
G00 X279.602 Y92.316
G00 X279.615 Y92.305
G00 X288.06 Y85.61
G00 X288.196 Y85.497
G00 X288.328 Y85.38
G00 X288.455 Y85.258
G00 X288.459 Y85.253
G00 X288.582 Y85.126
G00 X288.7 Y84.994
G00 X288.812 Y84.858
G00 X288.919 Y84.717
G00 X289.02 Y84.573
G00 X289.116 Y84.425
G00 X289.206 Y84.273
G00 X289.291 Y84.118
G00 X289.389 Y83.916
G00 X294.129 Y73.569
G00 X294.199 Y73.407
G00 X294.263 Y73.243
G00 X294.321 Y73.076
G00 X294.372 Y72.907
G00 X294.417 Y72.736
G00 X294.455 Y72.564
G00 X294.487 Y72.39
G00 X294.511 Y72.224
G00 X294.516 Y72.186
G00 X294.534 Y72.01
G00 X294.546 Y71.834
G00 X294.551 Y71.609
G00 X294.537 Y60.352
G00 X294.533 Y60.175
G00 X294.523 Y59.999
G00 X294.506 Y59.823
G00 X294.482 Y59.648
G00 X294.451 Y59.475
G00 X294.414 Y59.302
G00 X294.37 Y59.131
G00 X294.32 Y58.962
G00 X294.263 Y58.795
G00 X294.2 Y58.63
G00 X294.165 Y58.546
G00 X294.151 Y58.512
G00 X294.078 Y58.352
G00 X293.999 Y58.193
G00 X293.915 Y58.039
G00 X293.868 Y57.959
G00 X288.156 Y48.432
G00 X288.063 Y48.283
G00 X287.963 Y48.137
G00 X287.858 Y47.995
G00 X287.748 Y47.857
G00 X287.633 Y47.723
G00 X287.512 Y47.594
G00 X287.387 Y47.47
G00 X287.257 Y47.351
G00 X287.122 Y47.236
G00 X286.983 Y47.127
G00 X286.841 Y47.024
G00 X286.698 Y46.929
G00 X286.632 Y46.886
G00 X286.482 Y46.793
G00 X286.353 Y46.72
G00 X278.473 Y42.407
G00 X278.316 Y42.326
G00 X278.157 Y42.25
G00 X277.995 Y42.181
G00 X277.83 Y42.117
G00 X277.663 Y42.06
G00 X277.493 Y42.01
G00 X277.38 Y41.98
G00 X277.323 Y41.966
G00 X277.151 Y41.926
G00 X277.016 Y41.9
G00 X267.793 Y40.254
G00 X267.619 Y40.226
G00 X267.444 Y40.205
G00 X267.268 Y40.191
G00 X267.091 Y40.183
G00 X266.962 Y40.182
G00 X248.311 Y40.272
G00 X241.994 Y39.91
G00 X241.818 Y39.903
G00 X241.642 Y39.903
G00 X241.465 Y39.91
G00 X241.259 Y39.927
G00 X234.968 Y40.577
G00 X234.793 Y40.598
G00 X234.618 Y40.626
G00 X234.445 Y40.661
G00 X234.274 Y40.703
G00 X234.244 Y40.711
G00 X234.238 Y40.713
G00 X234.18 Y40.729
G00 X234.104 Y40.751
G00 X234.095 Y40.753
G00 X234.068 Y40.761
G00 X233.9 Y40.816
G00 X233.735 Y40.877
G00 X233.571 Y40.944
G00 X233.411 Y41.018
G00 X233.254 Y41.097
G00 X233.099 Y41.183
G00 X232.948 Y41.274
G00 X232.801 Y41.371
G00 X232.657 Y41.474
G00 X232.518 Y41.582
G00 X232.383 Y41.696
G00 X232.252 Y41.814
G00 X238.738 Y25.752
G00 X259.63 Y25.601
G00 X281.23 Y27.397
G00 X290.812 Y29.928
G00 X299.212 Y34.007
G00 X306.069 Y39.919
G00 X311.214 Y48.141
G00 X314.581 Y60.98
G00 X313.763 Y74.064
G00 X308.255 Y85.704
G00 X302.356 Y90.963
G00 X302.172 Y91.137
G00 X298.841 Y94.453
G00 X298.718 Y94.58
G00 X298.601 Y94.712
G00 X298.495 Y94.839
G00 X298.476 Y94.863
G00 X298.368 Y95.003
G00 X298.266 Y95.147
G00 X298.169 Y95.294
G00 X298.078 Y95.446
G00 X297.993 Y95.601
G00 X297.914 Y95.758
G00 X297.832 Y95.943
G00 X296.518 Y99.045
G00 X296.452 Y99.209
G00 X296.393 Y99.375
G00 X296.34 Y99.543
G00 X296.293 Y99.714
G00 X296.253 Y99.886
G00 X296.22 Y100.059
G00 X296.194 Y100.234
G00 X296.174 Y100.409
G00 X296.16 Y100.585
G00 X296.153 Y100.839
G00 X296.153 Y100.858
G00 X296.157 Y101.035
G00 X296.167 Y101.211
G00 X296.184 Y101.387
G00 X296.207 Y101.562
G00 X296.238 Y101.735
G00 X296.275 Y101.908
G00 X296.318 Y102.079
G00 X296.368 Y102.249
G00 X296.425 Y102.415
G00 X296.488 Y102.58
G00 X296.557 Y102.743
G00 X296.639 Y102.915
G00 X296.644 Y102.925
G00 X296.726 Y103.081
G00 X296.814 Y103.234
G00 X296.907 Y103.384
G00 X297.007 Y103.53
G00 X297.062 Y103.606
G00 X299.704 Y107.173
G00 X299.812 Y107.313
G00 X299.925 Y107.449
G00 X300.043 Y107.58
G00 X300.166 Y107.706
G00 X300.294 Y107.828
G00 X300.426 Y107.945
G00 X300.563 Y108.056
G00 X300.704 Y108.163
G00 X300.804 Y108.232
G00 X300.812 Y108.238
G00 X300.819 Y108.242
G00 X300.849 Y108.263
G00 X300.886 Y108.286
G00 X300.959 Y108.335
G00 X301.085 Y108.412
G00 X304.781 Y110.601
G00 X310.409 Y115.541
G00 X314.665 Y121.569
G00 X318.019 Y129.908
G00 X319.268 Y138.473
G00 X318.595 Y147.045
G00 X316.143 Y155.338
G00 X312.066 Y163.049
G00 X306.566 Y169.853
G00 X299.816 Y175.446
G00 X292.092 Y179.505
G00 X276.92 Y183.331
G00 X260.374 Y184.397
G00 X226.447 Y183.547
G00 X226.332 Y183.546
G00 X210.74 Y183.546
G00 X209.141 Y183.516
G00 X208.672 Y179.794
G00 X208.672 Y102.706
G00 X208.198 Y41.042
G00 X208.19 Y40.806
G00 X207.918 Y36.198
G00 X207.721 Y30.597
G00 X208.246 Y26.651
G00 X208.742 Y26.025
G00 X216.533 Y25.752
G00 X238.738 Y25.752
G00 X295.657 Y43.089
G00 X299.008 Y45.978
G00 X302.671 Y51.833
G00 X305.306 Y61.883
G00 X304.691 Y71.725
G00 X303.502 Y74.239
G00 X303.508 Y74.205
G00 X303.54 Y74.031
G00 X303.593 Y73.707
G00 X303.617 Y73.541
G00 X303.64 Y73.365
G00 X303.645 Y73.327
G00 X303.665 Y73.156
G00 X303.684 Y72.98
G00 X303.715 Y72.61
G00 X303.727 Y72.434
G00 X303.74 Y72.185
G00 X303.743 Y72.056
G00 X303.749 Y71.831
G00 X303.752 Y71.598
G00 X303.737 Y60.34
G00 X303.735 Y60.158
G00 X303.732 Y59.981
G00 X303.717 Y59.629
G00 X303.707 Y59.452
G00 X303.681 Y59.115
G00 X303.664 Y58.939
G00 X303.621 Y58.572
G00 X303.597 Y58.397
G00 X303.544 Y58.059
G00 X303.513 Y57.885
G00 X303.444 Y57.531
G00 X303.407 Y57.359
G00 X303.328 Y57.025
G00 X303.285 Y56.854
G00 X303.188 Y56.504
G00 X303.137 Y56.334
G00 X303.034 Y56.01
G00 X302.977 Y55.843
G00 X302.852 Y55.497
G00 X302.789 Y55.332
G00 X302.68 Y55.062
G00 X302.631 Y54.944
G00 X302.539 Y54.733
G00 X302.467 Y54.572
G00 X302.311 Y54.244
G00 X302.232 Y54.086
G00 X302.071 Y53.778
G00 X301.986 Y53.623
G00 X301.857 Y53.394
G00 X301.758 Y53.228
;Nearing path end, moving to preshutoff position
G00 X300.209 Y50.643
M107 ;Pump off
G00 X296.047 Y43.701
G00 X295.955 Y43.551
G00 X295.861 Y43.402
G00 X295.663 Y43.098
G00 X295.657 Y43.089
G4 P250 ;Pause for 250 milliseconds
;Completed path #6/8 on color #3
;Starting fill path #7/8, segments: 281, length: 736, color #3
G00 X280.88 Y110.46
M106 ;Pump on
G4 P350 ;Pause for 350 milliseconds
G00 X289.23 Y114.972
G00 X289.33 Y115.027
G00 X289.481 Y115.118
G00 X289.519 Y115.142
G00 X289.692 Y115.255
G00 X289.836 Y115.358
G00 X289.975 Y115.467
G00 X290.11 Y115.58
G00 X290.241 Y115.699
G00 X290.367 Y115.823
G00 X290.487 Y115.951
G00 X290.604 Y116.084
G00 X294.736 Y121.004
G00 X294.834 Y121.125
G00 X294.94 Y121.266
G00 X295.04 Y121.411
G00 X295.069 Y121.453
G00 X295.146 Y121.574
G00 X295.237 Y121.725
G00 X295.321 Y121.88
G00 X295.4 Y122.038
G00 X295.472 Y122.199
G00 X297.934 Y127.968
G00 X298.009 Y128.153
G00 X298.068 Y128.319
G00 X298.087 Y128.376
G00 X298.119 Y128.478
G00 X298.168 Y128.648
G00 X298.21 Y128.819
G00 X298.246 Y128.992
G00 X298.274 Y129.166
G00 X298.297 Y129.342
G00 X298.312 Y129.517
G00 X298.321 Y129.694
G00 X298.7 Y142.408
G00 X298.702 Y142.499
G00 X298.7 Y142.675
G00 X298.692 Y142.852
G00 X298.691 Y142.876
G00 X298.69 Y142.89
G00 X298.677 Y143.066
G00 X298.657 Y143.241
G00 X298.63 Y143.415
G00 X298.597 Y143.589
G00 X298.557 Y143.761
G00 X298.51 Y143.931
G00 X298.457 Y144.099
G00 X298.397 Y144.265
G00 X298.332 Y144.429
G00 X293.308 Y156.256
G00 X293.27 Y156.343
G00 X293.194 Y156.502
G00 X293.113 Y156.659
G00 X293.026 Y156.812
G00 X292.932 Y156.962
G00 X292.833 Y157.108
G00 X292.729 Y157.25
G00 X292.619 Y157.389
G00 X292.504 Y157.522
G00 X292.384 Y157.652
G00 X292.259 Y157.776
G00 X292.129 Y157.896
G00 X291.995 Y158.011
G00 X282.469 Y165.844
G00 X282.307 Y165.97
G00 X282.164 Y166.074
G00 X282.076 Y166.132
G00 X282.015 Y166.173
G00 X281.866 Y166.267
G00 X281.713 Y166.356
G00 X281.557 Y166.438
G00 X281.398 Y166.514
G00 X281.236 Y166.585
G00 X281.071 Y166.648
G00 X280.905 Y166.706
G00 X280.736 Y166.757
G00 X280.565 Y166.801
G00 X280.553 Y166.804
G00 X272.661 Y168.879
G00 X272.555 Y168.906
G00 X272.383 Y168.943
G00 X272.209 Y168.974
G00 X272.119 Y168.988
G00 X272.03 Y169.001
G00 X271.855 Y169.022
G00 X271.679 Y169.036
G00 X262.978 Y169.563
G00 X262.889 Y169.567
G00 X262.712 Y169.571
G00 X262.663 Y169.57
G00 X262.646 Y169.571
G00 X262.469 Y169.569
G00 X245.38 Y169.027
G00 X239.468 Y169.3
G00 X239.229 Y169.305
G00 X239.053 Y169.301
G00 X238.877 Y169.29
G00 X238.833 Y169.285
G00 X238.791 Y169.282
G00 X238.616 Y169.263
G00 X238.441 Y169.238
G00 X238.268 Y169.206
G00 X238.095 Y169.167
G00 X237.925 Y169.121
G00 X237.756 Y169.069
G00 X232.452 Y167.318
G00 X232.289 Y167.261
G00 X232.125 Y167.196
G00 X232.068 Y167.172
G00 X231.869 Y167.084
G00 X231.711 Y167.005
G00 X231.556 Y166.921
G00 X231.405 Y166.831
G00 X231.257 Y166.735
G00 X231.112 Y166.633
G00 X230.972 Y166.525
G00 X230.836 Y166.413
G00 X230.705 Y166.295
G00 X230.578 Y166.173
G00 X230.456 Y166.045
G00 X230.338 Y165.913
G00 X230.226 Y165.777
G00 X230.12 Y165.636
G00 X230.018 Y165.492
G00 X229.923 Y165.343
G00 X229.833 Y165.191
G00 X229.749 Y165.036
G00 X229.671 Y164.878
G00 X229.599 Y164.716
G00 X229.534 Y164.552
G00 X229.475 Y164.386
G00 X229.422 Y164.217
G00 X229.376 Y164.047
G00 X229.336 Y163.875
G00 X228.23 Y158.633
G00 X228.206 Y158.508
G00 X228.178 Y158.334
G00 X228.156 Y158.159
G00 X228.141 Y157.983
G00 X228.133 Y157.807
G00 X228.132 Y157.63
G00 X228.137 Y157.454
G00 X228.411 Y151.976
G00 X228.411 Y124.631
G00 X228.252 Y118.566
G00 X228.252 Y118.322
G00 X228.26 Y118.145
G00 X228.275 Y117.969
G00 X228.297 Y117.794
G00 X228.301 Y117.761
G00 X228.318 Y117.655
G00 X228.327 Y117.599
G00 X228.368 Y117.382
G00 X228.999 Y114.465
G00 X229.042 Y114.285
G00 X229.089 Y114.115
G00 X229.104 Y114.068
G00 X229.186 Y113.818
G00 X229.25 Y113.654
G00 X229.319 Y113.492
G00 X229.395 Y113.332
G00 X229.4 Y113.323
G00 X229.509 Y113.117
G00 X229.599 Y112.965
G00 X229.695 Y112.817
G00 X229.796 Y112.672
G00 X229.903 Y112.532
G00 X230.014 Y112.395
G00 X230.131 Y112.263
G00 X230.254 Y112.136
G00 X232.137 Y110.243
G00 X232.291 Y110.095
G00 X232.423 Y109.978
G00 X232.56 Y109.866
G00 X232.701 Y109.76
G00 X232.846 Y109.66
G00 X232.861 Y109.65
G00 X233.012 Y109.553
G00 X233.164 Y109.464
G00 X233.32 Y109.381
G00 X233.479 Y109.304
G00 X233.64 Y109.232
G00 X233.804 Y109.168
G00 X233.928 Y109.124
G00 X233.945 Y109.118
G00 X233.954 Y109.115
G00 X233.971 Y109.109
G00 X234.012 Y109.097
G00 X234.114 Y109.064
G00 X234.283 Y109.016
G00 X234.455 Y108.975
G00 X234.628 Y108.94
G00 X234.803 Y108.913
G00 X234.978 Y108.891
G00 X241.686 Y108.213
G00 X241.753 Y108.207
G00 X241.763 Y108.206
G00 X241.786 Y108.204
G00 X241.796 Y108.203
G00 X241.803 Y108.203
G00 X241.939 Y108.192
G00 X242.115 Y108.186
G00 X242.292 Y108.186
G00 X242.468 Y108.193
G00 X249.243 Y108.587
G00 X268.805 Y108.299
G00 X268.902 Y108.299
G00 X269.079 Y108.303
G00 X269.255 Y108.315
G00 X269.312 Y108.319
G00 X269.438 Y108.332
G00 X269.48 Y108.336
G00 X269.719 Y108.369
G00 X279.44 Y109.968
G00 X279.555 Y109.989
G00 X279.728 Y110.025
G00 X279.899 Y110.068
G00 X280.068 Y110.117
G00 X280.236 Y110.173
G00 X280.401 Y110.236
G00 X280.563 Y110.304
G00 X280.723 Y110.379
G00 X280.88 Y110.46
G00 X287.252 Y97.991
G00 X285.331 Y99.514
G00 X285.304 Y99.536
G00 X285.165 Y99.645
G00 X284.9 Y99.847
G00 X284.889 Y99.855
G00 X284.87 Y99.869
G00 X284.858 Y99.878
G00 X284.831 Y99.898
G00 X284.722 Y99.978
G00 X284.518 Y100.121
G00 X284.372 Y100.22
G00 X284.094 Y100.403
G00 X283.945 Y100.497
G00 X283.634 Y100.685
G00 X283.481 Y100.773
G00 X283.176 Y100.941
G00 X283.02 Y101.024
G00 X282.716 Y101.176
G00 X282.557 Y101.253
G00 X282.548 Y101.257
G00 X282.642 Y101.285
G00 X282.983 Y101.391
G00 X283.15 Y101.447
G00 X283.503 Y101.573
G00 X283.668 Y101.635
G00 X283.963 Y101.753
G00 X284.126 Y101.822
;Nearing path end, moving to preshutoff position
G00 X284.213 Y101.86
M107 ;Pump off
G00 X284.465 Y101.972
G00 X284.625 Y102.047
G00 X284.944 Y102.204
G00 X285.1 Y102.285
G00 X285.254 Y102.366
G00 X287.193 Y103.414
G00 X287.176 Y103.325
G00 X287.145 Y103.151
G00 X287.09 Y102.796
G00 X287.066 Y102.621
G00 X287.026 Y102.269
G00 X287.009 Y102.093
G00 X286.982 Y101.741
G00 X286.972 Y101.565
G00 X286.958 Y101.194
G00 X286.954 Y100.999
G00 X286.953 Y100.831
G00 X286.956 Y100.582
G00 X286.964 Y100.328
G00 X286.971 Y100.146
G00 X286.986 Y99.897
G00 X286.999 Y99.721
G00 X287.032 Y99.368
G00 X287.052 Y99.193
G00 X287.097 Y98.856
G00 X287.123 Y98.682
G00 X287.184 Y98.33
G00 X287.217 Y98.156
G00 X287.252 Y97.991
G4 P250 ;Pause for 250 milliseconds
;Completed path #7/8 on color #3
;Starting fill path #8/8, segments: 70, length: 252, color #3
G00 X307.43 Y128.237
M106 ;Pump on
G4 P350 ;Pause for 350 milliseconds
G00 X309.073 Y132.322
G00 X310.015 Y138.781
G00 X309.498 Y145.362
G00 X307.58 Y151.849
G00 X304.349 Y157.959
G00 X299.987 Y163.356
G00 X294.685 Y167.749
G00 X294.553 Y167.819
G00 X297.838 Y165.118
G00 X297.978 Y165
G00 X298.112 Y164.886
G00 X298.374 Y164.653
G00 X298.504 Y164.533
G00 X298.756 Y164.291
G00 X298.881 Y164.166
G00 X299.123 Y163.915
G00 X299.243 Y163.786
G00 X299.477 Y163.525
G00 X299.592 Y163.391
G00 X299.824 Y163.11
G00 X299.934 Y162.972
G00 X300.148 Y162.691
G00 X300.252 Y162.549
G00 X300.456 Y162.261
G00 X300.554 Y162.114
G00 X300.736 Y161.835
G00 X300.829 Y161.685
G00 X301.02 Y161.365
G00 X301.108 Y161.212
G00 X301.278 Y160.9
G00 X301.359 Y160.744
G00 X301.51 Y160.439
G00 X301.585 Y160.28
G00 X301.699 Y160.03
G00 X301.776 Y159.853
G00 X306.8 Y148.026
G00 X306.869 Y147.858
G00 X306.935 Y147.695
G00 X307.058 Y147.37
G00 X307.118 Y147.204
G00 X307.23 Y146.871
G00 X307.283 Y146.702
G00 X307.386 Y146.353
G00 X307.432 Y146.183
G00 X307.514 Y145.859
G00 X307.555 Y145.687
G00 X307.63 Y145.335
G00 X307.663 Y145.162
G00 X307.724 Y144.81
G00 X307.751 Y144.636
G00 X307.798 Y144.282
G00 X307.818 Y144.107
G00 X307.852 Y143.755
G00 X307.865 Y143.579
G00 X307.869 Y143.505
G00 X307.87 Y143.505
G00 X307.871 Y143.48
G00 X307.883 Y143.275
G00 X307.891 Y143.098
G00 X307.9 Y142.763
G00 X307.902 Y142.587
G00 X307.901 Y142.326
G00 X307.897 Y142.133
;Nearing path end, moving to preshutoff position
G00 X307.745 Y137.05
M107 ;Pump off
G00 X307.517 Y129.419
G00 X307.51 Y129.235
G00 X307.501 Y129.059
G00 X307.478 Y128.722
G00 X307.463 Y128.547
G00 X307.43 Y128.237
G4 P250 ;Pause for 250 milliseconds
;Completed path #8/8 on color #3
;PancakePainter Footer Start
G4 P1000 ;Pause for 1000 milliseconds
G00 X1 Y1 ;Help homing
G28 X0 Y0 ;Home All Axis
M84 ;Motors off
;PancakePainter Footer Complete
