;PancakePainter v1.4.0 GCODE header start
;Originally generated @ Wed Dec 04 2019 14:07:42 GMT-0600 (Central Standard Time)
;Settings used to generate this file:
;----------------------------------------
;botSpeed: 4620
;flattenResolution: 2
;lineEndPreShutoff: 25
;startWait: 350
;endWait: 250
;shadeChangeWait: 15
;useLineFill: false
;useShortest: true
;shapeFillWidth: 7.5
;fillSpacing: 10
;fillAngle: 23
;fillGroupThreshold: 27
;useColorSpeed: false
;botColorSpeed: 6600,5280,5280,3300
;----------------------------------------
W1 X42 Y210 L485 T0 ;Define Workspace of this file
G21 ;Set units to MM
G1 F4620 ;Set Speed
M107 ;Pump off
G4 P1000 ;Pause for 1000 milliseconds
M84 ;Motors off
G00 X1 Y1 ;Help homing
G28 X0 Y0 ;Home All Axis
;PancakePainter header complete
;Starting stroke path #1/5, segments: 6, length: 442, color #1
G00 X106.305 Y27.894
M106 ;Pump on
G4 P350 ;Pause for 350 milliseconds
G00 X117.689 Y27.886
G00 X128.956 Y29.238
G00 X144.431 Y34.883
G00 X158.755 Y42.988
G00 X186.292 Y61.163
G00 X203.293 Y69.386
G00 X211.389 Y73.678
G00 X218.853 Y79.567
G00 X213.105 Y86.257
G00 X209.878 Y89.298
G00 X206.111 Y91.239
;Nearing path end, moving to preshutoff position
G00 X202.866 Y91.373
M107 ;Pump off
G00 X200.14 Y91.486
G00 X194.078 Y90.893
G4 P250 ;Pause for 250 milliseconds
;Completed path #1/5 on color #1
;Starting stroke path #2/5, segments: 5, length: 268, color #1
G00 X218.853 Y79.567
M106 ;Pump on
G4 P350 ;Pause for 350 milliseconds
G00 X230.38 Y78.654
G00 X236.42 Y78.461
G00 X241.504 Y79.286
G00 X251.693 Y85.477
G00 X256.886 Y88.513
G00 X262.739 Y89.939
G00 X268.713 Y88.75
G00 X274.168 Y85.65
G00 X284.682 Y79.276
G00 X289.82 Y78.465
G00 X295.822 Y78.66
;Nearing path end, moving to preshutoff position
G00 X298.541 Y78.874
M107 ;Pump off
G00 X307.333 Y79.567
G4 P250 ;Pause for 250 milliseconds
;Completed path #2/5 on color #1
;Starting stroke path #3/5, segments: 2, length: 197, color #1
G00 X263.447 Y90.893
M106 ;Pump on
G4 P350 ;Pause for 350 milliseconds
;Nearing path end, moving to preshutoff position
G00 X263.447 Y151.442
M107 ;Pump off
G00 X263.447 Y160.261
G4 P250 ;Pause for 250 milliseconds
;Completed path #3/5 on color #1
;Starting stroke path #4/5, segments: 6, length: 435, color #1
G00 X329.984 Y90.893
M106 ;Pump on
G4 P350 ;Pause for 350 milliseconds
G00 X319.367 Y91.075
G00 X307.333 Y79.567
G00 X314.417 Y74.006
G00 X321.937 Y70.141
G00 X337.771 Y62.534
G00 X366.941 Y43.225
G00 X382.214 Y34.784
G00 X398.645 Y28.958
G00 X409.212 Y27.813
;Nearing path end, moving to preshutoff position
G00 X411.061 Y27.827
M107 ;Pump off
G00 X419.881 Y27.894
G4 P250 ;Pause for 250 milliseconds
;Completed path #4/5 on color #1
;Starting fill path #5/5, segments: 928, length: 4014, color #1
G00 X264.248 Y98.57
M106 ;Pump on
G4 P350 ;Pause for 350 milliseconds
G00 X263.359 Y100.76
G00 X262.532 Y98.592
G00 X261.598 Y92.276
G00 X265.286 Y92.134
G00 X264.248 Y98.57
G00 X273.94 Y101.279
G00 X270.126 Y110.685
G00 X263.448 Y127.391
G00 X256.019 Y109.573
G00 X252.8 Y101.135
G00 X251.379 Y91.525
G00 X251.336 Y91.253
G00 X251.306 Y91.071
G00 X251.273 Y90.883
G00 X251.26 Y90.814
G00 X251.252 Y90.769
G00 X251.226 Y90.625
G00 X251.176 Y90.358
G00 X251.135 Y90.153
G00 X251.063 Y89.819
G00 X251.024 Y89.639
G00 X250.985 Y89.471
G00 X250.905 Y89.137
G00 X250.863 Y88.971
G00 X250.817 Y88.793
G00 X250.768 Y88.611
G00 X250.665 Y88.24
G00 X250.61 Y88.052
G00 X250.558 Y87.876
G00 X250.5 Y87.691
G00 X250.382 Y87.325
G00 X250.322 Y87.145
G00 X250.263 Y86.971
G00 X250.211 Y86.822
G00 X250.098 Y86.51
G00 X250.038 Y86.346
G00 X249.973 Y86.174
G00 X249.923 Y86.045
G00 X249.827 Y85.803
G00 X249.752 Y85.62
G00 X249.676 Y85.439
G00 X249.604 Y85.27
G00 X249.532 Y85.106
G00 X249.384 Y84.775
G00 X249.308 Y84.608
G00 X249.23 Y84.441
G00 X249.152 Y84.281
G00 X248.996 Y83.963
G00 X248.917 Y83.806
G00 X248.833 Y83.643
G00 X248.748 Y83.48
G00 X248.573 Y83.154
G00 X248.483 Y82.99
G00 X248.393 Y82.83
G00 X248.302 Y82.671
G00 X248.159 Y82.427
G00 X251.956 Y82.573
G00 X252.232 Y82.581
G00 X252.416 Y82.585
G00 X252.609 Y82.587
G00 X252.997 Y82.587
G00 X253.19 Y82.585
G00 X253.494 Y82.579
G00 X253.793 Y82.57
G00 X279.185 Y81.591
G00 X279.238 Y81.601
G00 X279.189 Y81.675
G00 X279.096 Y81.823
G00 X278.998 Y81.979
G00 X278.907 Y82.128
G00 X278.72 Y82.439
G00 X278.624 Y82.601
G00 X278.532 Y82.761
G00 X278.445 Y82.916
G00 X278.274 Y83.226
G00 X278.19 Y83.38
G00 X278.104 Y83.543
G00 X278.041 Y83.665
G00 X277.923 Y83.897
G00 X277.841 Y84.06
G00 X277.749 Y84.249
G00 X277.669 Y84.415
G00 X277.59 Y84.583
G00 X277.44 Y84.913
G00 X277.368 Y85.074
G00 X277.294 Y85.243
G00 X277.225 Y85.405
G00 X277.086 Y85.739
G00 X277.017 Y85.912
G00 X276.949 Y86.084
G00 X276.882 Y86.259
G00 X276.755 Y86.602
G00 X276.694 Y86.77
G00 X276.633 Y86.944
G00 X276.575 Y87.115
G00 X276.458 Y87.468
G00 X276.399 Y87.651
G00 X276.344 Y87.827
G00 X276.289 Y88.01
G00 X276.187 Y88.362
G00 X276.14 Y88.531
G00 X276.092 Y88.709
G00 X276.047 Y88.881
G00 X275.96 Y89.227
G00 X275.918 Y89.401
G00 X275.876 Y89.58
G00 X275.835 Y89.764
G00 X275.756 Y90.135
G00 X275.719 Y90.322
G00 X275.684 Y90.503
G00 X275.65 Y90.685
G00 X275.586 Y91.051
G00 X275.556 Y91.236
G00 X275.528 Y91.418
G00 X275.505 Y91.577
G00 X273.94 Y101.279
G00 X283.632 Y103.988
G00 X279.411 Y114.397
G00 X269.82 Y138.393
G00 X269.755 Y138.559
G00 X269.69 Y138.731
G00 X269.562 Y139.087
G00 X269.504 Y139.261
G00 X269.396 Y139.599
G00 X269.344 Y139.775
G00 X269.242 Y140.146
G00 X269.196 Y140.324
G00 X269.11 Y140.689
G00 X269.071 Y140.869
G00 X269.005 Y141.198
G00 X268.972 Y141.379
G00 X268.929 Y141.636
G00 X268.91 Y141.767
G00 X268.884 Y141.95
G00 X268.839 Y142.319
G00 X268.82 Y142.502
G00 X268.79 Y142.85
G00 X268.777 Y143.034
G00 X268.763 Y143.294
G00 X268.757 Y143.466
G00 X268.751 Y143.711
G00 X268.748 Y143.96
G00 X268.748 Y144.031
G00 X268.75 Y144.215
G00 X268.753 Y144.399
G00 X268.766 Y144.766
G00 X268.777 Y144.95
G00 X268.804 Y145.319
G00 X268.821 Y145.502
G00 X268.855 Y145.819
G00 X268.886 Y146.058
G00 X270.597 Y158.6
G00 X270.597 Y158.6
G00 X271.704 Y166.9
G00 X270.17 Y170.826
G00 X267.543 Y173.104
G00 X263.332 Y173.734
G00 X258.728 Y172.435
G00 X255.863 Y169.905
G00 X254.588 Y166.222
G00 X256.232 Y157.703
G00 X256.266 Y157.518
G00 X256.297 Y157.336
G00 X256.351 Y156.989
G00 X256.376 Y156.807
G00 X256.419 Y156.443
G00 X256.436 Y156.278
G00 X256.453 Y156.087
G00 X256.476 Y155.797
G00 X257.354 Y142.935
G00 X257.365 Y142.752
G00 X257.374 Y142.568
G00 X257.385 Y142.222
G00 X257.387 Y142.065
G00 X257.389 Y141.914
G00 X257.389 Y141.857
G00 X257.387 Y141.673
G00 X257.384 Y141.489
G00 X257.37 Y141.122
G00 X257.36 Y140.938
G00 X257.332 Y140.57
G00 X257.316 Y140.386
G00 X257.275 Y140.019
G00 X257.251 Y139.836
G00 X257.196 Y139.468
G00 X257.166 Y139.286
G00 X257.101 Y138.935
G00 X257.064 Y138.755
G00 X256.993 Y138.438
G00 X256.958 Y138.292
G00 X256.889 Y138.018
G00 X256.841 Y137.841
G00 X256.735 Y137.476
G00 X256.681 Y137.3
G00 X256.566 Y136.952
G00 X256.505 Y136.779
G00 X256.377 Y136.434
G00 X256.305 Y136.25
G00 X256.226 Y136.057
G00 X246.732 Y113.285
G00 X243.067 Y103.679
G00 X241.499 Y93.067
G00 X241.471 Y92.891
G00 X241.441 Y92.709
G00 X241.416 Y92.576
G00 X241.4 Y92.481
G00 X241.349 Y92.213
G00 X241.342 Y92.178
G00 X241.302 Y91.988
G00 X241.262 Y91.808
G00 X241.182 Y91.474
G00 X241.136 Y91.296
G00 X241.032 Y90.926
G00 X240.979 Y90.75
G00 X240.862 Y90.384
G00 X240.802 Y90.21
G00 X240.69 Y89.898
G00 X240.625 Y89.726
G00 X240.529 Y89.483
G00 X240.476 Y89.358
G00 X240.404 Y89.189
G00 X240.256 Y88.858
G00 X240.178 Y88.691
G00 X240.022 Y88.374
G00 X239.938 Y88.21
G00 X239.763 Y87.884
G00 X239.673 Y87.723
G00 X239.481 Y87.397
G00 X239.385 Y87.239
G00 X239.188 Y86.93
G00 X239.086 Y86.777
G00 X238.88 Y86.479
G00 X238.773 Y86.329
G00 X238.546 Y86.025
G00 X238.433 Y85.88
G00 X238.212 Y85.605
G00 X238.094 Y85.464
G00 X237.845 Y85.177
G00 X237.722 Y85.04
G00 X237.474 Y84.774
G00 X237.346 Y84.642
G00 X237.087 Y84.385
G00 X236.954 Y84.258
G00 X236.687 Y84.011
G00 X236.55 Y83.888
G00 X236.262 Y83.641
G00 X236.12 Y83.524
G00 X235.832 Y83.295
G00 X235.686 Y83.183
G00 X235.393 Y82.967
G00 X235.242 Y82.861
G00 X234.931 Y82.648
G00 X234.777 Y82.547
G00 X234.475 Y82.357
G00 X234.317 Y82.262
G00 X234.003 Y82.08
G00 X233.842 Y81.991
G00 X233.508 Y81.813
G00 X233.344 Y81.729
G00 X233.017 Y81.572
G00 X232.85 Y81.494
G00 X232.519 Y81.348
G00 X232.349 Y81.277
G00 X231.997 Y81.137
G00 X231.824 Y81.072
G00 X231.479 Y80.95
G00 X231.304 Y80.892
G00 X230.949 Y80.78
G00 X230.772 Y80.729
G00 X230.428 Y80.634
G00 X230.25 Y80.589
G00 X229.898 Y80.506
G00 X229.719 Y80.467
G00 X229.464 Y80.415
G00 X229.332 Y80.391
G00 X229.151 Y80.36
G00 X228.799 Y80.304
G00 X228.616 Y80.279
G00 X228.27 Y80.237
G00 X228.087 Y80.218
G00 X227.7 Y80.185
G00 X227.516 Y80.173
G00 X227.147 Y80.156
G00 X226.963 Y80.151
G00 X226.595 Y80.148
G00 X226.411 Y80.15
G00 X226.062 Y80.159
G00 X225.878 Y80.167
G00 X225.491 Y80.192
G00 X225.307 Y80.207
G00 X225.005 Y80.237
G00 X224.856 Y80.254
G00 X224.607 Y80.285
G00 X224.425 Y80.31
G00 X224.075 Y80.366
G00 X223.894 Y80.397
G00 X223.525 Y80.469
G00 X223.346 Y80.508
G00 X223.088 Y80.567
G00 X222.863 Y80.622
G00 X217.973 Y81.873
G00 X217.998 Y81.748
G00 X218.065 Y81.383
G00 X218.095 Y81.201
G00 X218.147 Y80.851
G00 X218.17 Y80.668
G00 X218.212 Y80.282
G00 X218.228 Y80.099
G00 X218.253 Y79.749
G00 X218.263 Y79.565
G00 X218.276 Y79.197
G00 X218.279 Y79.013
G00 X218.277 Y78.627
G00 X218.273 Y78.443
G00 X218.26 Y78.094
G00 X218.249 Y77.91
G00 X218.221 Y77.541
G00 X218.204 Y77.358
G00 X218.162 Y76.988
G00 X218.138 Y76.806
G00 X218.136 Y76.792
G00 X229.606 Y76.108
G00 X229.802 Y76.095
G00 X229.985 Y76.08
G00 X230.244 Y76.056
G00 X230.39 Y76.04
G00 X230.62 Y76.012
G00 X230.849 Y75.982
G00 X230.898 Y75.975
G00 X231.077 Y75.947
G00 X231.258 Y75.918
G00 X231.624 Y75.852
G00 X231.805 Y75.815
G00 X232.158 Y75.738
G00 X232.336 Y75.695
G00 X232.659 Y75.612
G00 X232.909 Y75.543
G00 X232.959 Y75.529
G00 X233.123 Y75.48
G00 X233.299 Y75.426
G00 X233.547 Y75.347
G00 X233.725 Y75.285
G00 X233.953 Y75.204
G00 X234.171 Y75.123
G00 X241.873 Y72.177
G00 X252.251 Y72.577
G00 X252.434 Y72.583
G00 X252.618 Y72.587
G00 X253.005 Y72.587
G00 X253.207 Y72.583
G00 X253.407 Y72.577
G00 X279.968 Y71.553
G00 X294.874 Y74.486
G00 X295.057 Y74.521
G00 X295.238 Y74.553
G00 X295.508 Y74.595
G00 X295.571 Y74.606
G00 X295.753 Y74.634
G00 X296.07 Y74.678
G00 X296.206 Y74.694
G00 X296.339 Y74.71
G00 X308.877 Y76.068
G00 X308.857 Y76.173
G00 X308.825 Y76.354
G00 X308.77 Y76.706
G00 X308.744 Y76.889
G00 X308.699 Y77.272
G00 X308.68 Y77.455
G00 X308.652 Y77.807
G00 X308.64 Y77.991
G00 X308.622 Y78.376
G00 X308.617 Y78.56
G00 X308.615 Y78.91
G00 X308.616 Y79.094
G00 X308.627 Y79.48
G00 X308.636 Y79.664
G00 X308.659 Y80.014
G00 X308.674 Y80.198
G00 X308.711 Y80.564
G00 X308.733 Y80.747
G00 X308.785 Y81.118
G00 X308.814 Y81.299
G00 X308.878 Y81.662
G00 X308.912 Y81.834
G00 X303.942 Y80.602
G00 X303.765 Y80.56
G00 X303.586 Y80.519
G00 X303.332 Y80.464
G00 X303.17 Y80.433
G00 X302.878 Y80.379
G00 X302.499 Y80.317
G00 X302.317 Y80.29
G00 X301.95 Y80.244
G00 X301.767 Y80.224
G00 X301.417 Y80.193
G00 X301.233 Y80.18
G00 X300.974 Y80.164
G00 X300.768 Y80.157
G00 X300.5 Y80.15
G00 X300.24 Y80.147
G00 X300.063 Y80.149
G00 X299.879 Y80.152
G00 X299.512 Y80.165
G00 X299.328 Y80.176
G00 X298.96 Y80.203
G00 X298.776 Y80.22
G00 X298.409 Y80.261
G00 X298.226 Y80.284
G00 X297.858 Y80.339
G00 X297.676 Y80.37
G00 X297.325 Y80.435
G00 X297.145 Y80.472
G00 X296.779 Y80.554
G00 X296.6 Y80.598
G00 X296.251 Y80.69
G00 X296.074 Y80.74
G00 X295.723 Y80.847
G00 X295.548 Y80.903
G00 X295.195 Y81.024
G00 X295.022 Y81.087
G00 X294.675 Y81.221
G00 X294.504 Y81.291
G00 X294.178 Y81.431
G00 X294.01 Y81.506
G00 X293.675 Y81.664
G00 X293.51 Y81.746
G00 X293.174 Y81.92
G00 X293.012 Y82.008
G00 X292.69 Y82.191
G00 X292.532 Y82.284
G00 X292.237 Y82.466
G00 X292.081 Y82.566
G00 X291.763 Y82.778
G00 X291.612 Y82.883
G00 X291.301 Y83.107
G00 X291.154 Y83.218
G00 X290.876 Y83.436
G00 X290.733 Y83.552
G00 X290.463 Y83.779
G00 X290.324 Y83.9
G00 X290.044 Y84.153
G00 X289.91 Y84.279
G00 X289.64 Y84.543
G00 X289.51 Y84.674
G00 X289.259 Y84.938
G00 X289.134 Y85.074
G00 X288.892 Y85.348
G00 X288.773 Y85.488
G00 X288.534 Y85.779
G00 X288.42 Y85.923
G00 X288.213 Y86.195
G00 X288.103 Y86.344
G00 X287.952 Y86.555
G00 X287.874 Y86.669
G00 X287.771 Y86.822
G00 X287.577 Y87.121
G00 X287.479 Y87.277
G00 X287.292 Y87.588
G00 X287.2 Y87.748
G00 X287.029 Y88.058
G00 X286.943 Y88.22
G00 X286.825 Y88.452
G00 X286.765 Y88.573
G00 X286.686 Y88.739
G00 X286.535 Y89.069
G00 X286.462 Y89.238
G00 X286.323 Y89.572
G00 X286.255 Y89.744
G00 X286.128 Y90.087
G00 X286.067 Y90.26
G00 X285.95 Y90.614
G00 X285.895 Y90.79
G00 X285.793 Y91.142
G00 X285.745 Y91.32
G00 X285.658 Y91.666
G00 X285.616 Y91.845
G00 X285.537 Y92.216
G00 X285.503 Y92.397
G00 X285.439 Y92.763
G00 X285.411 Y92.945
G00 X285.396 Y93.054
G00 X283.632 Y103.988
G00 X293.324 Y106.697
G00 X288.696 Y118.108
G00 X279.105 Y142.104
G00 X279.04 Y142.276
G00 X278.981 Y142.45
G00 X278.929 Y142.627
G00 X278.883 Y142.805
G00 X278.844 Y142.985
G00 X278.811 Y143.166
G00 X278.785 Y143.348
G00 X278.767 Y143.532
G00 X278.754 Y143.715
G00 X278.748 Y143.96
G00 X278.748 Y144.031
G00 X278.751 Y144.215
G00 X278.761 Y144.398
G00 X278.778 Y144.582
G00 X278.794 Y144.707
G00 X280.505 Y157.249
G00 X281.957 Y168.136
G00 X278.586 Y176.765
G00 X271.897 Y182.564
G00 X262.686 Y183.942
G00 X253.819 Y181.44
G00 X247.273 Y175.661
G00 X244.261 Y166.959
G00 X246.413 Y155.808
G00 X246.444 Y155.627
G00 X246.47 Y155.444
G00 X246.486 Y155.279
G00 X246.499 Y155.116
G00 X247.377 Y142.254
G00 X247.386 Y142.071
G00 X247.389 Y141.914
G00 X247.389 Y141.857
G00 X247.385 Y141.674
G00 X247.375 Y141.49
G00 X247.358 Y141.306
G00 X247.334 Y141.124
G00 X247.304 Y140.942
G00 X247.267 Y140.762
G00 X247.239 Y140.645
G00 X247.232 Y140.616
G00 X247.184 Y140.439
G00 X247.13 Y140.263
G00 X247.069 Y140.089
G00 X246.996 Y139.905
G00 X237.446 Y117
G00 X233.335 Y106.222
G00 X231.606 Y94.529
G00 X231.576 Y94.347
G00 X231.564 Y94.288
G00 X231.547 Y94.193
G00 X231.54 Y94.157
G00 X231.5 Y93.978
G00 X231.454 Y93.799
G00 X231.401 Y93.623
G00 X231.342 Y93.449
G00 X231.276 Y93.277
G00 X231.204 Y93.108
G00 X231.126 Y92.941
G00 X231.042 Y92.778
G00 X230.952 Y92.617
G00 X230.856 Y92.46
G00 X230.754 Y92.307
G00 X230.647 Y92.157
G00 X230.534 Y92.012
G00 X230.416 Y91.871
G00 X230.293 Y91.734
G00 X230.165 Y91.602
G00 X230.032 Y91.474
G00 X229.895 Y91.352
G00 X229.753 Y91.235
G00 X229.607 Y91.123
G00 X229.456 Y91.016
G00 X229.303 Y90.916
G00 X229.145 Y90.821
G00 X228.984 Y90.731
G00 X228.82 Y90.648
G00 X228.653 Y90.571
G00 X228.483 Y90.499
G00 X228.311 Y90.435
G00 X228.137 Y90.377
G00 X227.96 Y90.325
G00 X227.782 Y90.279
G00 X227.602 Y90.24
G00 X227.421 Y90.209
G00 X227.238 Y90.183
G00 X227.055 Y90.164
G00 X226.872 Y90.152
G00 X226.687 Y90.147
G00 X226.504 Y90.149
G00 X226.32 Y90.157
G00 X226.136 Y90.172
G00 X226.044 Y90.182
G00 X225.988 Y90.189
G00 X225.806 Y90.215
G00 X225.624 Y90.246
G00 X225.445 Y90.285
G00 X225.343 Y90.31
G00 X209.987 Y94.24
G00 X203.816 Y94.988
G00 X196.659 Y93.184
G00 X192.221 Y90.685
G00 X197.097 Y87.433
G00 X205.337 Y83.416
G00 X205.374 Y83.399
G00 X205.54 Y83.319
G00 X205.703 Y83.233
G00 X205.862 Y83.141
G00 X206.017 Y83.043
G00 X206.17 Y82.939
G00 X206.318 Y82.83
G00 X206.462 Y82.716
G00 X206.602 Y82.596
G00 X206.737 Y82.471
G00 X206.868 Y82.342
G00 X206.994 Y82.208
G00 X207.114 Y82.069
G00 X207.23 Y81.926
G00 X207.34 Y81.778
G00 X207.444 Y81.626
G00 X207.544 Y81.471
G00 X207.637 Y81.313
G00 X207.724 Y81.151
G00 X207.805 Y80.986
G00 X207.88 Y80.818
G00 X207.95 Y80.647
G00 X208.012 Y80.474
G00 X208.068 Y80.299
G00 X208.118 Y80.122
G00 X208.161 Y79.943
G00 X208.198 Y79.762
G00 X208.228 Y79.581
G00 X208.251 Y79.398
G00 X208.267 Y79.215
G00 X208.277 Y79.031
G00 X208.28 Y78.847
G00 X208.276 Y78.663
G00 X208.266 Y78.48
G00 X208.248 Y78.296
G00 X208.224 Y78.114
G00 X208.193 Y77.933
G00 X208.156 Y77.752
G00 X208.112 Y77.574
G00 X208.061 Y77.397
G00 X208.004 Y77.222
G00 X207.941 Y77.049
G00 X207.871 Y76.879
G00 X207.795 Y76.711
G00 X207.713 Y76.547
G00 X207.625 Y76.385
G00 X207.531 Y76.227
G00 X207.431 Y76.072
G00 X207.326 Y75.921
G00 X207.215 Y75.774
G00 X207.099 Y75.632
G00 X206.978 Y75.493
G00 X206.851 Y75.359
G00 X206.72 Y75.23
G00 X206.584 Y75.107
G00 X206.444 Y74.987
G00 X206.299 Y74.874
G00 X206.15 Y74.765
G00 X205.998 Y74.663
G00 X205.841 Y74.565
G00 X205.682 Y74.474
G00 X205.638 Y74.451
G00 X205.623 Y74.443
G00 X205.581 Y74.421
G00 X205.519 Y74.389
G00 X205.491 Y74.375
G00 X205.459 Y74.359
G00 X205.38 Y74.322
G00 X205.353 Y74.309
G00 X205.342 Y74.304
G00 X205.292 Y74.281
G00 X205.222 Y74.252
G00 X205.184 Y74.236
G00 X205.144 Y74.221
G00 X205.038 Y74.177
G00 X187.954 Y67.7
G00 X172.378 Y56.797
G00 X156.768 Y44.362
G00 X156.622 Y44.251
G00 X156.472 Y44.144
G00 X156.325 Y44.047
G00 X140.122 Y33.804
G00 X139.965 Y33.709
G00 X139.804 Y33.619
G00 X139.64 Y33.536
G00 X139.473 Y33.458
G00 X139.304 Y33.387
G00 X139.132 Y33.322
G00 X138.957 Y33.263
G00 X138.781 Y33.211
G00 X117.595 Y27.364
G00 X117.417 Y27.318
G00 X117.245 Y27.281
G00 X117.21 Y27.274
G00 X117.029 Y27.241
G00 X116.847 Y27.215
G00 X116.824 Y27.213
G00 X116.665 Y27.194
G00 X116.481 Y27.179
G00 X116.297 Y27.171
G00 X116.113 Y27.17
G00 X115.87 Y27.179
G00 X109.146 Y27.587
G00 X108.121 Y27.444
G00 X118.362 Y26.024
G00 X129.815 Y27.389
G00 X152.98 Y37.012
G00 X175.685 Y50.942
G00 X175.844 Y51.036
G00 X175.981 Y51.11
G00 X198.707 Y63.006
G00 X198.737 Y63.023
G00 X198.899 Y63.108
G00 X199.065 Y63.188
G00 X199.234 Y63.262
G00 X199.405 Y63.329
G00 X199.579 Y63.39
G00 X199.755 Y63.445
G00 X199.932 Y63.493
G00 X200.111 Y63.534
G00 X200.135 Y63.539
G00 X213.534 Y66.806
G00 X213.714 Y66.846
G00 X213.895 Y66.88
G00 X213.93 Y66.885
G00 X213.947 Y66.889
G00 X214.128 Y66.917
G00 X214.311 Y66.939
G00 X214.495 Y66.954
G00 X214.678 Y66.961
G00 X214.804 Y66.963
G00 X214.832 Y66.963
G00 X215.016 Y66.96
G00 X215.13 Y66.954
G00 X229.011 Y66.126
G00 X229.194 Y66.112
G00 X229.425 Y66.084
G00 X229.474 Y66.077
G00 X229.656 Y66.047
G00 X229.836 Y66.011
G00 X230.015 Y65.968
G00 X230.145 Y65.933
G00 X230.194 Y65.919
G00 X230.37 Y65.865
G00 X230.598 Y65.783
G00 X240.213 Y62.105
G00 X252.636 Y62.585
G00 X252.82 Y62.588
G00 X253.022 Y62.585
G00 X280.751 Y61.515
G00 X296.805 Y64.675
G00 X296.986 Y64.707
G00 X297.086 Y64.721
G00 X297.098 Y64.723
G00 X297.28 Y64.751
G00 X297.416 Y64.768
G00 X314.497 Y66.619
G00 X314.595 Y66.631
G00 X314.779 Y66.647
G00 X314.962 Y66.656
G00 X315.146 Y66.659
G00 X315.33 Y66.654
G00 X315.514 Y66.643
G00 X315.697 Y66.625
G00 X315.88 Y66.6
G00 X316.061 Y66.569
G00 X316.241 Y66.531
G00 X316.419 Y66.486
G00 X316.596 Y66.435
G00 X316.655 Y66.416
G00 X316.688 Y66.406
G00 X316.843 Y66.353
G00 X332.246 Y60.853
G00 X332.418 Y60.788
G00 X332.588 Y60.717
G00 X332.755 Y60.639
G00 X332.869 Y60.582
G00 X333.045 Y60.49
G00 X333.207 Y60.402
G00 X333.317 Y60.338
G00 X347.396 Y51.876
G00 X371.203 Y38.115
G00 X396.396 Y28.649
G00 X410.576 Y26.289
G00 X417.25 Y26.473
G00 X418.715 Y27.047
G00 X408.444 Y27.349
G00 X408.26 Y27.358
G00 X408.076 Y27.373
G00 X407.827 Y27.405
G00 X407.735 Y27.42
G00 X407.554 Y27.451
G00 X407.374 Y27.489
G00 X407.266 Y27.515
G00 X393.378 Y31.047
G00 X393.201 Y31.096
G00 X393.025 Y31.151
G00 X392.852 Y31.213
G00 X392.681 Y31.28
G00 X392.512 Y31.355
G00 X392.424 Y31.397
G00 X379.499 Y37.682
G00 X379.335 Y37.766
G00 X379.174 Y37.856
G00 X379.016 Y37.951
G00 X378.916 Y38.016
G00 X378.831 Y38.073
G00 X378.695 Y38.166
G00 X342.061 Y64.322
G00 X332.526 Y70.309
G00 X321.91 Y74.159
G00 X321.738 Y74.225
G00 X321.568 Y74.297
G00 X321.402 Y74.375
G00 X321.238 Y74.46
G00 X321.078 Y74.55
G00 X320.921 Y74.646
G00 X320.768 Y74.748
G00 X320.619 Y74.856
G00 X320.473 Y74.969
G00 X320.332 Y75.087
G00 X320.196 Y75.21
G00 X320.064 Y75.338
G00 X319.936 Y75.471
G00 X319.814 Y75.609
G00 X319.697 Y75.751
G00 X319.586 Y75.897
G00 X319.479 Y76.047
G00 X319.379 Y76.201
G00 X319.284 Y76.359
G00 X319.195 Y76.52
G00 X319.112 Y76.684
G00 X319.035 Y76.851
G00 X318.964 Y77.021
G00 X318.899 Y77.194
G00 X318.841 Y77.368
G00 X318.789 Y77.545
G00 X318.744 Y77.723
G00 X318.706 Y77.903
G00 X318.674 Y78.084
G00 X318.649 Y78.267
G00 X318.631 Y78.45
G00 X318.619 Y78.634
G00 X318.614 Y78.818
G00 X318.616 Y79.001
G00 X318.625 Y79.185
G00 X318.64 Y79.369
G00 X318.662 Y79.551
G00 X318.691 Y79.733
G00 X318.726 Y79.914
G00 X318.768 Y80.093
G00 X318.817 Y80.27
G00 X318.872 Y80.446
G00 X318.934 Y80.619
G00 X319.002 Y80.79
G00 X319.076 Y80.959
G00 X319.156 Y81.124
G00 X319.243 Y81.287
G00 X319.335 Y81.446
G00 X319.433 Y81.602
G00 X319.537 Y81.753
G00 X319.646 Y81.902
G00 X319.761 Y82.046
G00 X319.881 Y82.185
G00 X320.005 Y82.32
G00 X320.135 Y82.451
G00 X320.27 Y82.576
G00 X320.409 Y82.697
G00 X320.552 Y82.812
G00 X320.699 Y82.922
G00 X320.851 Y83.027
G00 X321.006 Y83.125
G00 X321.165 Y83.219
G00 X321.251 Y83.265
G00 X321.27 Y83.276
G00 X321.283 Y83.283
G00 X321.327 Y83.306
G00 X321.391 Y83.337
G00 X321.438 Y83.361
G00 X329.752 Y87.411
G00 X334.155 Y90.422
G00 X334.052 Y90.885
G00 X330.834 Y92.85
G00 X323.471 Y94.853
G00 X317.208 Y94.193
G00 X301.536 Y90.308
G00 X301.356 Y90.267
G00 X301.144 Y90.227
G00 X301.124 Y90.224
G00 X301.064 Y90.213
G00 X300.882 Y90.187
G00 X300.699 Y90.167
G00 X300.516 Y90.154
G00 X300.373 Y90.15
G00 X300.334 Y90.149
G00 X300.321 Y90.149
G00 X300.255 Y90.147
G00 X300.248 Y90.147
G00 X300.064 Y90.15
G00 X299.88 Y90.16
G00 X299.697 Y90.177
G00 X299.514 Y90.201
G00 X299.333 Y90.232
G00 X299.152 Y90.268
G00 X298.974 Y90.312
G00 X298.796 Y90.362
G00 X298.621 Y90.419
G00 X298.449 Y90.482
G00 X298.278 Y90.551
G00 X298.11 Y90.627
G00 X297.945 Y90.708
G00 X297.784 Y90.796
G00 X297.625 Y90.89
G00 X297.47 Y90.989
G00 X297.319 Y91.094
G00 X297.172 Y91.205
G00 X297.029 Y91.321
G00 X296.89 Y91.442
G00 X296.756 Y91.568
G00 X296.627 Y91.699
G00 X296.503 Y91.834
G00 X296.383 Y91.974
G00 X296.269 Y92.119
G00 X296.16 Y92.267
G00 X296.057 Y92.419
G00 X295.96 Y92.575
G00 X295.868 Y92.735
G00 X295.782 Y92.898
G00 X295.702 Y93.063
G00 X295.629 Y93.232
G00 X295.562 Y93.403
G00 X295.501 Y93.577
G00 X295.446 Y93.753
G00 X295.398 Y93.93
G00 X295.356 Y94.11
G00 X295.321 Y94.29
G00 X295.293 Y94.472
G00 X295.285 Y94.544
;Nearing path end, moving to preshutoff position
G00 X294.729 Y97.991
M107 ;Pump off
G00 X293.324 Y106.697
G4 P250 ;Pause for 250 milliseconds
;Completed path #5/5 on color #1
;PancakePainter Footer Start
G4 P1000 ;Pause for 1000 milliseconds
G00 X1 Y1 ;Help homing
G28 X0 Y0 ;Home All Axis
M84 ;Motors off
;PancakePainter Footer Complete
