;PancakePainter v1.4.0 GCODE header start
;Originally generated @ Mon Nov 25 2019 10:53:13 GMT-0600 (Central Standard Time)
;Settings used to generate this file:
;----------------------------------------
;botSpeed: 4620
;flattenResolution: 2
;lineEndPreShutoff: 25
;startWait: 350
;endWait: 250
;shadeChangeWait: 15
;useLineFill: false
;useShortest: true
;shapeFillWidth: 2.1
;fillSpacing: 10
;fillAngle: 23
;fillGroupThreshold: 27
;useColorSpeed: false
;botColorSpeed: 6600,5280,5280,3300
;----------------------------------------
W1 X42 Y210 L485 T0 ;Define Workspace of this file
G21 ;Set units to MM
G1 F4620 ;Set Speed
M107 ;Pump off
G4 P1000 ;Pause for 1000 milliseconds
M84 ;Motors off
G00 X1 Y1 ;Help homing
G28 X0 Y0 ;Home All Axis
;PancakePainter header complete
;Starting stroke path #1/5, segments: 11, length: 715, color #1
G00 X104.487 Y27.305
M106 ;Pump on
G4 P350 ;Pause for 350 milliseconds
G00 X121.532 Y28.033
G00 X138.218 Y31.881
G00 X153.204 Y38.939
G00 X167.315 Y47.87
G00 X195.302 Y66.025
G00 X209.572 Y71.047
G00 X214.061 Y74.717
G00 X218.654 Y78.159
G00 X224.276 Y79.095
G00 X230.254 Y78.75
G00 X236.271 Y78.3
G00 X242.006 Y78.921
G00 X247.392 Y81.574
G00 X252.6 Y85.301
G00 X258.025 Y88.493
G00 X264.061 Y89.543
G00 X269.767 Y87.948
G00 X274.838 Y84.935
G00 X284.819 Y78.94
G00 X294.754 Y77.937
G00 X304.928 Y78.563
G00 X309.154 Y79.94
G00 X312.154 Y82.932
G00 X317.911 Y89.592
;Nearing path end, moving to preshutoff position
G00 X323.402 Y90.909
M107 ;Pump off
G00 X324.821 Y91.249
G00 X332.172 Y90.875
G4 P250 ;Pause for 250 milliseconds
;Completed path #1/5 on color #1
;Starting stroke path #2/5, segments: 3, length: 84, color #1
G00 X194.004 Y90.875
M106 ;Pump on
G4 P350 ;Pause for 350 milliseconds
G00 X208.272 Y89.857
;Nearing path end, moving to preshutoff position
G00 X212.689 Y85.047
M107 ;Pump off
G00 X218.654 Y78.55
G4 P250 ;Pause for 250 milliseconds
;Completed path #2/5 on color #1
;Starting stroke path #3/5, segments: 2, length: 200, color #1
G00 X263.412 Y90.226
M106 ;Pump on
G4 P350 ;Pause for 350 milliseconds
;Nearing path end, moving to preshutoff position
G00 X263.412 Y152.112
M107 ;Pump off
G00 X263.412 Y160.932
G4 P250 ;Pause for 250 milliseconds
;Completed path #3/5 on color #1
;Starting stroke path #4/5, segments: 4, length: 358, color #1
G00 X308.82 Y78.55
M106 ;Pump on
G4 P350 ;Pause for 350 milliseconds
G00 X316.169 Y72.816
G00 X324.316 Y68.55
G00 X341.253 Y60.387
G00 X368.971 Y42.186
G00 X383.345 Y34.163
G00 X398.986 Y28.536
G00 X410.311 Y27.218
;Nearing path end, moving to preshutoff position
G00 X412.87 Y27.238
M107 ;Pump off
G00 X421.689 Y27.305
G4 P250 ;Pause for 250 milliseconds
;Completed path #4/5 on color #1
;Starting fill path #5/5, segments: 3740, length: 13324, color #1
G00 X265.719 Y92.32
M106 ;Pump on
G4 P350 ;Pause for 350 milliseconds
G00 X263.65 Y100.929
G00 X262.901 Y96.795
G00 X262.879 Y96.681
G00 X262.762 Y96.121
G00 X262.652 Y95.632
G00 X262.545 Y95.185
G00 X262.38 Y94.538
G00 X262.247 Y94.047
G00 X262.119 Y93.601
G00 X261.976 Y93.125
G00 X261.874 Y92.8
G00 X261.673 Y92.173
G00 X265.719 Y92.32
G00 X269.241 Y89.646
G00 X265.956 Y103.316
G00 X263.667 Y108.038
G00 X261.085 Y102.475
G00 X260.155 Y97.343
G00 X260.137 Y97.251
G00 X260.03 Y96.734
G00 X259.928 Y96.281
G00 X259.831 Y95.873
G00 X259.678 Y95.271
G00 X259.555 Y94.817
G00 X259.438 Y94.406
G00 X259.304 Y93.962
G00 X259.208 Y93.656
G00 X257.788 Y89.231
G00 X269.241 Y89.646
G00 X272.169 Y89.448
G00 X268.608 Y104.265
G00 X263.613 Y114.57
G00 X258.393 Y103.328
G00 X257.409 Y97.887
G00 X257.395 Y97.818
G00 X257.297 Y97.347
G00 X257.204 Y96.929
G00 X257.116 Y96.559
G00 X256.975 Y96.002
G00 X256.863 Y95.586
G00 X256.755 Y95.21
G00 X256.631 Y94.797
G00 X256.542 Y94.512
G00 X253.925 Y86.359
G00 X253.901 Y86.288
G00 X272.881 Y86.976
G00 X272.774 Y87.297
G00 X272.611 Y87.822
G00 X272.436 Y88.425
G00 X272.286 Y88.982
G00 X272.169 Y89.448
G00 X274.892 Y90.102
G00 X271.261 Y105.213
G00 X264.825 Y118.488
G00 X264.795 Y118.551
G00 X264.617 Y118.943
G00 X264.43 Y119.375
G00 X264.266 Y119.773
G00 X264.05 Y120.325
G00 X263.879 Y120.789
G00 X263.74 Y121.187
G00 X263.636 Y121.502
G00 X263.542 Y121.791
G00 X263.069 Y120.366
G00 X262.966 Y120.081
G00 X262.842 Y119.747
G00 X262.72 Y119.429
G00 X262.518 Y118.925
G00 X262.342 Y118.509
G00 X262.194 Y118.171
G00 X262.047 Y117.846
G00 X255.702 Y104.181
G00 X254.653 Y98.385
G00 X254.564 Y97.956
G00 X254.479 Y97.575
G00 X254.401 Y97.243
G00 X254.272 Y96.731
G00 X254.169 Y96.352
G00 X254.073 Y96.014
G00 X253.958 Y95.63
G00 X253.876 Y95.368
G00 X251.275 Y87.264
G00 X251.219 Y87.099
G00 X251.047 Y86.611
G00 X250.894 Y86.203
G00 X250.759 Y85.859
G00 X250.573 Y85.404
G00 X250.42 Y85.047
G00 X250.281 Y84.736
G00 X250.141 Y84.432
G00 X249.924 Y83.979
G00 X249.761 Y83.655
G00 X249.593 Y83.33
G00 X273.915 Y84.212
G00 X274.353 Y84.218
G00 X274.753 Y84.216
G00 X275.068 Y84.21
G00 X277.087 Y84.162
G00 X277.051 Y84.231
G00 X276.81 Y84.72
G00 X276.628 Y85.109
G00 X276.397 Y85.623
G00 X276.221 Y86.033
G00 X276.056 Y86.438
G00 X275.917 Y86.794
G00 X275.761 Y87.216
G00 X275.6 Y87.675
G00 X275.447 Y88.132
G00 X275.3 Y88.605
G00 X275.14 Y89.152
G00 X275.001 Y89.668
G00 X274.892 Y90.102
G00 X277.614 Y90.757
G00 X273.913 Y106.161
G00 X267.344 Y119.71
G00 X267.185 Y120.059
G00 X267.019 Y120.442
G00 X266.873 Y120.797
G00 X266.676 Y121.298
G00 X266.523 Y121.71
G00 X266.396 Y122.074
G00 X266.298 Y122.368
G00 X263.568 Y130.762
G00 X260.434 Y121.312
G00 X260.341 Y121.055
G00 X260.229 Y120.753
G00 X260.12 Y120.469
G00 X259.936 Y120.011
G00 X259.777 Y119.631
G00 X259.643 Y119.326
G00 X259.507 Y119.026
G00 X253.01 Y105.034
G00 X251.91 Y98.948
G00 X251.831 Y98.564
G00 X251.755 Y98.22
G00 X251.685 Y97.925
G00 X251.568 Y97.46
G00 X251.476 Y97.117
G00 X251.39 Y96.816
G00 X251.284 Y96.463
G00 X251.21 Y96.223
G00 X248.623 Y88.163
G00 X248.577 Y88.028
G00 X248.424 Y87.59
G00 X248.287 Y87.224
G00 X248.167 Y86.917
G00 X247.999 Y86.505
G00 X247.862 Y86.186
G00 X247.738 Y85.907
G00 X247.614 Y85.639
G00 X247.42 Y85.233
G00 X247.276 Y84.944
G00 X247.078 Y84.563
G00 X246.904 Y84.242
G00 X246.714 Y83.905
G00 X246.481 Y83.505
G00 X246.292 Y83.194
G00 X246.077 Y82.855
G00 X245.861 Y82.526
G00 X245.552 Y82.072
G00 X245.354 Y81.795
G00 X245.116 Y81.47
G00 X244.9 Y81.187
G00 X244.759 Y81.007
G00 X247.686 Y80.459
G00 X273.952 Y81.413
G00 X274.343 Y81.418
G00 X274.703 Y81.416
G00 X275.001 Y81.411
G00 X282.313 Y81.238
G00 X282.177 Y81.405
G00 X281.915 Y81.738
G00 X281.688 Y82.039
G00 X281.457 Y82.357
G00 X281.156 Y82.784
G00 X280.992 Y83.028
G00 X280.765 Y83.374
G00 X280.556 Y83.705
G00 X280.257 Y84.2
G00 X280.036 Y84.584
G00 X279.786 Y85.041
G00 X279.562 Y85.47
G00 X279.345 Y85.911
G00 X279.181 Y86.259
G00 X278.97 Y86.728
G00 X278.813 Y87.092
G00 X278.665 Y87.454
G00 X278.542 Y87.77
G00 X278.401 Y88.149
G00 X278.255 Y88.562
G00 X278.119 Y88.97
G00 X277.987 Y89.39
G00 X277.844 Y89.883
G00 X277.716 Y90.355
G00 X277.614 Y90.757
G00 X280.337 Y91.411
G00 X276.565 Y107.109
G00 X269.892 Y120.872
G00 X269.752 Y121.177
G00 X269.606 Y121.512
G00 X269.478 Y121.823
G00 X269.301 Y122.273
G00 X269.166 Y122.635
G00 X269.052 Y122.96
G00 X268.961 Y123.234
G00 X263.595 Y139.735
G00 X257.798 Y122.257
G00 X257.715 Y122.027
G00 X257.615 Y121.756
G00 X257.52 Y121.509
G00 X257.354 Y121.093
G00 X257.212 Y120.754
G00 X257.091 Y120.479
G00 X256.968 Y120.205
G00 X250.319 Y105.887
G00 X249.166 Y99.509
G00 X249.097 Y99.169
G00 X249.03 Y98.864
G00 X248.968 Y98.604
G00 X248.864 Y98.187
G00 X248.781 Y97.877
G00 X248.707 Y97.617
G00 X248.611 Y97.293
G00 X248.544 Y97.079
G00 X245.97 Y89.057
G00 X245.935 Y88.954
G00 X245.799 Y88.565
G00 X245.679 Y88.244
G00 X245.573 Y87.973
G00 X245.423 Y87.605
G00 X245.303 Y87.322
G00 X245.194 Y87.077
G00 X245.086 Y86.842
G00 X244.916 Y86.485
G00 X244.788 Y86.23
G00 X244.616 Y85.897
G00 X244.462 Y85.612
G00 X244.296 Y85.316
G00 X244.087 Y84.958
G00 X243.922 Y84.687
G00 X243.736 Y84.39
G00 X243.546 Y84.101
G00 X243.269 Y83.693
G00 X243.095 Y83.448
G00 X242.888 Y83.165
G00 X242.697 Y82.915
G00 X242.416 Y82.557
G00 X242.176 Y82.262
G00 X241.976 Y82.027
G00 X241.801 Y81.827
G00 X241.563 Y81.561
G00 X241.386 Y81.369
G00 X241.26 Y81.235
G00 X241.06 Y81.03
G00 X240.85 Y80.818
G00 X240.577 Y80.552
G00 X240.379 Y80.364
G00 X240.118 Y80.125
G00 X239.868 Y79.903
G00 X239.511 Y79.598
G00 X239.228 Y79.365
G00 X239.053 Y79.226
G00 X247.475 Y77.65
G00 X273.991 Y78.613
G00 X274.334 Y78.617
G00 X274.655 Y78.616
G00 X274.935 Y78.612
G00 X286.191 Y78.345
G00 X288.76 Y79.031
G00 X288.551 Y79.177
G00 X288.318 Y79.346
G00 X288.059 Y79.54
G00 X287.809 Y79.734
G00 X287.468 Y80.007
G00 X287.166 Y80.259
G00 X286.904 Y80.487
G00 X286.645 Y80.719
G00 X286.294 Y81.045
G00 X286.082 Y81.251
G00 X285.851 Y81.481
G00 X285.63 Y81.708
G00 X285.31 Y82.048
G00 X285.117 Y82.262
G00 X284.899 Y82.51
G00 X284.67 Y82.779
G00 X284.377 Y83.137
G00 X284.148 Y83.428
G00 X283.95 Y83.69
G00 X283.745 Y83.97
G00 X283.477 Y84.35
G00 X283.331 Y84.567
G00 X283.133 Y84.868
G00 X282.95 Y85.157
G00 X282.684 Y85.597
G00 X282.49 Y85.933
G00 X282.267 Y86.338
G00 X282.071 Y86.714
G00 X281.879 Y87.102
G00 X281.733 Y87.413
G00 X281.541 Y87.837
G00 X281.404 Y88.154
G00 X281.273 Y88.473
G00 X281.166 Y88.747
G00 X281.04 Y89.085
G00 X280.91 Y89.453
G00 X280.79 Y89.809
G00 X280.675 Y90.178
G00 X280.546 Y90.616
G00 X280.43 Y91.044
G00 X280.337 Y91.411
G00 X283.06 Y92.065
G00 X279.217 Y108.058
G00 X272.439 Y122.036
G00 X272.318 Y122.299
G00 X272.192 Y122.587
G00 X272.082 Y122.852
G00 X271.924 Y123.251
G00 X271.808 Y123.564
G00 X271.708 Y123.848
G00 X271.624 Y124.1
G00 X266.244 Y140.644
G00 X266.136 Y141.008
G00 X266.06 Y141.281
G00 X265.992 Y141.547
G00 X265.897 Y141.941
G00 X265.844 Y142.18
G00 X265.787 Y142.456
G00 X265.734 Y142.738
G00 X265.663 Y143.153
G00 X265.628 Y143.384
G00 X265.586 Y143.684
G00 X265.552 Y143.977
G00 X265.508 Y144.402
G00 X265.484 Y144.703
G00 X265.467 Y144.966
G00 X265.457 Y145.165
G00 X265.445 Y145.484
G00 X265.44 Y145.745
G00 X265.438 Y146.104
G00 X265.44 Y146.312
G00 X265.449 Y146.675
G00 X265.462 Y146.964
G00 X265.481 Y147.273
G00 X265.516 Y147.709
G00 X265.548 Y148.024
G00 X265.588 Y148.361
G00 X265.63 Y148.673
G00 X267.157 Y159.072
G00 X267.212 Y159.39
G00 X267.26 Y159.652
G00 X267.311 Y159.898
G00 X267.389 Y160.256
G00 X267.46 Y160.552
G00 X267.53 Y160.825
G00 X268.989 Y166.335
G00 X268.522 Y168.279
G00 X267.467 Y169.787
G00 X266.175 Y170.401
G00 X261.994 Y170.649
G00 X259.856 Y169.978
G00 X259.47 Y169.534
G00 X258.436 Y165.956
G00 X259.765 Y161.038
G00 X259.812 Y160.85
G00 X259.878 Y160.575
G00 X259.929 Y160.345
G00 X259.995 Y160.033
G00 X260.023 Y159.885
G00 X260.073 Y159.622
G00 X260.108 Y159.419
G00 X261.686 Y149.831
G00 X261.726 Y149.593
G00 X261.773 Y149.289
G00 X261.809 Y149.021
G00 X261.859 Y148.612
G00 X261.889 Y148.31
G00 X261.912 Y148.033
G00 X261.931 Y147.747
G00 X261.952 Y147.334
G00 X261.96 Y147.057
G00 X261.964 Y146.756
G00 X261.962 Y146.491
G00 X261.955 Y146.105
G00 X261.945 Y145.848
G00 X261.928 Y145.525
G00 X261.909 Y145.257
G00 X261.873 Y144.849
G00 X261.839 Y144.535
G00 X261.81 Y144.302
G00 X261.779 Y144.073
G00 X261.722 Y143.703
G00 X261.663 Y143.367
G00 X261.599 Y143.037
G00 X261.51 Y142.621
G00 X261.438 Y142.315
G00 X261.394 Y142.14
G00 X261.34 Y141.933
G00 X261.231 Y141.545
G00 X261.137 Y141.232
G00 X261.034 Y140.908
G00 X255.162 Y123.202
G00 X255.088 Y122.995
G00 X255 Y122.759
G00 X254.919 Y122.545
G00 X254.771 Y122.173
G00 X254.646 Y121.876
G00 X254.539 Y121.63
G00 X254.428 Y121.384
G00 X247.628 Y106.74
G00 X246.422 Y100.066
G00 X246.362 Y99.77
G00 X246.305 Y99.507
G00 X246.251 Y99.281
G00 X246.159 Y98.91
G00 X246.086 Y98.638
G00 X246.023 Y98.414
G00 X245.936 Y98.122
G00 X245.878 Y97.934
G00 X243.315 Y89.946
G00 X243.292 Y89.88
G00 X243.172 Y89.536
G00 X243.07 Y89.26
G00 X242.979 Y89.027
G00 X242.847 Y88.702
G00 X242.743 Y88.457
G00 X242.647 Y88.241
G00 X242.556 Y88.043
G00 X242.409 Y87.733
G00 X242.3 Y87.514
G00 X242.151 Y87.225
G00 X242.019 Y86.98
G00 X241.876 Y86.725
G00 X241.691 Y86.407
G00 X241.551 Y86.176
G00 X241.392 Y85.922
G00 X241.229 Y85.673
G00 X240.984 Y85.312
G00 X240.832 Y85.098
G00 X240.658 Y84.859
G00 X240.492 Y84.641
G00 X240.246 Y84.326
G00 X240.04 Y84.073
G00 X239.866 Y83.868
G00 X239.713 Y83.693
G00 X239.5 Y83.454
G00 X239.349 Y83.29
G00 X239.248 Y83.183
G00 X239.073 Y83.002
G00 X238.893 Y82.82
G00 X238.652 Y82.585
G00 X238.481 Y82.423
G00 X238.261 Y82.22
G00 X238.043 Y82.028
G00 X237.729 Y81.758
G00 X237.488 Y81.559
G00 X237.251 Y81.371
G00 X237.048 Y81.215
G00 X236.751 Y80.995
G00 X236.53 Y80.836
G00 X236.302 Y80.678
G00 X236.052 Y80.511
G00 X235.728 Y80.302
G00 X235.482 Y80.15
G00 X235.294 Y80.038
G00 X235.1 Y79.924
G00 X234.789 Y79.75
G00 X234.519 Y79.605
G00 X234.302 Y79.493
G00 X234.04 Y79.363
G00 X233.797 Y79.247
G00 X233.455 Y79.09
G00 X233.195 Y78.976
G00 X232.946 Y78.872
G00 X232.658 Y78.758
G00 X232.261 Y78.608
G00 X232.031 Y78.526
G00 X231.727 Y78.423
G00 X231.476 Y78.344
G00 X231.081 Y78.225
G00 X230.801 Y78.146
G00 X230.525 Y78.074
G00 X230.291 Y78.017
G00 X247.265 Y74.84
G00 X274.033 Y75.813
G00 X274.327 Y75.817
G00 X274.611 Y75.817
G00 X274.869 Y75.813
G00 X286.527 Y75.537
G00 X297.231 Y78.395
G00 X297.132 Y78.414
G00 X296.82 Y78.481
G00 X296.529 Y78.549
G00 X296.248 Y78.619
G00 X295.865 Y78.723
G00 X295.596 Y78.801
G00 X295.268 Y78.901
G00 X294.999 Y78.989
G00 X294.778 Y79.066
G00 X294.406 Y79.2
G00 X294.145 Y79.3
G00 X293.904 Y79.397
G00 X293.559 Y79.541
G00 X293.285 Y79.662
G00 X292.992 Y79.798
G00 X292.753 Y79.914
G00 X292.37 Y80.108
G00 X292.131 Y80.234
G00 X291.861 Y80.383
G00 X291.63 Y80.516
G00 X291.294 Y80.716
G00 X291.046 Y80.87
G00 X290.812 Y81.021
G00 X290.56 Y81.19
G00 X290.199 Y81.441
G00 X289.994 Y81.589
G00 X289.773 Y81.755
G00 X289.556 Y81.923
G00 X289.257 Y82.161
G00 X288.999 Y82.375
G00 X288.772 Y82.572
G00 X288.551 Y82.771
G00 X288.238 Y83.061
G00 X288.056 Y83.236
G00 X287.858 Y83.433
G00 X287.666 Y83.631
G00 X287.385 Y83.929
G00 X287.218 Y84.113
G00 X287.032 Y84.324
G00 X286.834 Y84.556
G00 X286.575 Y84.872
G00 X286.379 Y85.12
G00 X286.209 Y85.345
G00 X286.031 Y85.587
G00 X285.796 Y85.92
G00 X285.668 Y86.109
G00 X285.499 Y86.364
G00 X285.342 Y86.614
G00 X285.109 Y86.996
G00 X284.941 Y87.287
G00 X284.748 Y87.638
G00 X284.578 Y87.962
G00 X284.412 Y88.294
G00 X284.283 Y88.569
G00 X284.111 Y88.947
G00 X283.993 Y89.221
G00 X283.881 Y89.493
G00 X283.789 Y89.727
G00 X283.678 Y90.026
G00 X283.564 Y90.344
G00 X283.46 Y90.654
G00 X283.361 Y90.967
G00 X283.248 Y91.352
G00 X283.144 Y91.734
G00 X283.06 Y92.065
G00 X285.782 Y92.72
G00 X281.869 Y109.007
G00 X274.984 Y123.201
G00 X274.881 Y123.426
G00 X274.777 Y123.663
G00 X274.684 Y123.886
G00 X274.547 Y124.231
G00 X274.449 Y124.495
G00 X274.363 Y124.739
G00 X274.286 Y124.966
G00 X268.927 Y141.445
G00 X268.835 Y141.752
G00 X268.771 Y141.983
G00 X268.713 Y142.208
G00 X268.63 Y142.549
G00 X268.586 Y142.747
G00 X268.537 Y142.983
G00 X268.493 Y143.215
G00 X268.431 Y143.574
G00 X268.401 Y143.77
G00 X268.367 Y144.018
G00 X268.337 Y144.263
G00 X268.299 Y144.632
G00 X268.278 Y144.886
G00 X268.264 Y145.108
G00 X268.255 Y145.274
G00 X268.245 Y145.545
G00 X268.24 Y145.763
G00 X268.238 Y146.076
G00 X268.24 Y146.247
G00 X268.247 Y146.552
G00 X268.257 Y146.798
G00 X268.273 Y147.054
G00 X268.302 Y147.43
G00 X268.328 Y147.692
G00 X268.364 Y147.99
G00 X268.401 Y148.266
G00 X269.918 Y158.604
G00 X269.965 Y158.88
G00 X270.005 Y159.095
G00 X270.047 Y159.302
G00 X270.113 Y159.608
G00 X270.173 Y159.859
G00 X270.236 Y160.108
G00 X271.877 Y166.302
G00 X271.121 Y169.449
G00 X269.338 Y171.999
G00 X266.884 Y173.164
G00 X261.646 Y173.474
G00 X258.263 Y172.414
G00 X256.951 Y170.906
G00 X255.529 Y165.981
G00 X257.049 Y160.358
G00 X257.089 Y160.196
G00 X257.146 Y159.959
G00 X257.19 Y159.765
G00 X257.246 Y159.501
G00 X257.271 Y159.368
G00 X257.315 Y159.137
G00 X257.345 Y158.964
G00 X258.925 Y149.366
G00 X258.96 Y149.159
G00 X258.999 Y148.91
G00 X259.03 Y148.68
G00 X259.073 Y148.329
G00 X259.099 Y148.076
G00 X259.118 Y147.845
G00 X259.134 Y147.603
G00 X259.153 Y147.248
G00 X259.16 Y147.016
G00 X259.164 Y146.765
G00 X259.163 Y146.542
G00 X259.157 Y146.206
G00 X259.149 Y145.992
G00 X259.135 Y145.727
G00 X259.119 Y145.498
G00 X259.088 Y145.141
G00 X259.061 Y144.879
G00 X259.036 Y144.679
G00 X259.011 Y144.495
G00 X258.963 Y144.183
G00 X258.914 Y143.899
G00 X258.86 Y143.621
G00 X258.783 Y143.257
G00 X258.72 Y142.99
G00 X258.686 Y142.853
G00 X258.641 Y142.681
G00 X258.55 Y142.352
G00 X258.466 Y142.073
G00 X258.376 Y141.789
G00 X252.525 Y124.145
G00 X252.459 Y123.959
G00 X252.386 Y123.76
G00 X252.316 Y123.578
G00 X252.186 Y123.251
G00 X252.08 Y122.996
G00 X251.986 Y122.781
G00 X251.888 Y122.564
G00 X244.936 Y107.593
G00 X243.678 Y100.62
G00 X243.627 Y100.368
G00 X243.579 Y100.148
G00 X243.533 Y99.955
G00 X243.453 Y99.632
G00 X243.39 Y99.395
G00 X243.338 Y99.208
G00 X243.261 Y98.949
G00 X243.212 Y98.79
G00 X240.649 Y90.802
G00 X240.544 Y90.503
G00 X240.461 Y90.277
G00 X240.384 Y90.079
G00 X240.268 Y89.793
G00 X240.182 Y89.59
G00 X240.101 Y89.405
G00 X240.025 Y89.239
G00 X239.902 Y88.979
G00 X239.81 Y88.794
G00 X239.684 Y88.55
G00 X239.574 Y88.345
G00 X239.456 Y88.133
G00 X239.292 Y87.852
G00 X239.177 Y87.661
G00 X239.046 Y87.451
G00 X238.909 Y87.242
G00 X238.697 Y86.928
G00 X238.569 Y86.746
G00 X238.425 Y86.548
G00 X238.285 Y86.363
G00 X238.073 Y86.092
G00 X237.902 Y85.882
G00 X237.755 Y85.708
G00 X237.624 Y85.558
G00 X237.432 Y85.342
G00 X237.311 Y85.21
G00 X237.233 Y85.128
G00 X237.084 Y84.973
G00 X236.934 Y84.821
G00 X236.724 Y84.615
G00 X236.581 Y84.48
G00 X236.399 Y84.312
G00 X236.217 Y84.15
G00 X235.943 Y83.914
G00 X235.744 Y83.75
G00 X235.547 Y83.593
G00 X235.376 Y83.462
G00 X235.115 Y83.268
G00 X234.929 Y83.133
G00 X234.742 Y83.003
G00 X234.534 Y82.863
G00 X234.251 Y82.681
G00 X234.045 Y82.553
G00 X233.882 Y82.456
G00 X233.725 Y82.364
G00 X233.463 Y82.217
G00 X233.234 Y82.093
G00 X233.048 Y81.997
G00 X232.831 Y81.889
G00 X232.626 Y81.791
G00 X232.329 Y81.654
G00 X232.114 Y81.559
G00 X231.906 Y81.472
G00 X231.665 Y81.376
G00 X231.325 Y81.247
G00 X231.127 Y81.177
G00 X230.878 Y81.092
G00 X230.664 Y81.023
G00 X230.324 Y80.92
G00 X230.086 Y80.854
G00 X229.858 Y80.793
G00 X229.625 Y80.736
G00 X229.279 Y80.657
G00 X229.025 Y80.605
G00 X228.798 Y80.562
G00 X228.574 Y80.524
G00 X228.258 Y80.474
G00 X228.08 Y80.449
G00 X227.955 Y80.433
G00 X227.632 Y80.396
G00 X227.321 Y80.367
G00 X227.025 Y80.346
G00 X226.758 Y80.332
G00 X226.415 Y80.319
G00 X226.119 Y80.314
G00 X225.969 Y80.314
G00 X225.668 Y80.318
G00 X225.327 Y80.33
G00 X224.988 Y80.348
G00 X224.658 Y80.371
G00 X218.694 Y80.891
G00 X218.449 Y80.918
G00 X218.293 Y80.937
G00 X218.315 Y80.795
G00 X218.347 Y80.568
G00 X218.375 Y80.347
G00 X218.391 Y80.192
G00 X218.421 Y79.898
G00 X218.437 Y79.698
G00 X218.446 Y79.553
G00 X218.461 Y79.277
G00 X218.475 Y78.899
G00 X218.48 Y78.573
G00 X218.477 Y78.286
G00 X218.47 Y78.036
G00 X218.461 Y77.804
G00 X218.447 Y77.562
G00 X218.421 Y77.221
G00 X218.397 Y76.965
G00 X218.392 Y76.921
G00 X227.968 Y75.592
G00 X228.039 Y75.582
G00 X228.367 Y75.527
G00 X228.614 Y75.482
G00 X247.055 Y72.031
G00 X274.079 Y73.013
G00 X274.323 Y73.017
G00 X274.57 Y73.017
G00 X274.803 Y73.013
G00 X286.862 Y72.728
G00 X303.701 Y77.224
G00 X303.769 Y77.242
G00 X304.042 Y77.307
G00 X304.29 Y77.362
G00 X304.499 Y77.404
G00 X304.814 Y77.464
G00 X305.068 Y77.508
G00 X305.303 Y77.543
G00 X305.542 Y77.575
G00 X305.885 Y77.616
G00 X306.148 Y77.642
G00 X306.365 Y77.659
G00 X306.556 Y77.672
G00 X306.847 Y77.687
G00 X307.112 Y77.696
G00 X307.333 Y77.7
G00 X307.582 Y77.701
G00 X307.758 Y77.7
G00 X308.056 Y77.693
G00 X308.288 Y77.683
G00 X308.53 Y77.669
G00 X308.868 Y77.644
G00 X309.022 Y77.63
G00 X309.012 Y77.823
G00 X309.002 Y78.087
G00 X308.998 Y78.308
G00 X308.995 Y78.672
G00 X309 Y78.954
G00 X309.008 Y79.188
G00 X309.02 Y79.436
G00 X309.043 Y79.762
G00 X309.06 Y79.96
G00 X309.083 Y80.191
G00 X309.113 Y80.45
G00 X309.16 Y80.796
G00 X309.161 Y80.807
G00 X308.886 Y80.724
G00 X308.671 Y80.663
G00 X308.437 Y80.601
G00 X308.206 Y80.545
G00 X307.849 Y80.463
G00 X307.614 Y80.415
G00 X307.299 Y80.355
G00 X307.001 Y80.305
G00 X306.795 Y80.274
G00 X306.667 Y80.257
G00 X306.477 Y80.233
G00 X306.168 Y80.199
G00 X305.86 Y80.17
G00 X305.58 Y80.15
G00 X305.327 Y80.137
G00 X304.997 Y80.125
G00 X304.692 Y80.119
G00 X304.409 Y80.121
G00 X304.036 Y80.13
G00 X303.714 Y80.145
G00 X303.432 Y80.164
G00 X303.232 Y80.18
G00 X303.074 Y80.196
G00 X302.879 Y80.217
G00 X302.635 Y80.246
G00 X302.435 Y80.273
G00 X302.145 Y80.316
G00 X301.879 Y80.361
G00 X301.682 Y80.397
G00 X297.719 Y81.152
G00 X297.447 Y81.21
G00 X297.211 Y81.264
G00 X296.974 Y81.324
G00 X296.638 Y81.414
G00 X296.415 Y81.478
G00 X296.136 Y81.564
G00 X295.907 Y81.638
G00 X295.724 Y81.701
G00 X295.406 Y81.815
G00 X295.188 Y81.899
G00 X294.983 Y81.981
G00 X294.685 Y82.105
G00 X294.457 Y82.205
G00 X294.216 Y82.316
G00 X294.011 Y82.416
G00 X293.681 Y82.582
G00 X293.477 Y82.69
G00 X293.256 Y82.811
G00 X293.059 Y82.924
G00 X292.767 Y83.098
G00 X292.56 Y83.226
G00 X292.365 Y83.351
G00 X292.154 Y83.492
G00 X291.844 Y83.706
G00 X291.668 Y83.834
G00 X291.485 Y83.971
G00 X291.3 Y84.113
G00 X291.041 Y84.32
G00 X290.83 Y84.494
G00 X290.638 Y84.66
G00 X290.453 Y84.825
G00 X290.179 Y85.079
G00 X290.028 Y85.224
G00 X289.863 Y85.388
G00 X289.7 Y85.555
G00 X289.458 Y85.811
G00 X289.317 Y85.966
G00 X289.161 Y86.143
G00 X288.996 Y86.336
G00 X288.771 Y86.61
G00 X288.607 Y86.816
G00 X288.466 Y87.002
G00 X288.316 Y87.207
G00 X288.112 Y87.493
G00 X288.003 Y87.654
G00 X287.864 Y87.864
G00 X287.731 Y88.075
G00 X287.532 Y88.4
G00 X287.391 Y88.643
G00 X287.225 Y88.943
G00 X287.082 Y89.214
G00 X286.944 Y89.49
G00 X286.831 Y89.729
G00 X286.681 Y90.06
G00 X286.581 Y90.29
G00 X286.488 Y90.516
G00 X286.411 Y90.712
G00 X286.314 Y90.97
G00 X286.218 Y91.238
G00 X286.129 Y91.503
G00 X286.046 Y91.762
G00 X285.948 Y92.092
G00 X285.857 Y92.424
G00 X285.782 Y92.72
G00 X288.505 Y93.374
G00 X284.521 Y109.956
G00 X277.529 Y124.37
G00 X277.443 Y124.557
G00 X277.361 Y124.743
G00 X277.285 Y124.925
G00 X277.169 Y125.215
G00 X277.089 Y125.429
G00 X277.015 Y125.636
G00 X276.949 Y125.832
G00 X271.608 Y142.252
G00 X271.534 Y142.499
G00 X271.481 Y142.691
G00 X271.433 Y142.874
G00 X271.363 Y143.162
G00 X271.327 Y143.322
G00 X271.287 Y143.511
G00 X271.251 Y143.698
G00 X271.199 Y143.996
G00 X271.174 Y144.162
G00 X271.146 Y144.354
G00 X271.122 Y144.556
G00 X271.09 Y144.866
G00 X271.072 Y145.076
G00 X271.06 Y145.251
G00 X271.053 Y145.391
G00 X271.044 Y145.61
G00 X271.04 Y145.784
G00 X271.038 Y146.049
G00 X271.039 Y146.186
G00 X271.044 Y146.436
G00 X271.053 Y146.634
G00 X271.065 Y146.841
G00 X271.089 Y147.156
G00 X271.11 Y147.366
G00 X271.139 Y147.62
G00 X271.171 Y147.86
G00 X272.679 Y158.14
G00 X272.718 Y158.369
G00 X272.75 Y158.545
G00 X272.784 Y158.71
G00 X272.839 Y158.966
G00 X272.887 Y159.169
G00 X272.943 Y159.391
G00 X274.765 Y166.269
G00 X273.719 Y170.619
G00 X271.209 Y174.21
G00 X267.593 Y175.927
G00 X261.299 Y176.3
G00 X256.67 Y174.849
G00 X254.433 Y172.277
G00 X252.621 Y166.007
G00 X254.334 Y159.672
G00 X254.366 Y159.542
G00 X254.416 Y159.337
G00 X254.451 Y159.183
G00 X254.498 Y158.963
G00 X254.52 Y158.849
G00 X254.557 Y158.651
G00 X254.582 Y158.509
G00 X256.164 Y148.897
G00 X256.194 Y148.722
G00 X256.225 Y148.527
G00 X256.251 Y148.336
G00 X256.288 Y148.04
G00 X256.309 Y147.838
G00 X256.325 Y147.651
G00 X256.338 Y147.456
G00 X256.354 Y147.159
G00 X256.36 Y146.967
G00 X256.363 Y146.77
G00 X256.363 Y146.588
G00 X256.358 Y146.304
G00 X256.352 Y146.129
G00 X256.342 Y145.923
G00 X256.329 Y145.734
G00 X256.303 Y145.43
G00 X256.281 Y145.219
G00 X256.26 Y145.05
G00 X256.242 Y144.91
G00 X256.204 Y144.659
G00 X256.164 Y144.428
G00 X256.12 Y144.199
G00 X256.055 Y143.889
G00 X256.003 Y143.667
G00 X255.977 Y143.561
G00 X255.941 Y143.423
G00 X255.867 Y143.155
G00 X255.795 Y142.913
G00 X255.719 Y142.67
G00 X249.888 Y125.086
G00 X249.83 Y124.924
G00 X249.769 Y124.757
G00 X249.711 Y124.606
G00 X249.601 Y124.327
G00 X249.511 Y124.111
G00 X249.433 Y123.931
G00 X249.348 Y123.743
G00 X242.245 Y108.446
G00 X240.932 Y101.17
G00 X240.89 Y100.958
G00 X240.852 Y100.786
G00 X240.816 Y100.628
G00 X240.746 Y100.347
G00 X240.694 Y100.149
G00 X240.652 Y100
G00 X240.586 Y99.777
G00 X240.545 Y99.645
G00 X238.003 Y91.719
G00 X237.915 Y91.466
G00 X237.85 Y91.288
G00 X237.788 Y91.128
G00 X237.688 Y90.881
G00 X237.621 Y90.721
G00 X237.552 Y90.565
G00 X237.492 Y90.434
G00 X237.391 Y90.22
G00 X237.317 Y90.07
G00 X237.216 Y89.872
G00 X237.127 Y89.706
G00 X237.033 Y89.537
G00 X236.892 Y89.294
G00 X236.801 Y89.142
G00 X236.696 Y88.974
G00 X236.587 Y88.806
G00 X236.409 Y88.541
G00 X236.302 Y88.39
G00 X236.189 Y88.235
G00 X236.075 Y88.083
G00 X235.897 Y87.854
G00 X235.763 Y87.688
G00 X235.641 Y87.545
G00 X235.534 Y87.421
G00 X235.364 Y87.231
G00 X235.264 Y87.121
G00 X235.216 Y87.07
G00 X235.093 Y86.942
G00 X234.973 Y86.82
G00 X234.792 Y86.642
G00 X234.676 Y86.532
G00 X234.535 Y86.401
G00 X234.387 Y86.27
G00 X234.154 Y86.068
G00 X233.999 Y85.939
G00 X233.84 Y85.812
G00 X233.7 Y85.705
G00 X233.477 Y85.538
G00 X233.325 Y85.428
G00 X233.178 Y85.326
G00 X233.011 Y85.214
G00 X232.771 Y85.058
G00 X232.607 Y84.956
G00 X232.466 Y84.871
G00 X232.346 Y84.801
G00 X232.132 Y84.68
G00 X231.948 Y84.58
G00 X231.792 Y84.5
G00 X231.618 Y84.413
G00 X231.452 Y84.333
G00 X231.198 Y84.215
G00 X231.028 Y84.14
G00 X230.861 Y84.07
G00 X230.668 Y83.992
G00 X230.381 Y83.883
G00 X230.22 Y83.825
G00 X230.025 Y83.759
G00 X229.848 Y83.702
G00 X229.561 Y83.615
G00 X229.37 Y83.56
G00 X229.187 Y83.512
G00 X228.998 Y83.465
G00 X228.707 Y83.399
G00 X228.501 Y83.356
G00 X228.318 Y83.321
G00 X228.137 Y83.289
G00 X227.867 Y83.247
G00 X227.73 Y83.227
G00 X227.631 Y83.215
G00 X227.367 Y83.184
G00 X227.11 Y83.159
G00 X226.873 Y83.142
G00 X226.655 Y83.13
G00 X226.361 Y83.119
G00 X226.119 Y83.114
G00 X226 Y83.114
G00 X225.76 Y83.117
G00 X225.47 Y83.126
G00 X225.184 Y83.141
G00 X224.901 Y83.161
G00 X218.994 Y83.675
G00 X218.789 Y83.697
G00 X218.62 Y83.718
G00 X218.481 Y83.737
G00 X218.238 Y83.773
G00 X218.055 Y83.804
G00 X217.865 Y83.839
G00 X217.685 Y83.875
G00 X217.5 Y83.915
G00 X217.226 Y83.979
G00 X217.032 Y84.028
G00 X216.839 Y84.08
G00 X216.654 Y84.134
G00 X216.372 Y84.221
G00 X216.201 Y84.277
G00 X216.054 Y84.328
G00 X215.903 Y84.382
G00 X215.672 Y84.47
G00 X215.531 Y84.525
G00 X215.43 Y84.567
G00 X215.212 Y84.66
G00 X215.099 Y84.71
G00 X213.723 Y85.299
G00 X213.724 Y85.298
G00 X213.826 Y85.134
G00 X213.923 Y84.972
G00 X214.025 Y84.797
G00 X214.173 Y84.529
G00 X214.258 Y84.37
G00 X214.343 Y84.203
G00 X214.433 Y84.018
G00 X214.564 Y83.738
G00 X214.646 Y83.554
G00 X214.719 Y83.379
G00 X214.792 Y83.199
G00 X214.896 Y82.927
G00 X214.956 Y82.762
G00 X215.02 Y82.577
G00 X215.079 Y82.394
G00 X215.166 Y82.112
G00 X215.222 Y81.916
G00 X215.274 Y81.724
G00 X215.32 Y81.537
G00 X215.39 Y81.237
G00 X215.427 Y81.058
G00 X215.462 Y80.885
G00 X215.497 Y80.688
G00 X215.543 Y80.402
G00 X215.569 Y80.22
G00 X215.592 Y80.036
G00 X215.605 Y79.912
G00 X215.63 Y79.669
G00 X215.643 Y79.513
G00 X215.65 Y79.4
G00 X215.663 Y79.17
G00 X215.675 Y78.851
G00 X215.679 Y78.589
G00 X215.678 Y78.358
G00 X215.673 Y78.148
G00 X215.665 Y77.961
G00 X215.654 Y77.767
G00 X215.633 Y77.477
G00 X215.614 Y77.274
G00 X215.592 Y77.073
G00 X215.569 Y76.889
G00 X215.526 Y76.597
G00 X215.494 Y76.398
G00 X215.459 Y76.208
G00 X215.423 Y76.026
G00 X215.363 Y75.748
G00 X215.32 Y75.565
G00 X215.269 Y75.365
G00 X215.217 Y75.175
G00 X215.131 Y74.878
G00 X215.076 Y74.7
G00 X215.02 Y74.531
G00 X214.954 Y74.34
G00 X214.938 Y74.297
G00 X215.04 Y74.305
G00 X215.214 Y74.315
G00 X215.407 Y74.322
G00 X215.682 Y74.329
G00 X215.889 Y74.33
G00 X216.1 Y74.327
G00 X216.291 Y74.321
G00 X216.6 Y74.306
G00 X216.793 Y74.293
G00 X216.966 Y74.278
G00 X217.162 Y74.259
G00 X217.445 Y74.226
G00 X217.644 Y74.199
G00 X217.756 Y74.182
G00 X227.583 Y72.819
G00 X227.864 Y72.773
G00 X228.099 Y72.729
G00 X246.844 Y69.222
G00 X274.128 Y70.213
G00 X274.323 Y70.217
G00 X274.533 Y70.217
G00 X274.737 Y70.214
G00 X287.198 Y69.919
G00 X304.423 Y74.519
G00 X304.654 Y74.575
G00 X304.849 Y74.618
G00 X305.022 Y74.654
G00 X305.293 Y74.705
G00 X305.492 Y74.74
G00 X305.682 Y74.769
G00 X305.873 Y74.795
G00 X306.166 Y74.83
G00 X306.374 Y74.851
G00 X306.554 Y74.865
G00 X306.709 Y74.876
G00 X306.95 Y74.889
G00 X307.161 Y74.897
G00 X307.351 Y74.9
G00 X307.556 Y74.901
G00 X307.697 Y74.9
G00 X307.944 Y74.895
G00 X308.131 Y74.887
G00 X308.325 Y74.876
G00 X308.615 Y74.855
G00 X308.817 Y74.837
G00 X308.999 Y74.817
G00 X309.131 Y74.8
G00 X309.373 Y74.767
G00 X309.592 Y74.733
G00 X309.774 Y74.701
G00 X310.042 Y74.65
G00 X310.303 Y74.596
G00 X312.617 Y74.076
G00 X312.514 Y74.355
G00 X312.457 Y74.52
G00 X312.395 Y74.708
G00 X312.338 Y74.892
G00 X312.256 Y75.173
G00 X312.196 Y75.396
G00 X312.152 Y75.571
G00 X312.107 Y75.763
G00 X312.048 Y76.04
G00 X312.018 Y76.193
G00 X311.982 Y76.389
G00 X311.948 Y76.594
G00 X311.903 Y76.909
G00 X311.879 Y77.105
G00 X311.859 Y77.286
G00 X311.842 Y77.474
G00 X311.82 Y77.758
G00 X311.81 Y77.938
G00 X311.801 Y78.144
G00 X311.798 Y78.329
G00 X311.795 Y78.635
G00 X311.798 Y78.862
G00 X311.804 Y79.049
G00 X311.814 Y79.246
G00 X311.834 Y79.531
G00 X311.846 Y79.687
G00 X311.865 Y79.873
G00 X311.888 Y80.078
G00 X311.928 Y80.375
G00 X311.958 Y80.574
G00 X311.991 Y80.767
G00 X312.027 Y80.957
G00 X312.087 Y81.246
G00 X312.131 Y81.443
G00 X312.182 Y81.651
G00 X312.228 Y81.822
G00 X312.306 Y82.101
G00 X312.361 Y82.284
G00 X312.418 Y82.465
G00 X312.479 Y82.645
G00 X312.579 Y82.926
G00 X312.647 Y83.106
G00 X312.719 Y83.288
G00 X312.796 Y83.472
G00 X312.919 Y83.753
G00 X312.995 Y83.917
G00 X313.086 Y84.105
G00 X313.165 Y84.262
G00 X313.297 Y84.516
G00 X313.388 Y84.682
G00 X313.49 Y84.863
G00 X313.592 Y85.034
G00 X313.761 Y85.308
G00 X313.865 Y85.469
G00 X313.966 Y85.621
G00 X314.037 Y85.723
G00 X312.881 Y85.473
G00 X309.881 Y84.067
G00 X309.661 Y83.97
G00 X309.444 Y83.88
G00 X309.216 Y83.789
G00 X308.994 Y83.705
G00 X308.773 Y83.626
G00 X308.59 Y83.563
G00 X308.404 Y83.503
G00 X308.122 Y83.418
G00 X307.951 Y83.369
G00 X307.765 Y83.32
G00 X307.576 Y83.273
G00 X307.281 Y83.205
G00 X307.09 Y83.166
G00 X306.825 Y83.115
G00 X306.582 Y83.073
G00 X306.421 Y83.049
G00 X306.315 Y83.035
G00 X306.165 Y83.016
G00 X305.903 Y82.986
G00 X305.653 Y82.963
G00 X305.429 Y82.946
G00 X305.222 Y82.935
G00 X304.942 Y82.924
G00 X304.7 Y82.92
G00 X304.471 Y82.92
G00 X304.164 Y82.927
G00 X303.897 Y82.939
G00 X303.654 Y82.955
G00 X303.5 Y82.967
G00 X303.377 Y82.979
G00 X303.206 Y82.998
G00 X303.003 Y83.022
G00 X302.845 Y83.043
G00 X302.601 Y83.079
G00 X302.387 Y83.114
G00 X302.206 Y83.148
G00 X298.301 Y83.891
G00 X298.073 Y83.939
G00 X297.888 Y83.981
G00 X297.695 Y84.03
G00 X297.408 Y84.106
G00 X297.231 Y84.157
G00 X296.999 Y84.227
G00 X296.812 Y84.288
G00 X296.663 Y84.339
G00 X296.406 Y84.431
G00 X296.225 Y84.5
G00 X296.059 Y84.566
G00 X295.807 Y84.671
G00 X295.623 Y84.751
G00 X295.437 Y84.836
G00 X295.264 Y84.92
G00 X294.988 Y85.058
G00 X294.821 Y85.147
G00 X294.646 Y85.242
G00 X294.484 Y85.334
G00 X294.236 Y85.481
G00 X294.07 Y85.583
G00 X293.915 Y85.683
G00 X293.743 Y85.797
G00 X293.486 Y85.975
G00 X293.341 Y86.079
G00 X293.19 Y86.192
G00 X293.042 Y86.305
G00 X292.821 Y86.481
G00 X292.656 Y86.617
G00 X292.501 Y86.75
G00 X292.352 Y86.884
G00 X292.12 Y87.097
G00 X291.996 Y87.217
G00 X291.863 Y87.348
G00 X291.731 Y87.482
G00 X291.53 Y87.695
G00 X291.411 Y87.825
G00 X291.288 Y87.964
G00 X291.155 Y88.119
G00 X290.963 Y88.352
G00 X290.833 Y88.516
G00 X290.72 Y88.663
G00 X290.598 Y88.828
G00 X290.426 Y89.071
G00 X290.337 Y89.202
G00 X290.227 Y89.367
G00 X290.117 Y89.54
G00 X289.951 Y89.81
G00 X289.838 Y90.004
G00 X289.701 Y90.251
G00 X289.584 Y90.473
G00 X289.474 Y90.689
G00 X289.378 Y90.892
G00 X289.249 Y91.175
G00 X289.166 Y91.366
G00 X289.093 Y91.542
G00 X289.03 Y91.7
G00 X288.949 Y91.916
G00 X288.869 Y92.139
G00 X288.796 Y92.355
G00 X288.73 Y92.562
G00 X288.647 Y92.838
G00 X288.571 Y93.116
G00 X288.505 Y93.374
G00 X291.228 Y94.028
G00 X287.172 Y110.906
G00 X280.072 Y125.541
G00 X280.002 Y125.695
G00 X279.942 Y125.829
G00 X279.883 Y125.97
G00 X279.788 Y126.206
G00 X279.728 Y126.364
G00 X279.667 Y126.536
G00 X279.612 Y126.698
G00 X274.288 Y143.062
G00 X274.23 Y143.255
G00 X274.189 Y143.402
G00 X274.152 Y143.543
G00 X274.094 Y143.777
G00 X274.065 Y143.906
G00 X274.036 Y144.043
G00 X274.008 Y144.186
G00 X273.966 Y144.423
G00 X273.945 Y144.559
G00 X273.925 Y144.699
G00 X273.906 Y144.851
G00 X273.879 Y145.106
G00 X273.865 Y145.267
G00 X273.856 Y145.401
G00 X273.85 Y145.508
G00 X273.843 Y145.686
G00 X273.84 Y145.811
G00 X273.838 Y146.023
G00 X273.839 Y146.132
G00 X273.842 Y146.324
G00 X273.848 Y146.476
G00 X273.857 Y146.633
G00 X273.877 Y146.892
G00 X273.891 Y147.045
G00 X273.915 Y147.253
G00 X273.942 Y147.453
G00 X275.441 Y157.678
G00 X275.472 Y157.862
G00 X275.497 Y158
G00 X275.522 Y158.123
G00 X275.566 Y158.331
G00 X275.601 Y158.482
G00 X275.65 Y158.674
G00 X277.653 Y166.236
G00 X276.318 Y171.79
G00 X273.08 Y176.421
G00 X268.302 Y178.69
G00 X260.951 Y179.125
G00 X255.077 Y177.284
G00 X251.914 Y173.648
G00 X249.714 Y166.032
G00 X251.619 Y158.985
G00 X251.645 Y158.883
G00 X251.687 Y158.711
G00 X251.712 Y158.599
G00 X251.751 Y158.419
G00 X251.769 Y158.325
G00 X251.8 Y158.163
G00 X251.819 Y158.054
G00 X253.404 Y148.428
G00 X253.429 Y148.276
G00 X253.452 Y148.135
G00 X253.473 Y147.989
G00 X253.503 Y147.745
G00 X253.519 Y147.595
G00 X253.532 Y147.451
G00 X253.542 Y147.304
G00 X253.555 Y147.061
G00 X253.56 Y146.915
G00 X253.563 Y146.77
G00 X253.563 Y146.629
G00 X253.56 Y146.396
G00 X253.555 Y146.262
G00 X253.548 Y146.113
G00 X253.538 Y145.964
G00 X253.517 Y145.713
G00 X253.501 Y145.553
G00 X253.485 Y145.421
G00 X253.471 Y145.318
G00 X253.443 Y145.127
G00 X253.413 Y144.951
G00 X253.38 Y144.772
G00 X253.326 Y144.518
G00 X253.284 Y144.334
G00 X253.266 Y144.263
G00 X253.24 Y144.161
G00 X253.183 Y143.953
G00 X253.123 Y143.751
G00 X253.061 Y143.552
G00 X247.25 Y126.025
G00 X247.201 Y125.887
G00 X247.152 Y125.754
G00 X247.104 Y125.629
G00 X247.014 Y125.399
G00 X246.942 Y125.225
G00 X246.878 Y125.077
G00 X246.808 Y124.922
G00 X239.554 Y109.298
G00 X238.186 Y101.716
G00 X238.151 Y101.544
G00 X238.124 Y101.415
G00 X238.098 Y101.301
G00 X238.038 Y101.059
G00 X237.995 Y100.898
G00 X237.965 Y100.786
G00 X237.912 Y100.606
G00 X237.879 Y100.5
G00 X235.355 Y92.631
G00 X235.285 Y92.427
G00 X235.236 Y92.294
G00 X235.189 Y92.17
G00 X235.107 Y91.966
G00 X235.057 Y91.847
G00 X235.002 Y91.722
G00 X234.957 Y91.623
G00 X234.88 Y91.458
G00 X234.821 Y91.339
G00 X234.747 Y91.193
G00 X234.676 Y91.061
G00 X234.607 Y90.936
G00 X234.489 Y90.731
G00 X234.422 Y90.619
G00 X234.344 Y90.493
G00 X234.26 Y90.364
G00 X234.118 Y90.152
G00 X234.033 Y90.031
G00 X233.95 Y89.916
G00 X233.863 Y89.8
G00 X233.715 Y89.609
G00 X233.619 Y89.49
G00 X233.524 Y89.377
G00 X233.441 Y89.281
G00 X233.297 Y89.119
G00 X233.197 Y89.01
G00 X233.098 Y88.907
G00 X233.008 Y88.815
G00 X232.856 Y88.666
G00 X232.77 Y88.583
G00 X232.665 Y88.486
G00 X232.553 Y88.385
G00 X232.364 Y88.221
G00 X232.247 Y88.124
G00 X232.129 Y88.029
G00 X232.019 Y87.945
G00 X231.833 Y87.805
G00 X231.719 Y87.722
G00 X231.607 Y87.644
G00 X231.486 Y87.562
G00 X231.284 Y87.431
G00 X231.164 Y87.355
G00 X231.048 Y87.286
G00 X230.961 Y87.234
G00 X230.797 Y87.141
G00 X230.654 Y87.064
G00 X230.532 Y87
G00 X230.401 Y86.934
G00 X230.275 Y86.873
G00 X230.063 Y86.775
G00 X229.937 Y86.719
G00 X229.807 Y86.664
G00 X229.666 Y86.607
G00 X229.434 Y86.518
G00 X229.305 Y86.472
G00 X229.167 Y86.424
G00 X229.027 Y86.379
G00 X228.793 Y86.307
G00 X228.649 Y86.266
G00 X228.509 Y86.229
G00 X228.367 Y86.193
G00 X228.127 Y86.138
G00 X227.975 Y86.106
G00 X227.833 Y86.079
G00 X227.696 Y86.055
G00 X227.467 Y86.018
G00 X227.373 Y86.004
G00 X227.305 Y85.996
G00 X227.091 Y85.971
G00 X226.896 Y85.951
G00 X226.715 Y85.937
G00 X226.547 Y85.928
G00 X226.302 Y85.918
G00 X226.107 Y85.914
G00 X226.026 Y85.914
G00 X225.844 Y85.916
G00 X225.609 Y85.923
G00 X225.378 Y85.934
G00 X225.143 Y85.951
G00 X219.29 Y86.46
G00 X219.124 Y86.477
G00 X218.992 Y86.493
G00 X218.888 Y86.507
G00 X218.7 Y86.535
G00 X218.556 Y86.559
G00 X218.41 Y86.585
G00 X218.271 Y86.613
G00 X218.133 Y86.642
G00 X217.903 Y86.696
G00 X217.762 Y86.731
G00 X217.618 Y86.77
G00 X217.476 Y86.811
G00 X217.243 Y86.883
G00 X217.111 Y86.926
G00 X216.991 Y86.967
G00 X216.887 Y87.004
G00 X216.701 Y87.074
G00 X216.59 Y87.118
G00 X216.525 Y87.144
G00 X216.342 Y87.222
G00 X216.23 Y87.271
G00 X211.848 Y89.149
G00 X203.324 Y89.613
G00 X207.896 Y87.091
G00 X208.051 Y87.002
G00 X208.177 Y86.926
G00 X208.311 Y86.843
G00 X208.529 Y86.701
G00 X208.652 Y86.618
G00 X208.765 Y86.538
G00 X208.88 Y86.455
G00 X209.068 Y86.314
G00 X209.181 Y86.226
G00 X209.297 Y86.131
G00 X209.408 Y86.038
G00 X209.591 Y85.879
G00 X209.705 Y85.777
G00 X209.864 Y85.628
G00 X210.002 Y85.493
G00 X210.125 Y85.368
G00 X210.207 Y85.282
G00 X210.302 Y85.179
G00 X210.396 Y85.075
G00 X210.549 Y84.9
G00 X210.64 Y84.791
G00 X210.732 Y84.677
G00 X210.822 Y84.562
G00 X210.969 Y84.368
G00 X211.055 Y84.25
G00 X211.139 Y84.131
G00 X211.22 Y84.011
G00 X211.351 Y83.81
G00 X211.428 Y83.689
G00 X211.503 Y83.564
G00 X211.579 Y83.433
G00 X211.7 Y83.215
G00 X211.767 Y83.091
G00 X211.831 Y82.965
G00 X211.899 Y82.828
G00 X212.006 Y82.599
G00 X212.068 Y82.459
G00 X212.125 Y82.327
G00 X212.179 Y82.193
G00 X212.265 Y81.969
G00 X212.311 Y81.844
G00 X212.359 Y81.705
G00 X212.405 Y81.566
G00 X212.477 Y81.332
G00 X212.519 Y81.188
G00 X212.558 Y81.043
G00 X212.594 Y80.899
G00 X212.65 Y80.657
G00 X212.681 Y80.515
G00 X212.707 Y80.383
G00 X212.733 Y80.24
G00 X212.771 Y80.004
G00 X212.791 Y79.864
G00 X212.809 Y79.727
G00 X212.82 Y79.626
G00 X212.839 Y79.435
G00 X212.849 Y79.318
G00 X212.854 Y79.245
G00 X212.865 Y79.056
G00 X212.875 Y78.799
G00 X212.879 Y78.6
G00 X212.878 Y78.422
G00 X212.875 Y78.258
G00 X212.869 Y78.111
G00 X212.861 Y77.967
G00 X212.844 Y77.725
G00 X212.831 Y77.576
G00 X212.814 Y77.427
G00 X212.796 Y77.283
G00 X212.762 Y77.042
G00 X212.738 Y76.895
G00 X212.712 Y76.751
G00 X212.685 Y76.612
G00 X212.635 Y76.381
G00 X212.603 Y76.244
G00 X212.567 Y76.099
G00 X212.527 Y75.951
G00 X212.457 Y75.709
G00 X212.414 Y75.571
G00 X212.371 Y75.44
G00 X212.324 Y75.301
G00 X212.242 Y75.076
G00 X212.192 Y74.948
G00 X212.138 Y74.813
G00 X212.077 Y74.669
G00 X211.971 Y74.433
G00 X211.907 Y74.297
G00 X211.844 Y74.169
G00 X211.784 Y74.051
G00 X211.679 Y73.853
G00 X211.608 Y73.725
G00 X211.531 Y73.591
G00 X211.454 Y73.462
G00 X211.321 Y73.249
G00 X211.239 Y73.124
G00 X211.157 Y73.003
G00 X211.074 Y72.884
G00 X210.93 Y72.686
G00 X210.838 Y72.565
G00 X210.748 Y72.449
G00 X210.658 Y72.339
G00 X210.507 Y72.159
G00 X210.421 Y72.06
G00 X210.327 Y71.955
G00 X210.222 Y71.842
G00 X210.047 Y71.66
G00 X209.941 Y71.555
G00 X209.836 Y71.453
G00 X209.73 Y71.354
G00 X209.55 Y71.191
G00 X209.439 Y71.095
G00 X209.329 Y71.003
G00 X209.218 Y70.912
G00 X209.028 Y70.763
G00 X208.91 Y70.674
G00 X208.792 Y70.588
G00 X208.666 Y70.499
G00 X208.61 Y70.462
G00 X214.323 Y71.413
G00 X214.521 Y71.442
G00 X214.671 Y71.461
G00 X214.814 Y71.476
G00 X215.054 Y71.498
G00 X215.201 Y71.509
G00 X215.336 Y71.517
G00 X215.476 Y71.523
G00 X215.708 Y71.529
G00 X215.853 Y71.53
G00 X216.012 Y71.528
G00 X216.163 Y71.523
G00 X216.415 Y71.512
G00 X216.564 Y71.502
G00 X216.699 Y71.491
G00 X216.841 Y71.477
G00 X217.075 Y71.45
G00 X217.228 Y71.43
G00 X217.348 Y71.412
G00 X227.136 Y70.055
G00 X227.357 Y70.019
G00 X227.565 Y69.981
G00 X227.584 Y69.977
G00 X246.634 Y66.412
G00 X274.178 Y67.414
G00 X274.329 Y67.417
G00 X274.5 Y67.417
G00 X274.671 Y67.415
G00 X287.534 Y67.111
G00 X305.083 Y71.798
G00 X305.27 Y71.843
G00 X305.414 Y71.876
G00 X305.549 Y71.903
G00 X305.777 Y71.947
G00 X305.922 Y71.973
G00 X306.065 Y71.995
G00 X306.21 Y72.015
G00 X306.453 Y72.044
G00 X306.604 Y72.06
G00 X306.748 Y72.072
G00 X306.865 Y72.08
G00 X307.065 Y72.091
G00 X307.214 Y72.097
G00 X307.376 Y72.1
G00 X307.53 Y72.102
G00 X307.642 Y72.101
G00 X307.834 Y72.097
G00 X307.981 Y72.091
G00 X308.125 Y72.083
G00 X308.367 Y72.066
G00 X308.516 Y72.053
G00 X308.657 Y72.038
G00 X308.758 Y72.025
G00 X308.947 Y72
G00 X309.108 Y71.975
G00 X309.257 Y71.949
G00 X309.473 Y71.908
G00 X309.689 Y71.863
G00 X320.968 Y69.33
G00 X320.198 Y69.69
G00 X320.049 Y69.763
G00 X319.935 Y69.821
G00 X319.808 Y69.888
G00 X319.6 Y70.002
G00 X319.48 Y70.072
G00 X319.322 Y70.166
G00 X319.228 Y70.223
G00 X319.06 Y70.33
G00 X318.966 Y70.391
G00 X318.907 Y70.431
G00 X318.719 Y70.562
G00 X318.598 Y70.648
G00 X318.479 Y70.738
G00 X318.282 Y70.89
G00 X318.164 Y70.986
G00 X318.053 Y71.079
G00 X317.943 Y71.175
G00 X317.764 Y71.335
G00 X317.672 Y71.421
G00 X317.572 Y71.517
G00 X317.46 Y71.626
G00 X317.282 Y71.81
G00 X317.183 Y71.915
G00 X317.091 Y72.018
G00 X316.993 Y72.128
G00 X316.835 Y72.315
G00 X316.74 Y72.431
G00 X316.646 Y72.551
G00 X316.564 Y72.66
G00 X316.424 Y72.849
G00 X316.332 Y72.979
G00 X316.244 Y73.109
G00 X316.17 Y73.223
G00 X316.047 Y73.418
G00 X315.973 Y73.539
G00 X315.901 Y73.663
G00 X315.823 Y73.801
G00 X315.701 Y74.029
G00 X315.638 Y74.151
G00 X315.578 Y74.273
G00 X315.516 Y74.403
G00 X315.418 Y74.618
G00 X315.361 Y74.751
G00 X315.304 Y74.89
G00 X315.248 Y75.034
G00 X315.16 Y75.273
G00 X315.114 Y75.405
G00 X315.069 Y75.54
G00 X315.025 Y75.68
G00 X314.955 Y75.918
G00 X314.912 Y76.075
G00 X314.877 Y76.216
G00 X314.844 Y76.355
G00 X314.795 Y76.583
G00 X314.771 Y76.702
G00 X314.744 Y76.846
G00 X314.719 Y77.002
G00 X314.681 Y77.26
G00 X314.662 Y77.41
G00 X314.647 Y77.549
G00 X314.633 Y77.689
G00 X314.615 Y77.922
G00 X314.607 Y78.061
G00 X314.601 Y78.208
G00 X314.598 Y78.356
G00 X314.595 Y78.606
G00 X314.597 Y78.772
G00 X314.602 Y78.918
G00 X314.608 Y79.062
G00 X314.624 Y79.299
G00 X314.634 Y79.421
G00 X314.647 Y79.56
G00 X314.664 Y79.711
G00 X314.697 Y79.96
G00 X314.719 Y80.109
G00 X314.743 Y80.252
G00 X314.771 Y80.397
G00 X314.82 Y80.637
G00 X314.852 Y80.783
G00 X314.888 Y80.932
G00 X314.925 Y81.07
G00 X314.989 Y81.301
G00 X315.03 Y81.439
G00 X315.074 Y81.575
G00 X315.12 Y81.713
G00 X315.2 Y81.941
G00 X315.253 Y82.08
G00 X315.305 Y82.214
G00 X315.363 Y82.354
G00 X315.463 Y82.582
G00 X315.522 Y82.71
G00 X315.586 Y82.845
G00 X315.649 Y82.971
G00 X315.758 Y83.181
G00 X315.828 Y83.308
G00 X315.9 Y83.437
G00 X315.98 Y83.571
G00 X316.115 Y83.792
G00 X316.196 Y83.918
G00 X316.273 Y84.034
G00 X316.35 Y84.145
G00 X316.481 Y84.329
G00 X316.564 Y84.443
G00 X316.651 Y84.557
G00 X316.745 Y84.675
G00 X316.905 Y84.87
G00 X317.004 Y84.987
G00 X317.102 Y85.097
G00 X317.202 Y85.206
G00 X317.37 Y85.383
G00 X317.466 Y85.48
G00 X317.573 Y85.586
G00 X317.68 Y85.687
G00 X317.862 Y85.854
G00 X317.976 Y85.955
G00 X318.084 Y86.048
G00 X318.197 Y86.141
G00 X318.388 Y86.293
G00 X318.513 Y86.388
G00 X318.689 Y86.518
G00 X318.848 Y86.63
G00 X318.983 Y86.721
G00 X319.107 Y86.801
G00 X319.303 Y86.924
G00 X319.483 Y87.031
G00 X323.704 Y89.475
G00 X321.078 Y90.11
G00 X311.98 Y88.143
G00 X308.754 Y86.63
G00 X308.58 Y86.553
G00 X308.401 Y86.479
G00 X308.219 Y86.405
G00 X308.046 Y86.339
G00 X307.864 Y86.274
G00 X307.728 Y86.227
G00 X307.588 Y86.182
G00 X307.355 Y86.111
G00 X307.223 Y86.073
G00 X307.086 Y86.037
G00 X306.943 Y86.001
G00 X306.705 Y85.945
G00 X306.56 Y85.915
G00 X306.349 Y85.874
G00 X306.157 Y85.841
G00 X306.038 Y85.823
G00 X305.964 Y85.813
G00 X305.846 Y85.798
G00 X305.634 Y85.773
G00 X305.441 Y85.755
G00 X305.272 Y85.742
G00 X305.115 Y85.733
G00 X304.877 Y85.724
G00 X304.7 Y85.72
G00 X304.526 Y85.72
G00 X304.287 Y85.725
G00 X304.072 Y85.734
G00 X303.877 Y85.746
G00 X303.754 Y85.756
G00 X303.679 Y85.763
G00 X303.529 Y85.779
G00 X303.367 Y85.798
G00 X303.25 Y85.813
G00 X303.051 Y85.843
G00 X302.894 Y85.868
G00 X302.729 Y85.898
G00 X298.879 Y86.63
G00 X298.696 Y86.669
G00 X298.556 Y86.701
G00 X298.412 Y86.736
G00 X298.177 Y86.799
G00 X298.04 Y86.838
G00 X297.856 Y86.893
G00 X297.714 Y86.939
G00 X297.597 Y86.978
G00 X297.397 Y87.05
G00 X297.259 Y87.102
G00 X297.132 Y87.152
G00 X296.919 Y87.24
G00 X296.788 Y87.297
G00 X296.649 Y87.361
G00 X296.513 Y87.426
G00 X296.289 Y87.538
G00 X296.16 Y87.605
G00 X296.031 Y87.675
G00 X295.906 Y87.747
G00 X295.7 Y87.868
G00 X295.578 Y87.943
G00 X295.457 Y88.021
G00 X295.329 Y88.105
G00 X295.122 Y88.247
G00 X295.009 Y88.329
G00 X294.893 Y88.414
G00 X294.782 Y88.5
G00 X294.596 Y88.647
G00 X294.476 Y88.745
G00 X294.361 Y88.843
G00 X294.246 Y88.946
G00 X294.059 Y89.118
G00 X293.959 Y89.214
G00 X293.859 Y89.311
G00 X293.759 Y89.413
G00 X293.597 Y89.584
G00 X293.503 Y89.686
G00 X293.41 Y89.791
G00 X293.312 Y89.905
G00 X293.152 Y90.098
G00 X293.055 Y90.219
G00 X292.968 Y90.333
G00 X292.879 Y90.453
G00 X292.737 Y90.652
G00 X292.666 Y90.756
G00 X292.585 Y90.877
G00 X292.502 Y91.007
G00 X292.366 Y91.228
G00 X292.281 Y91.372
G00 X292.173 Y91.565
G00 X292.082 Y91.738
G00 X292.001 Y91.897
G00 X291.924 Y92.058
G00 X291.816 Y92.294
G00 X291.748 Y92.45
G00 X291.696 Y92.573
G00 X291.648 Y92.694
G00 X291.583 Y92.865
G00 X291.519 Y93.045
G00 X291.461 Y93.214
G00 X291.412 Y93.366
G00 X291.345 Y93.59
G00 X291.283 Y93.811
G00 X291.228 Y94.028
G00 X293.95 Y94.682
G00 X289.824 Y111.855
G00 X282.615 Y126.714
G00 X282.558 Y126.836
G00 X282.519 Y126.925
G00 X282.479 Y127.018
G00 X282.402 Y127.209
G00 X282.365 Y127.306
G00 X282.317 Y127.439
G00 X282.274 Y127.565
G00 X276.967 Y143.877
G00 X276.922 Y144.025
G00 X276.896 Y144.119
G00 X276.87 Y144.216
G00 X276.824 Y144.402
G00 X276.803 Y144.491
G00 X276.783 Y144.586
G00 X276.765 Y144.678
G00 X276.732 Y144.864
G00 X276.717 Y144.958
G00 X276.703 Y145.054
G00 X276.69 Y145.152
G00 X276.668 Y145.356
G00 X276.659 Y145.462
G00 X276.652 Y145.559
G00 X276.648 Y145.631
G00 X276.642 Y145.77
G00 X276.639 Y145.848
G00 X276.637 Y146
G00 X276.638 Y146.08
G00 X276.641 Y146.227
G00 X276.644 Y146.324
G00 X276.65 Y146.43
G00 X276.665 Y146.635
G00 X276.674 Y146.734
G00 X276.692 Y146.891
G00 X276.712 Y147.047
G00 X278.204 Y157.22
G00 X278.227 Y157.364
G00 X278.245 Y157.459
G00 X278.261 Y157.542
G00 X278.295 Y157.705
G00 X278.317 Y157.799
G00 X278.357 Y157.957
G00 X280.541 Y166.203
G00 X278.917 Y172.96
G00 X274.95 Y178.632
G00 X269.011 Y181.453
G00 X260.604 Y181.951
G00 X253.484 Y179.719
G00 X249.395 Y175.019
G00 X246.806 Y166.057
G00 X248.907 Y158.29
G00 X248.924 Y158.221
G00 X248.958 Y158.08
G00 X248.975 Y158.008
G00 X249.005 Y157.87
G00 X249.018 Y157.803
G00 X249.044 Y157.667
G00 X249.056 Y157.599
G00 X250.644 Y147.952
G00 X250.665 Y147.828
G00 X250.681 Y147.732
G00 X250.695 Y147.637
G00 X250.72 Y147.442
G00 X250.73 Y147.342
G00 X250.739 Y147.245
G00 X250.746 Y147.148
G00 X250.757 Y146.954
G00 X250.761 Y146.857
G00 X250.763 Y146.76
G00 X250.763 Y146.665
G00 X250.761 Y146.48
G00 X250.758 Y146.389
G00 X250.754 Y146.292
G00 X250.747 Y146.191
G00 X250.731 Y145.987
G00 X250.721 Y145.884
G00 X250.709 Y145.787
G00 X250.7 Y145.718
G00 X250.68 Y145.582
G00 X250.662 Y145.471
G00 X250.637 Y145.336
G00 X250.598 Y145.148
G00 X250.555 Y144.963
G00 X250.537 Y144.891
G00 X250.497 Y144.743
G00 X250.451 Y144.588
G00 X250.403 Y144.433
G00 X244.609 Y126.955
G00 X244.571 Y126.849
G00 X244.534 Y126.747
G00 X244.497 Y126.65
G00 X244.425 Y126.464
G00 X244.372 Y126.336
G00 X244.321 Y126.219
G00 X244.269 Y126.101
G00 X236.863 Y110.151
G00 X235.439 Y102.26
G00 X235.413 Y102.126
G00 X235.393 Y102.035
G00 X235.377 Y101.965
G00 X235.33 Y101.773
G00 X235.294 Y101.637
G00 X235.276 Y101.568
G00 X235.235 Y101.428
G00 X235.212 Y101.355
G00 X232.706 Y93.537
G00 X232.653 Y93.383
G00 X232.62 Y93.291
G00 X232.588 Y93.208
G00 X232.523 Y93.046
G00 X232.49 Y92.965
G00 X232.451 Y92.876
G00 X232.42 Y92.808
G00 X232.362 Y92.684
G00 X232.324 Y92.607
G00 X232.27 Y92.499
G00 X232.225 Y92.413
G00 X232.177 Y92.328
G00 X232.084 Y92.165
G00 X232.038 Y92.088
G00 X231.987 Y92.005
G00 X231.932 Y91.919
G00 X231.819 Y91.751
G00 X231.762 Y91.668
G00 X231.705 Y91.59
G00 X231.649 Y91.514
G00 X231.53 Y91.36
G00 X231.467 Y91.281
G00 X231.405 Y91.207
G00 X231.347 Y91.14
G00 X231.227 Y91.005
G00 X231.165 Y90.936
G00 X231.103 Y90.871
G00 X231.039 Y90.807
G00 X230.918 Y90.686
G00 X230.86 Y90.63
G00 X230.789 Y90.564
G00 X230.715 Y90.498
G00 X230.565 Y90.367
G00 X230.487 Y90.302
G00 X230.411 Y90.241
G00 X230.335 Y90.182
G00 X230.185 Y90.068
G00 X230.11 Y90.014
G00 X230.03 Y89.958
G00 X229.954 Y89.906
G00 X229.795 Y89.802
G00 X229.713 Y89.751
G00 X229.63 Y89.7
G00 X229.57 Y89.665
G00 X229.45 Y89.596
G00 X229.36 Y89.547
G00 X229.264 Y89.497
G00 X229.177 Y89.453
G00 X229.092 Y89.412
G00 X228.923 Y89.333
G00 X228.839 Y89.295
G00 X228.749 Y89.257
G00 X228.659 Y89.22
G00 X228.478 Y89.15
G00 X228.387 Y89.117
G00 X228.296 Y89.085
G00 X228.202 Y89.055
G00 X228.014 Y88.997
G00 X227.92 Y88.97
G00 X227.825 Y88.944
G00 X227.731 Y88.92
G00 X227.538 Y88.875
G00 X227.439 Y88.854
G00 X227.343 Y88.835
G00 X227.252 Y88.819
G00 X227.066 Y88.789
G00 X226.973 Y88.776
G00 X226.808 Y88.756
G00 X226.671 Y88.742
G00 X226.553 Y88.733
G00 X226.43 Y88.726
G00 X226.243 Y88.718
G00 X226.049 Y88.714
G00 X225.922 Y88.715
G00 X225.74 Y88.72
G00 X225.566 Y88.728
G00 X225.385 Y88.74
G00 X219.585 Y89.244
G00 X219.455 Y89.258
G00 X219.358 Y89.269
G00 X219.288 Y89.278
G00 X219.152 Y89.298
G00 X219.055 Y89.314
G00 X218.947 Y89.334
G00 X218.851 Y89.352
G00 X218.76 Y89.372
G00 X218.576 Y89.414
G00 X218.483 Y89.437
G00 X218.388 Y89.462
G00 X218.293 Y89.489
G00 X218.107 Y89.546
G00 X218.017 Y89.575
G00 X217.925 Y89.607
G00 X217.859 Y89.63
G00 X217.73 Y89.678
G00 X217.619 Y89.722
G00 X217.473 Y89.783
G00 X217.361 Y89.833
G00 X212.494 Y91.918
G00 X200.163 Y92.589
G00 X195.69 Y91.111
G00 X195.098 Y90.511
G00 X195.76 Y90.026
G00 X201.412 Y87.452
G00 X201.542 Y87.389
G00 X201.706 Y87.305
G00 X201.847 Y87.23
G00 X206.497 Y84.666
G00 X206.619 Y84.595
G00 X206.703 Y84.546
G00 X206.791 Y84.491
G00 X206.963 Y84.38
G00 X207.047 Y84.323
G00 X207.127 Y84.267
G00 X207.201 Y84.213
G00 X207.351 Y84.101
G00 X207.427 Y84.043
G00 X207.503 Y83.982
G00 X207.578 Y83.918
G00 X207.725 Y83.792
G00 X207.795 Y83.729
G00 X207.915 Y83.617
G00 X208.014 Y83.522
G00 X208.093 Y83.442
G00 X208.16 Y83.371
G00 X208.226 Y83.3
G00 X208.288 Y83.232
G00 X208.41 Y83.092
G00 X208.471 Y83.02
G00 X208.532 Y82.945
G00 X208.593 Y82.868
G00 X208.711 Y82.713
G00 X208.768 Y82.635
G00 X208.824 Y82.555
G00 X208.879 Y82.475
G00 X208.984 Y82.315
G00 X209.035 Y82.234
G00 X209.086 Y82.151
G00 X209.136 Y82.065
G00 X209.232 Y81.893
G00 X209.278 Y81.807
G00 X209.323 Y81.721
G00 X209.366 Y81.633
G00 X209.452 Y81.451
G00 X209.494 Y81.358
G00 X209.532 Y81.268
G00 X209.568 Y81.18
G00 X209.637 Y81.004
G00 X209.668 Y80.917
G00 X209.701 Y80.826
G00 X209.731 Y80.733
G00 X209.79 Y80.545
G00 X209.818 Y80.45
G00 X209.843 Y80.356
G00 X209.868 Y80.258
G00 X209.914 Y80.065
G00 X209.934 Y79.969
G00 X209.953 Y79.874
G00 X209.97 Y79.784
G00 X210 Y79.599
G00 X210.014 Y79.504
G00 X210.027 Y79.408
G00 X210.035 Y79.337
G00 X210.049 Y79.2
G00 X210.059 Y79.083
G00 X210.067 Y78.937
G00 X210.076 Y78.737
G00 X210.079 Y78.6
G00 X210.079 Y78.482
G00 X210.076 Y78.355
G00 X210.073 Y78.258
G00 X210.068 Y78.161
G00 X210.054 Y77.967
G00 X210.046 Y77.869
G00 X210.036 Y77.772
G00 X210.023 Y77.674
G00 X209.996 Y77.479
G00 X209.981 Y77.382
G00 X209.964 Y77.286
G00 X209.945 Y77.193
G00 X209.906 Y77.007
G00 X209.885 Y76.916
G00 X209.862 Y76.821
G00 X209.835 Y76.723
G00 X209.78 Y76.53
G00 X209.751 Y76.436
G00 X209.721 Y76.343
G00 X209.691 Y76.255
G00 X209.627 Y76.078
G00 X209.593 Y75.99
G00 X209.557 Y75.899
G00 X209.517 Y75.805
G00 X209.434 Y75.618
G00 X209.391 Y75.525
G00 X209.348 Y75.438
G00 X209.308 Y75.359
G00 X209.223 Y75.197
G00 X209.178 Y75.115
G00 X209.129 Y75.03
G00 X209.076 Y74.941
G00 X208.969 Y74.769
G00 X208.915 Y74.686
G00 X208.861 Y74.605
G00 X208.805 Y74.526
G00 X208.69 Y74.366
G00 X208.63 Y74.286
G00 X208.57 Y74.21
G00 X208.51 Y74.135
G00 X208.391 Y73.993
G00 X208.332 Y73.924
G00 X208.267 Y73.852
G00 X208.2 Y73.779
G00 X208.062 Y73.635
G00 X207.991 Y73.563
G00 X207.92 Y73.495
G00 X207.85 Y73.429
G00 X207.706 Y73.298
G00 X207.633 Y73.234
G00 X207.558 Y73.172
G00 X207.485 Y73.112
G00 X207.333 Y72.992
G00 X207.255 Y72.933
G00 X207.176 Y72.875
G00 X207.093 Y72.817
G00 X206.93 Y72.706
G00 X206.85 Y72.654
G00 X206.768 Y72.602
G00 X206.688 Y72.553
G00 X206.524 Y72.458
G00 X206.44 Y72.411
G00 X206.321 Y72.347
G00 X206.19 Y72.28
G00 X206.058 Y72.215
G00 X205.873 Y72.13
G00 X205.762 Y72.082
G00 X205.661 Y72.04
G00 X189.877 Y65.667
G00 X175.466 Y55.852
G00 X151.564 Y38.419
G00 X152.853 Y38.904
G00 X173.575 Y50.331
G00 X187.038 Y58.793
G00 X187.121 Y58.843
G00 X187.193 Y58.885
G00 X187.342 Y58.97
G00 X187.419 Y59.013
G00 X187.514 Y59.062
G00 X187.606 Y59.109
G00 X201.963 Y66.225
G00 X202.097 Y66.287
G00 X202.186 Y66.327
G00 X202.267 Y66.362
G00 X202.432 Y66.431
G00 X202.517 Y66.464
G00 X202.608 Y66.498
G00 X202.705 Y66.533
G00 X202.901 Y66.598
G00 X203 Y66.629
G00 X203.093 Y66.657
G00 X203.178 Y66.68
G00 X203.35 Y66.725
G00 X203.437 Y66.746
G00 X203.557 Y66.773
G00 X203.711 Y66.804
G00 X203.9 Y66.838
G00 X214.728 Y68.643
G00 X214.881 Y68.665
G00 X214.978 Y68.678
G00 X215.076 Y68.688
G00 X215.271 Y68.707
G00 X215.367 Y68.714
G00 X215.464 Y68.72
G00 X215.553 Y68.724
G00 X215.738 Y68.729
G00 X215.834 Y68.73
G00 X215.932 Y68.729
G00 X216.038 Y68.726
G00 X216.242 Y68.717
G00 X216.34 Y68.711
G00 X216.437 Y68.703
G00 X216.527 Y68.695
G00 X216.714 Y68.674
G00 X216.81 Y68.661
G00 X216.906 Y68.647
G00 X216.933 Y68.643
G00 X226.698 Y67.289
G00 X226.858 Y67.264
G00 X227.019 Y67.234
G00 X227.069 Y67.225
G00 X246.424 Y63.602
G00 X274.227 Y64.614
G00 X274.344 Y64.616
G00 X274.472 Y64.617
G00 X274.605 Y64.616
G00 X287.869 Y64.302
G00 X305.748 Y69.078
G00 X305.894 Y69.113
G00 X305.989 Y69.135
G00 X306.081 Y69.154
G00 X306.266 Y69.19
G00 X306.36 Y69.207
G00 X306.456 Y69.222
G00 X306.552 Y69.236
G00 X306.748 Y69.26
G00 X306.847 Y69.27
G00 X306.944 Y69.279
G00 X307.026 Y69.284
G00 X307.191 Y69.294
G00 X307.274 Y69.298
G00 X307.401 Y69.3
G00 X307.517 Y69.301
G00 X307.591 Y69.301
G00 X307.737 Y69.298
G00 X307.834 Y69.295
G00 X307.931 Y69.29
G00 X308.126 Y69.276
G00 X308.224 Y69.268
G00 X308.32 Y69.258
G00 X308.393 Y69.249
G00 X308.53 Y69.231
G00 X308.633 Y69.215
G00 X308.745 Y69.196
G00 X308.909 Y69.166
G00 X309.075 Y69.131
G00 X327.873 Y64.91
G00 X327.99 Y64.881
G00 X328.068 Y64.861
G00 X328.21 Y64.821
G00 X328.303 Y64.793
G00 X328.385 Y64.767
G00 X328.555 Y64.711
G00 X328.643 Y64.68
G00 X328.771 Y64.633
G00 X328.937 Y64.567
G00 X329.074 Y64.509
G00 X329.163 Y64.469
G00 X329.242 Y64.433
G00 X329.399 Y64.358
G00 X329.478 Y64.319
G00 X329.602 Y64.254
G00 X329.725 Y64.187
G00 X346.683 Y54.654
G00 X375.406 Y38.259
G00 X378.277 Y37.089
G00 X353.864 Y53.629
G00 X338.421 Y64.259
G00 X321.427 Y72.206
G00 X321.31 Y72.263
G00 X321.239 Y72.299
G00 X321.154 Y72.343
G00 X320.989 Y72.434
G00 X320.907 Y72.481
G00 X320.783 Y72.554
G00 X320.719 Y72.593
G00 X320.593 Y72.673
G00 X320.5 Y72.734
G00 X320.352 Y72.836
G00 X320.272 Y72.893
G00 X320.193 Y72.953
G00 X320.034 Y73.075
G00 X319.955 Y73.138
G00 X319.881 Y73.201
G00 X319.807 Y73.264
G00 X319.669 Y73.388
G00 X319.603 Y73.449
G00 X319.532 Y73.516
G00 X319.462 Y73.585
G00 X319.322 Y73.728
G00 X319.253 Y73.801
G00 X319.188 Y73.873
G00 X319.125 Y73.943
G00 X318.999 Y74.091
G00 X318.936 Y74.169
G00 X318.875 Y74.245
G00 X318.817 Y74.321
G00 X318.702 Y74.478
G00 X318.644 Y74.559
G00 X318.589 Y74.64
G00 X318.535 Y74.722
G00 X318.434 Y74.881
G00 X318.386 Y74.959
G00 X318.337 Y75.043
G00 X318.286 Y75.132
G00 X318.191 Y75.309
G00 X318.147 Y75.396
G00 X318.103 Y75.483
G00 X318.064 Y75.565
G00 X317.986 Y75.736
G00 X317.947 Y75.824
G00 X317.91 Y75.914
G00 X317.872 Y76.011
G00 X317.802 Y76.199
G00 X317.77 Y76.291
G00 X317.739 Y76.383
G00 X317.71 Y76.474
G00 X317.653 Y76.667
G00 X317.625 Y76.768
G00 X317.601 Y76.862
G00 X317.579 Y76.955
G00 X317.54 Y77.132
G00 X317.523 Y77.217
G00 X317.505 Y77.313
G00 X317.488 Y77.415
G00 X317.458 Y77.619
G00 X317.444 Y77.721
G00 X317.434 Y77.818
G00 X317.425 Y77.909
G00 X317.41 Y78.094
G00 X317.404 Y78.187
G00 X317.4 Y78.285
G00 X317.397 Y78.383
G00 X317.395 Y78.588
G00 X317.396 Y78.694
G00 X317.399 Y78.791
G00 X317.403 Y78.888
G00 X317.415 Y79.072
G00 X317.422 Y79.159
G00 X317.431 Y79.257
G00 X317.441 Y79.353
G00 X317.467 Y79.549
G00 X317.482 Y79.65
G00 X317.498 Y79.746
G00 X317.515 Y79.842
G00 X317.554 Y80.034
G00 X317.576 Y80.131
G00 X317.598 Y80.226
G00 X317.623 Y80.322
G00 X317.675 Y80.509
G00 X317.702 Y80.6
G00 X317.731 Y80.693
G00 X317.761 Y80.784
G00 X317.825 Y80.967
G00 X317.86 Y81.059
G00 X317.895 Y81.149
G00 X317.933 Y81.241
G00 X318.011 Y81.421
G00 X318.051 Y81.509
G00 X318.093 Y81.597
G00 X318.136 Y81.683
G00 X318.224 Y81.853
G00 X318.269 Y81.937
G00 X318.317 Y82.022
G00 X318.369 Y82.111
G00 X318.476 Y82.286
G00 X318.531 Y82.372
G00 X318.584 Y82.453
G00 X318.634 Y82.526
G00 X318.739 Y82.674
G00 X318.794 Y82.749
G00 X318.853 Y82.826
G00 X318.914 Y82.904
G00 X319.041 Y83.059
G00 X319.107 Y83.137
G00 X319.171 Y83.21
G00 X319.238 Y83.283
G00 X319.37 Y83.424
G00 X319.436 Y83.491
G00 X319.505 Y83.559
G00 X319.577 Y83.628
G00 X319.724 Y83.764
G00 X319.799 Y83.83
G00 X319.873 Y83.893
G00 X319.947 Y83.955
G00 X320.097 Y84.075
G00 X320.174 Y84.135
G00 X320.307 Y84.232
G00 X320.419 Y84.312
G00 X320.509 Y84.373
G00 X320.596 Y84.429
G00 X320.744 Y84.522
G00 X320.886 Y84.608
G00 X327.853 Y88.642
G00 X327.913 Y88.676
G00 X328.04 Y88.746
G00 X328.107 Y88.781
G00 X328.234 Y88.846
G00 X328.296 Y88.877
G00 X328.423 Y88.938
G00 X328.487 Y88.968
G00 X331.196 Y90.187
G00 X330.471 Y90.719
G00 X321.113 Y92.982
G00 X311.079 Y90.813
G00 X307.625 Y89.192
G00 X307.49 Y89.133
G00 X307.355 Y89.076
G00 X307.219 Y89.021
G00 X307.09 Y88.972
G00 X306.949 Y88.92
G00 X306.857 Y88.889
G00 X306.765 Y88.858
G00 X306.582 Y88.802
G00 X306.492 Y88.776
G00 X306.398 Y88.751
G00 X306.304 Y88.727
G00 X306.118 Y88.683
G00 X306.024 Y88.663
G00 X305.866 Y88.633
G00 X305.731 Y88.609
G00 X305.612 Y88.591
G00 X305.518 Y88.579
G00 X305.358 Y88.56
G00 X305.221 Y88.546
G00 X305.109 Y88.537
G00 X304.998 Y88.531
G00 X304.811 Y88.523
G00 X304.683 Y88.52
G00 X304.576 Y88.519
G00 X304.402 Y88.522
G00 X304.237 Y88.529
G00 X304.099 Y88.537
G00 X303.976 Y88.547
G00 X303.853 Y88.56
G00 X303.722 Y88.576
G00 X303.648 Y88.585
G00 X303.492 Y88.607
G00 X303.396 Y88.623
G00 X303.251 Y88.649
G00 X299.453 Y89.371
G00 X299.311 Y89.401
G00 X299.216 Y89.422
G00 X299.121 Y89.445
G00 X298.937 Y89.493
G00 X298.846 Y89.519
G00 X298.708 Y89.561
G00 X298.603 Y89.594
G00 X298.53 Y89.618
G00 X298.378 Y89.672
G00 X298.286 Y89.707
G00 X298.2 Y89.741
G00 X298.027 Y89.812
G00 X297.942 Y89.849
G00 X297.853 Y89.889
G00 X297.76 Y89.933
G00 X297.58 Y90.023
G00 X297.493 Y90.068
G00 X297.408 Y90.114
G00 X297.324 Y90.161
G00 X297.158 Y90.259
G00 X297.077 Y90.308
G00 X296.994 Y90.361
G00 X296.911 Y90.415
G00 X296.749 Y90.526
G00 X296.67 Y90.583
G00 X296.591 Y90.641
G00 X296.517 Y90.697
G00 X296.366 Y90.817
G00 X296.288 Y90.88
G00 X296.214 Y90.943
G00 X296.136 Y91.011
G00 X295.989 Y91.147
G00 X295.919 Y91.213
G00 X295.849 Y91.281
G00 X295.784 Y91.347
G00 X295.656 Y91.482
G00 X295.592 Y91.551
G00 X295.527 Y91.623
G00 X295.464 Y91.696
G00 X295.336 Y91.85
G00 X295.272 Y91.93
G00 X295.212 Y92.007
G00 X295.154 Y92.086
G00 X295.044 Y92.239
G00 X294.992 Y92.314
G00 X294.938 Y92.395
G00 X294.883 Y92.48
G00 X294.775 Y92.655
G00 X294.722 Y92.744
G00 X294.641 Y92.888
G00 X294.576 Y93.01
G00 X294.524 Y93.111
G00 X294.467 Y93.229
G00 X294.382 Y93.415
G00 X294.325 Y93.544
G00 X294.297 Y93.611
G00 X294.265 Y93.692
G00 X294.215 Y93.823
G00 X294.167 Y93.955
G00 X294.123 Y94.082
G00 X294.092 Y94.177
G00 X294.04 Y94.348
G00 X293.994 Y94.513
G00 X293.95 Y94.682
G00 X296.673 Y95.336
G00 X292.476 Y112.803
G00 X285.153 Y127.897
G00 X285.115 Y127.978
G00 X285.075 Y128.067
G00 X284.998 Y128.257
G00 X284.966 Y128.346
G00 X284.937 Y128.431
G00 X279.644 Y144.7
G00 X279.614 Y144.796
G00 X279.588 Y144.889
G00 X279.542 Y145.075
G00 X279.521 Y145.17
G00 X279.488 Y145.356
G00 X279.474 Y145.453
G00 X279.452 Y145.657
G00 X279.445 Y145.754
G00 X279.439 Y145.893
G00 X279.438 Y146
G00 X279.438 Y146.032
G00 X279.439 Y146.129
G00 X279.443 Y146.226
G00 X279.458 Y146.431
G00 X279.469 Y146.537
G00 X279.482 Y146.641
G00 X280.968 Y156.773
G00 X280.983 Y156.865
G00 X281 Y156.961
G00 X281.035 Y157.124
G00 X281.063 Y157.24
G00 X283.429 Y166.17
G00 X281.515 Y174.13
G00 X276.821 Y180.844
G00 X269.721 Y184.216
G00 X260.256 Y184.776
G00 X251.891 Y182.154
G00 X246.877 Y176.39
G00 X243.899 Y166.082
G00 X246.204 Y157.559
G00 X246.238 Y157.418
G00 X246.268 Y157.28
G00 X246.293 Y157.144
G00 X247.887 Y147.465
G00 X247.901 Y147.381
G00 X247.917 Y147.284
G00 X247.942 Y147.089
G00 X247.951 Y146.992
G00 X247.961 Y146.798
G00 X247.963 Y146.701
G00 X247.961 Y146.516
G00 X247.957 Y146.418
G00 X247.94 Y146.215
G00 X247.929 Y146.118
G00 X247.909 Y145.982
G00 X247.892 Y145.892
G00 X247.867 Y145.765
G00 X247.839 Y145.642
G00 X247.832 Y145.616
G00 X247.806 Y145.519
G00 X247.777 Y145.418
G00 X247.745 Y145.314
G00 X241.965 Y127.877
G00 X241.939 Y127.803
G00 X241.914 Y127.734
G00 X241.889 Y127.669
G00 X241.831 Y127.52
G00 X241.798 Y127.438
G00 X241.763 Y127.358
G00 X241.729 Y127.281
G00 X234.172 Y111.004
G00 X232.69 Y102.794
G00 X232.674 Y102.709
G00 X232.654 Y102.618
G00 X232.623 Y102.487
G00 X232.587 Y102.35
G00 X232.546 Y102.21
G00 X230.055 Y94.439
G00 X230.021 Y94.338
G00 X229.988 Y94.247
G00 X229.923 Y94.084
G00 X229.884 Y93.994
G00 X229.825 Y93.87
G00 X229.793 Y93.806
G00 X229.748 Y93.72
G00 X229.655 Y93.557
G00 X229.603 Y93.474
G00 X229.491 Y93.306
G00 X229.434 Y93.227
G00 X229.315 Y93.073
G00 X229.253 Y92.998
G00 X229.133 Y92.863
G00 X229.071 Y92.798
G00 X228.949 Y92.677
G00 X228.878 Y92.611
G00 X228.727 Y92.48
G00 X228.651 Y92.419
G00 X228.501 Y92.305
G00 X228.421 Y92.249
G00 X228.263 Y92.146
G00 X228.179 Y92.095
G00 X228.06 Y92.027
G00 X227.996 Y91.994
G00 X227.91 Y91.95
G00 X227.74 Y91.871
G00 X227.651 Y91.832
G00 X227.47 Y91.763
G00 X227.378 Y91.731
G00 X227.19 Y91.673
G00 X227.096 Y91.647
G00 X226.903 Y91.602
G00 X226.807 Y91.584
G00 X226.622 Y91.554
G00 X226.525 Y91.542
G00 X226.388 Y91.528
G00 X226.302 Y91.523
G00 X226.177 Y91.517
G00 X226.049 Y91.514
G00 X225.99 Y91.514
G00 X225.865 Y91.517
G00 X225.744 Y91.523
G00 X225.627 Y91.53
G00 X219.874 Y92.029
G00 X219.785 Y92.038
G00 X219.688 Y92.05
G00 X219.552 Y92.069
G00 X219.483 Y92.082
G00 X219.387 Y92.101
G00 X219.203 Y92.143
G00 X219.109 Y92.168
G00 X218.923 Y92.225
G00 X218.831 Y92.256
G00 X218.702 Y92.304
G00 X218.605 Y92.344
G00 X218.489 Y92.396
G00 X213.14 Y94.688
G00 X199.787 Y95.414
G00 X194.173 Y93.558
G00 X191.271 Y90.624
G00 X191.356 Y89.778
G00 X194.34 Y87.596
G00 X200.19 Y84.933
G00 X200.28 Y84.889
G00 X200.393 Y84.832
G00 X200.495 Y84.778
G00 X205.107 Y82.235
G00 X205.187 Y82.189
G00 X205.271 Y82.139
G00 X205.443 Y82.028
G00 X205.523 Y81.972
G00 X205.673 Y81.86
G00 X205.749 Y81.799
G00 X205.895 Y81.673
G00 X205.966 Y81.607
G00 X206.065 Y81.511
G00 X206.113 Y81.461
G00 X206.179 Y81.39
G00 X206.302 Y81.25
G00 X206.363 Y81.174
G00 X206.481 Y81.019
G00 X206.537 Y80.939
G00 X206.643 Y80.779
G00 X206.693 Y80.696
G00 X206.789 Y80.524
G00 X206.834 Y80.438
G00 X206.92 Y80.256
G00 X206.958 Y80.167
G00 X207.026 Y79.991
G00 X207.058 Y79.899
G00 X207.117 Y79.711
G00 X207.143 Y79.617
G00 X207.188 Y79.424
G00 X207.207 Y79.329
G00 X207.237 Y79.144
G00 X207.25 Y79.047
G00 X207.264 Y78.91
G00 X207.27 Y78.812
G00 X207.276 Y78.675
G00 X207.279 Y78.538
G00 X207.278 Y78.453
G00 X207.274 Y78.356
G00 X207.261 Y78.161
G00 X207.251 Y78.064
G00 X207.223 Y77.869
G00 X207.206 Y77.773
G00 X207.167 Y77.588
G00 X207.144 Y77.494
G00 X207.088 Y77.301
G00 X207.058 Y77.208
G00 X206.994 Y77.031
G00 X206.958 Y76.941
G00 X206.875 Y76.754
G00 X206.832 Y76.667
G00 X206.747 Y76.505
G00 X206.699 Y76.42
G00 X206.591 Y76.248
G00 X206.537 Y76.168
G00 X206.422 Y76.008
G00 X206.362 Y75.931
G00 X206.243 Y75.789
G00 X206.178 Y75.716
G00 X206.04 Y75.572
G00 X205.97 Y75.504
G00 X205.826 Y75.374
G00 X205.752 Y75.311
G00 X205.6 Y75.191
G00 X205.521 Y75.134
G00 X205.358 Y75.023
G00 X205.276 Y74.971
G00 X205.112 Y74.876
G00 X205.034 Y74.833
G00 X204.948 Y74.789
G00 X204.876 Y74.753
G00 X204.753 Y74.696
G00 X204.684 Y74.666
G00 X204.613 Y74.636
G00 X188.549 Y68.151
G00 X173.848 Y58.137
G00 X144.627 Y36.825
G00 X144.569 Y36.784
G00 X144.484 Y36.725
G00 X144.403 Y36.672
G00 X144.321 Y36.619
G00 X144.156 Y36.521
G00 X144.07 Y36.474
G00 X143.895 Y36.386
G00 X143.807 Y36.345
G00 X143.766 Y36.328
G00 X131.365 Y30.623
G00 X131.299 Y30.594
G00 X131.208 Y30.555
G00 X131.117 Y30.517
G00 X131.026 Y30.482
G00 X130.843 Y30.419
G00 X130.75 Y30.39
G00 X130.608 Y30.349
G00 X130.5 Y30.323
G00 X117.115 Y27.22
G00 X117.032 Y27.202
G00 X117 Y27.195
G00 X116.899 Y27.177
G00 X116.802 Y27.161
G00 X116.615 Y27.137
G00 X116.513 Y27.128
G00 X116.407 Y27.12
G00 X116.29 Y27.114
G00 X116.215 Y27.111
G00 X116.143 Y27.109
G00 X116.074 Y27.107
G00 X104.253 Y27.066
G00 X104.558 Y26.601
G00 X109.633 Y25.201
G00 X117.005 Y25.213
G00 X131.888 Y28.023
G00 X154.028 Y36.354
G00 X174.999 Y47.919
G00 X188.493 Y56.4
G00 X188.576 Y56.451
G00 X188.725 Y56.536
G00 X188.788 Y56.568
G00 X188.85 Y56.6
G00 X203.153 Y63.69
G00 X203.247 Y63.734
G00 X203.336 Y63.774
G00 X203.501 Y63.843
G00 X203.592 Y63.877
G00 X203.788 Y63.942
G00 X203.882 Y63.97
G00 X204.054 Y64.015
G00 X204.13 Y64.032
G00 X204.219 Y64.05
G00 X204.361 Y64.077
G00 X215.141 Y65.873
G00 X215.241 Y65.888
G00 X215.338 Y65.901
G00 X215.533 Y65.919
G00 X215.63 Y65.925
G00 X215.815 Y65.93
G00 X215.912 Y65.929
G00 X216.117 Y65.92
G00 X216.214 Y65.912
G00 X216.4 Y65.891
G00 X216.496 Y65.877
G00 X216.511 Y65.874
G00 X226.269 Y64.522
G00 X226.371 Y64.506
G00 X226.467 Y64.489
G00 X226.531 Y64.476
G00 X246.214 Y60.793
G00 X274.287 Y61.815
G00 X274.366 Y61.817
G00 X274.45 Y61.817
G00 X274.539 Y61.817
G00 X288.205 Y61.493
G00 X306.419 Y66.359
G00 X306.518 Y66.384
G00 X306.612 Y66.405
G00 X306.798 Y66.441
G00 X306.894 Y66.456
G00 X307.09 Y66.481
G00 X307.187 Y66.489
G00 X307.352 Y66.498
G00 X307.425 Y66.5
G00 X307.503 Y66.502
G00 X307.542 Y66.502
G00 X307.639 Y66.5
G00 X307.737 Y66.496
G00 X307.931 Y66.483
G00 X308.028 Y66.473
G00 X308.165 Y66.455
G00 X308.24 Y66.442
G00 X308.353 Y66.421
G00 X308.462 Y66.399
G00 X327.202 Y62.191
G00 X327.292 Y62.169
G00 X327.318 Y62.163
G00 X327.412 Y62.137
G00 X327.506 Y62.109
G00 X327.676 Y62.053
G00 X327.75 Y62.025
G00 X327.823 Y61.997
G00 X327.855 Y61.984
G00 X327.945 Y61.947
G00 X328.034 Y61.907
G00 X328.191 Y61.832
G00 X328.268 Y61.792
G00 X328.353 Y61.746
G00 X345.295 Y52.223
G00 X374.179 Y35.735
G00 X388.984 Y29.703
G00 X404.795 Y26.182
G00 X414.172 Y25.464
G00 X422.2 Y26.505
G00 X422.771 Y27.136
G00 X418.237 Y27.515
G00 X410.968 Y27.063
G00 X410.872 Y27.059
G00 X410.774 Y27.056
G00 X410.58 Y27.058
G00 X410.482 Y27.062
G00 X410.366 Y27.071
G00 X410.329 Y27.073
G00 X410.246 Y27.08
G00 X410.15 Y27.09
G00 X409.955 Y27.118
G00 X409.859 Y27.135
G00 X409.724 Y27.162
G00 X409.646 Y27.181
G00 X409.523 Y27.213
G00 X409.397 Y27.248
G00 X388.684 Y33.644
G00 X388.584 Y33.678
G00 X388.492 Y33.71
G00 X388.328 Y33.773
G00 X388.239 Y33.811
G00 X388.072 Y33.888
G00 X388.002 Y33.923
G00 X387.895 Y33.98
G00 X387.81 Y34.028
G00 X387.663 Y34.115
G00 X387.602 Y34.155
G00 X387.542 Y34.194
G00 X355.452 Y55.935
G00 X339.818 Y66.697
G00 X322.648 Y74.726
G00 X322.572 Y74.763
G00 X322.5 Y74.799
G00 X322.335 Y74.89
G00 X322.21 Y74.963
G00 X322.084 Y75.043
G00 X322.065 Y75.056
G00 X321.985 Y75.111
G00 X321.906 Y75.168
G00 X321.747 Y75.29
G00 X321.672 Y75.353
G00 X321.533 Y75.477
G00 X321.463 Y75.544
G00 X321.323 Y75.686
G00 X321.258 Y75.758
G00 X321.132 Y75.906
G00 X321.071 Y75.983
G00 X320.956 Y76.14
G00 X320.901 Y76.22
G00 X320.799 Y76.38
G00 X320.75 Y76.464
G00 X320.655 Y76.64
G00 X320.611 Y76.727
G00 X320.534 Y76.898
G00 X320.496 Y76.988
G00 X320.426 Y77.176
G00 X320.395 Y77.268
G00 X320.338 Y77.461
G00 X320.314 Y77.555
G00 X320.275 Y77.732
G00 X320.258 Y77.828
G00 X320.227 Y78.033
G00 X320.216 Y78.129
G00 X320.202 Y78.314
G00 X320.197 Y78.411
G00 X320.195 Y78.616
G00 X320.198 Y78.713
G00 X320.209 Y78.897
G00 X320.219 Y78.994
G00 X320.244 Y79.191
G00 X320.26 Y79.287
G00 X320.299 Y79.48
G00 X320.322 Y79.575
G00 X320.373 Y79.762
G00 X320.402 Y79.854
G00 X320.467 Y80.037
G00 X320.502 Y80.128
G00 X320.58 Y80.308
G00 X320.622 Y80.396
G00 X320.71 Y80.566
G00 X320.758 Y80.651
G00 X320.865 Y80.826
G00 X320.919 Y80.907
G00 X321.023 Y81.055
G00 X321.082 Y81.132
G00 X321.209 Y81.288
G00 X321.274 Y81.361
G00 X321.406 Y81.501
G00 X321.475 Y81.569
G00 X321.622 Y81.705
G00 X321.696 Y81.768
G00 X321.847 Y81.889
G00 X321.925 Y81.947
G00 X322.037 Y82.027
G00 X322.097 Y82.065
G00 X322.192 Y82.126
G00 X322.29 Y82.185
G00 X329.256 Y86.219
G00 X329.383 Y86.289
G00 X329.51 Y86.354
G00 X329.637 Y86.415
G00 X335.891 Y89.23
G00 X336.372 Y89.861
G00 X331.676 Y93.309
G00 X321.148 Y95.854
G00 X310.176 Y93.483
G00 X306.486 Y91.75
G00 X306.393 Y91.709
G00 X306.302 Y91.67
G00 X306.211 Y91.633
G00 X306.127 Y91.601
G00 X306.035 Y91.567
G00 X305.943 Y91.535
G00 X305.76 Y91.479
G00 X305.666 Y91.453
G00 X305.479 Y91.41
G00 X305.384 Y91.391
G00 X305.248 Y91.367
G00 X305.178 Y91.358
G00 X305.082 Y91.346
G00 X304.945 Y91.333
G00 X304.87 Y91.328
G00 X304.745 Y91.322
G00 X304.616 Y91.319
G00 X304.597 Y91.319
G00 X304.499 Y91.321
G00 X304.402 Y91.324
G00 X304.265 Y91.333
G00 X304.176 Y91.342
G00 X304.045 Y91.357
G00 X303.889 Y91.379
G00 X303.774 Y91.4
G00 X300.018 Y92.114
G00 X299.926 Y92.132
G00 X299.831 Y92.154
G00 X299.646 Y92.202
G00 X299.56 Y92.228
G00 X299.474 Y92.255
G00 X299.455 Y92.262
G00 X299.359 Y92.295
G00 X299.267 Y92.329
G00 X299.095 Y92.4
G00 X299.007 Y92.44
G00 X298.827 Y92.53
G00 X298.741 Y92.576
G00 X298.576 Y92.673
G00 X298.493 Y92.726
G00 X298.331 Y92.837
G00 X298.252 Y92.895
G00 X298.101 Y93.014
G00 X298.027 Y93.077
G00 X297.879 Y93.212
G00 X297.81 Y93.28
G00 X297.681 Y93.415
G00 X297.616 Y93.488
G00 X297.489 Y93.641
G00 X297.429 Y93.718
G00 X297.319 Y93.872
G00 X297.265 Y93.953
G00 X297.157 Y94.127
G00 X297.109 Y94.212
G00 X297.044 Y94.333
G00 X297.005 Y94.412
G00 X296.947 Y94.536
G00 X296.891 Y94.665
G00 X296.878 Y94.698
G00 X296.844 Y94.787
G00 X296.811 Y94.875
G00 X296.782 Y94.961
G00 X296.769 Y95
G00 X296.734 Y95.113
G00 X296.702 Y95.225
G00 X296.673 Y95.336
G00 X299.395 Y95.99
G00 X295.148 Y113.666
G00 X295.13 Y113.729
G00 X295.103 Y113.797
G00 X295.083 Y113.843
G00 X287.672 Y129.12
G00 X287.632 Y129.208
G00 X287.6 Y129.298
G00 X282.307 Y145.566
G00 X282.28 Y145.66
G00 X282.26 Y145.755
G00 X282.246 Y145.852
G00 X282.239 Y145.949
G00 X282.238 Y146
G00 X282.238 Y146.032
G00 X282.241 Y146.129
G00 X282.253 Y146.235
G00 X283.738 Y156.367
G00 X283.756 Y156.463
G00 X283.77 Y156.523
G00 X286.272 Y165.965
G00 X286.289 Y166.05
G00 X286.297 Y166.096
G00 X286.298 Y166.116
G00 X286.295 Y166.18
G00 X286.29 Y166.239
G00 X286.279 Y166.297
G00 X284.147 Y175.164
G00 X284.127 Y175.232
G00 X284.107 Y175.284
G00 X284.083 Y175.337
G00 X284.062 Y175.373
G00 X284.044 Y175.401
G00 X278.797 Y182.903
G00 X278.736 Y182.981
G00 X278.715 Y183.006
G00 X278.684 Y183.034
G00 X278.656 Y183.057
G00 X278.631 Y183.072
G00 X278.514 Y183.14
G00 X270.539 Y186.928
G00 X270.484 Y186.952
G00 X270.446 Y186.963
G00 X270.38 Y186.979
G00 X270.355 Y186.984
G00 X260.029 Y187.595
G00 X259.965 Y187.598
G00 X259.921 Y187.594
G00 X259.888 Y187.59
G00 X259.784 Y187.563
G00 X250.452 Y184.638
G00 X250.397 Y184.618
G00 X250.367 Y184.605
G00 X250.334 Y184.586
G00 X250.283 Y184.551
G00 X250.253 Y184.528
G00 X250.216 Y184.493
G00 X250.182 Y184.456
G00 X244.443 Y177.858
G00 X244.415 Y177.824
G00 X244.396 Y177.793
G00 X244.351 Y177.715
G00 X244.343 Y177.698
G00 X244.318 Y177.622
G00 X241.043 Y166.284
G00 X241.023 Y166.206
G00 X241.016 Y166.164
G00 X241.013 Y166.122
G00 X241.013 Y166.075
G00 X241.014 Y166.063
G00 X241.034 Y165.967
G00 X241.043 Y165.916
G00 X243.501 Y156.828
G00 X243.53 Y156.69
G00 X245.129 Y146.975
G00 X245.137 Y146.933
G00 X245.153 Y146.837
G00 X245.162 Y146.74
G00 X245.164 Y146.642
G00 X245.159 Y146.545
G00 X245.148 Y146.448
G00 X245.122 Y146.321
G00 X245.116 Y146.296
G00 X245.087 Y146.195
G00 X239.307 Y128.758
G00 X239.282 Y128.689
G00 X239.223 Y128.54
G00 X239.189 Y128.46
G00 X231.523 Y111.95
G00 X231.494 Y111.879
G00 X231.479 Y111.835
G00 X231.463 Y111.758
G00 X229.935 Y103.291
G00 X229.915 Y103.201
G00 X229.88 Y103.064
G00 X227.389 Y95.293
G00 X227.355 Y95.202
G00 X227.316 Y95.113
G00 X227.271 Y95.026
G00 X227.22 Y94.944
G00 X227.163 Y94.865
G00 X227.101 Y94.79
G00 X227.045 Y94.731
G00 X227.039 Y94.724
G00 X226.968 Y94.658
G00 X226.892 Y94.597
G00 X226.812 Y94.541
G00 X226.729 Y94.49
G00 X226.642 Y94.446
G00 X226.552 Y94.408
G00 X226.461 Y94.376
G00 X226.366 Y94.351
G00 X226.271 Y94.332
G00 X226.174 Y94.32
G00 X226.049 Y94.314
G00 X225.99 Y94.314
G00 X225.87 Y94.32
G00 X220.116 Y94.819
G00 X220.019 Y94.83
G00 X219.923 Y94.849
G00 X219.829 Y94.874
G00 X219.737 Y94.906
G00 X219.606 Y94.964
G00 X213.926 Y97.398
G00 X213.842 Y97.427
G00 X213.788 Y97.443
G00 X213.746 Y97.452
G00 X213.643 Y97.465
G00 X199.544 Y98.232
G00 X199.482 Y98.232
G00 X199.405 Y98.226
G00 X199.368 Y98.221
G00 X199.332 Y98.212
G00 X199.293 Y98.2
G00 X192.811 Y96.057
G00 X192.737 Y96.028
G00 X192.704 Y96.013
G00 X192.597 Y95.947
G00 X192.555 Y95.905
G00 X188.55 Y91.855
G00 X188.497 Y91.799
G00 X188.478 Y91.773
G00 X188.448 Y91.727
G00 X188.42 Y91.674
G00 X188.414 Y91.663
G00 X188.396 Y91.603
G00 X188.379 Y91.546
G00 X188.376 Y91.525
G00 X188.372 Y91.482
G00 X188.372 Y91.455
G00 X188.379 Y91.398
G00 X188.669 Y88.508
G00 X188.679 Y88.433
G00 X188.683 Y88.415
G00 X188.696 Y88.375
G00 X188.716 Y88.326
G00 X188.735 Y88.289
G00 X188.764 Y88.241
G00 X188.786 Y88.209
G00 X188.794 Y88.2
G00 X188.836 Y88.16
G00 X188.924 Y88.087
G00 X192.861 Y85.209
G00 X192.913 Y85.172
G00 X192.945 Y85.155
G00 X198.982 Y82.406
G00 X199.028 Y82.384
G00 X199.093 Y82.352
G00 X199.143 Y82.326
G00 X203.755 Y79.783
G00 X203.839 Y79.733
G00 X203.919 Y79.677
G00 X203.994 Y79.616
G00 X204.066 Y79.55
G00 X204.132 Y79.479
G00 X204.194 Y79.404
G00 X204.25 Y79.324
G00 X204.301 Y79.241
G00 X204.345 Y79.154
G00 X204.384 Y79.065
G00 X204.416 Y78.973
G00 X204.442 Y78.879
G00 X204.46 Y78.783
G00 X204.473 Y78.687
G00 X204.479 Y78.557
G00 X204.479 Y78.55
G00 X204.476 Y78.453
G00 X204.466 Y78.356
G00 X204.449 Y78.26
G00 X204.425 Y78.166
G00 X204.395 Y78.073
G00 X204.359 Y77.983
G00 X204.316 Y77.895
G00 X204.268 Y77.811
G00 X204.214 Y77.73
G00 X204.154 Y77.653
G00 X204.089 Y77.581
G00 X204.019 Y77.513
G00 X203.945 Y77.45
G00 X203.866 Y77.392
G00 X203.784 Y77.341
G00 X203.705 Y77.298
G00 X203.692 Y77.292
G00 X203.676 Y77.284
G00 X203.633 Y77.263
G00 X203.564 Y77.233
G00 X187.303 Y70.667
G00 X187.244 Y70.642
G00 X187.19 Y70.61
G00 X187.159 Y70.591
G00 X172.23 Y60.423
G00 X142.977 Y39.088
G00 X142.893 Y39.029
G00 X142.811 Y38.977
G00 X142.725 Y38.93
G00 X142.637 Y38.89
G00 X142.618 Y38.882
G00 X130.195 Y33.167
G00 X130.104 Y33.128
G00 X130.013 Y33.093
G00 X129.92 Y33.064
G00 X129.868 Y33.051
G00 X116.483 Y29.947
G00 X116.451 Y29.941
G00 X116.355 Y29.925
G00 X116.253 Y29.916
G00 X116.136 Y29.91
G00 X116.064 Y29.907
G00 X102.977 Y29.862
G00 X102.907 Y29.859
G00 X102.859 Y29.853
G00 X102.823 Y29.846
G00 X102.783 Y29.834
G00 X102.749 Y29.82
G00 X102.696 Y29.793
G00 X102.649 Y29.767
G00 X102.622 Y29.748
G00 X102.593 Y29.723
G00 X102.568 Y29.698
G00 X102.514 Y29.635
G00 X102.484 Y29.597
G00 X101.041 Y27.58
G00 X100.994 Y27.505
G00 X100.966 Y27.455
G00 X100.953 Y27.425
G00 X100.94 Y27.387
G00 X100.928 Y27.342
G00 X100.916 Y27.269
G00 X100.912 Y27.233
G00 X100.912 Y27.214
G00 X100.915 Y27.174
G00 X100.929 Y27.09
G00 X100.935 Y27.063
G00 X100.939 Y27.052
G00 X100.969 Y26.982
G00 X100.999 Y26.923
G00 X101.014 Y26.897
G00 X102.678 Y24.363
G00 X102.706 Y24.323
G00 X102.733 Y24.293
G00 X102.774 Y24.252
G00 X102.811 Y24.221
G00 X102.844 Y24.196
G00 X102.869 Y24.182
G00 X102.923 Y24.155
G00 X102.969 Y24.137
G00 X103.021 Y24.12
G00 X109.17 Y22.424
G00 X109.22 Y22.411
G00 X109.244 Y22.408
G00 X109.371 Y22.4
G00 X117.176 Y22.413
G00 X117.252 Y22.416
G00 X117.353 Y22.429
G00 X132.562 Y25.3
G00 X132.636 Y25.319
G00 X132.734 Y25.349
G00 X155.125 Y33.776
G00 X155.217 Y33.818
G00 X155.277 Y33.846
G00 X176.4 Y45.494
G00 X176.464 Y45.532
G00 X189.943 Y54.005
G00 X189.948 Y54.008
G00 X190.031 Y54.058
G00 X190.094 Y54.091
G00 X204.397 Y61.182
G00 X204.486 Y61.221
G00 X204.577 Y61.256
G00 X204.67 Y61.283
G00 X204.747 Y61.3
G00 X204.821 Y61.315
G00 X215.602 Y63.111
G00 X215.698 Y63.124
G00 X215.795 Y63.13
G00 X215.893 Y63.129
G00 X215.99 Y63.121
G00 X216.086 Y63.107
G00 X216.091 Y63.106
G00 X225.884 Y61.748
G00 X225.98 Y61.732
G00 X226.01 Y61.725
G00 X245.9 Y58.003
G00 X245.981 Y57.993
G00 X246.054 Y57.986
G00 X246.089 Y57.986
G00 X274.389 Y59.017
G00 X274.473 Y59.017
G00 X288.423 Y58.687
G00 X288.501 Y58.691
G00 X288.553 Y58.695
G00 X288.66 Y58.716
G00 X307.141 Y63.654
G00 X307.236 Y63.676
G00 X307.332 Y63.691
G00 X307.43 Y63.699
G00 X307.503 Y63.701
G00 X307.542 Y63.701
G00 X307.639 Y63.698
G00 X307.736 Y63.688
G00 X307.849 Y63.667
G00 X326.588 Y59.459
G00 X326.615 Y59.453
G00 X326.708 Y59.425
G00 X326.783 Y59.397
G00 X326.815 Y59.384
G00 X326.904 Y59.345
G00 X326.981 Y59.305
G00 X343.907 Y49.791
G00 X372.908 Y33.236
G00 X372.978 Y33.201
G00 X373.025 Y33.181
G00 X388.066 Y27.054
G00 X388.146 Y27.026
G00 X388.228 Y27.003
G00 X404.321 Y23.419
G00 X404.398 Y23.406
G00 X404.452 Y23.4
G00 X414.148 Y22.657
G00 X414.22 Y22.654
G00 X414.294 Y22.657
G00 X414.318 Y22.659
G00 X423.34 Y23.829
G00 X423.408 Y23.843
G00 X423.474 Y23.86
G00 X423.521 Y23.876
G00 X423.565 Y23.896
G00 X423.598 Y23.912
G00 X423.613 Y23.923
G00 X423.669 Y23.967
G00 X423.726 Y24.017
G00 X423.748 Y24.04
G00 X425.923 Y26.45
G00 X425.962 Y26.499
G00 X426.006 Y26.562
G00 X426.023 Y26.589
G00 X426.038 Y26.622
G00 X426.06 Y26.68
G00 X426.072 Y26.718
G00 X426.08 Y26.754
G00 X426.086 Y26.802
G00 X426.087 Y26.843
G00 X426.085 Y26.896
G00 X426.08 Y26.932
G00 X426.073 Y26.967
G00 X426.062 Y27.006
G00 X426.04 Y27.06
G00 X426.02 Y27.104
G00 X424.795 Y29.502
G00 X424.765 Y29.557
G00 X424.741 Y29.592
G00 X424.712 Y29.628
G00 X424.681 Y29.661
G00 X424.642 Y29.696
G00 X424.615 Y29.717
G00 X424.58 Y29.739
G00 X424.537 Y29.763
G00 X424.505 Y29.776
G00 X424.445 Y29.797
G00 X424.426 Y29.801
G00 X424.311 Y29.818
G00 X418.314 Y30.318
G00 X418.245 Y30.321
G00 X418.202 Y30.319
G00 X410.794 Y29.858
G00 X410.697 Y29.855
G00 X410.599 Y29.859
G00 X410.552 Y29.865
G00 X410.539 Y29.865
G00 X410.442 Y29.875
G00 X410.346 Y29.892
G00 X410.223 Y29.924
G00 X389.51 Y36.32
G00 X389.419 Y36.352
G00 X389.329 Y36.39
G00 X389.284 Y36.412
G00 X389.259 Y36.425
G00 X389.174 Y36.473
G00 X389.112 Y36.512
G00 X357.04 Y58.242
G00 X341.291 Y69.082
G00 X341.219 Y69.127
G00 X341.146 Y69.166
G00 X323.834 Y77.262
G00 X323.775 Y77.292
G00 X323.762 Y77.299
G00 X323.637 Y77.372
G00 X323.618 Y77.385
G00 X323.539 Y77.442
G00 X323.464 Y77.505
G00 X323.393 Y77.572
G00 X323.328 Y77.644
G00 X323.267 Y77.72
G00 X323.213 Y77.8
G00 X323.163 Y77.884
G00 X323.12 Y77.972
G00 X323.082 Y78.061
G00 X323.052 Y78.154
G00 X323.028 Y78.248
G00 X323.01 Y78.344
G00 X322.999 Y78.441
G00 X322.994 Y78.538
G00 X322.997 Y78.635
G00 X323.006 Y78.732
G00 X323.022 Y78.828
G00 X323.045 Y78.923
G00 X323.074 Y79.016
G00 X323.11 Y79.107
G00 X323.151 Y79.194
G00 X323.199 Y79.279
G00 X323.253 Y79.361
G00 X323.312 Y79.438
G00 X323.376 Y79.511
G00 X323.445 Y79.58
G00 X323.519 Y79.643
G00 X323.597 Y79.701
G00 X323.693 Y79.762
G00 X330.659 Y83.797
G00 X330.786 Y83.862
G00 X337.528 Y86.896
G00 X337.594 Y86.929
G00 X337.641 Y86.959
G00 X337.673 Y86.981
G00 X337.7 Y87.005
G00 X337.744 Y87.049
G00 X337.794 Y87.108
G00 X339.356 Y89.158
G00 X339.395 Y89.213
G00 X339.421 Y89.259
G00 X339.436 Y89.288
G00 X339.446 Y89.315
G00 X339.465 Y89.382
G00 X339.476 Y89.435
G00 X339.481 Y89.472
G00 X339.482 Y89.517
G00 X339.481 Y89.56
G00 X339.476 Y89.597
G00 X339.469 Y89.631
G00 X339.445 Y89.706
G00 X338.845 Y91.439
G00 X338.842 Y91.445
G00 X338.813 Y91.492
G00 X338.779 Y91.54
G00 X338.755 Y91.569
G00 X338.73 Y91.594
G00 X338.639 Y91.671
G00 X333.002 Y95.809
G00 X332.947 Y95.846
G00 X332.9 Y95.87
G00 X332.838 Y95.901
G00 X332.807 Y95.912
G00 X332.741 Y95.932
G00 X321.347 Y98.687
G00 X321.263 Y98.7
G00 X321.192 Y98.709
G00 X321.153 Y98.711
G00 X321.1 Y98.709
G00 X321.089 Y98.707
G00 X321.051 Y98.698
G00 X309.364 Y96.172
G00 X309.301 Y96.156
G00 X309.243 Y96.136
G00 X309.205 Y96.12
G00 X305.296 Y94.285
G00 X305.204 Y94.246
G00 X305.12 Y94.213
G00 X305.028 Y94.181
G00 X304.934 Y94.156
G00 X304.838 Y94.137
G00 X304.742 Y94.125
G00 X304.616 Y94.12
G00 X304.597 Y94.12
G00 X304.5 Y94.123
G00 X304.369 Y94.138
G00 X304.297 Y94.151
G00 X300.541 Y94.864
G00 X300.446 Y94.886
G00 X300.359 Y94.911
G00 X300.34 Y94.918
G00 X300.249 Y94.952
G00 X300.16 Y94.992
G00 X300.075 Y95.038
G00 X299.992 Y95.091
G00 X299.914 Y95.148
G00 X299.839 Y95.211
G00 X299.77 Y95.279
G00 X299.705 Y95.352
G00 X299.646 Y95.429
G00 X299.592 Y95.51
G00 X299.543 Y95.595
G00 X299.486 Y95.719
G00 X299.472 Y95.752
G00 X299.44 Y95.839
G00 X299.427 Y95.878
G00 X299.395 Y95.99
G00 X263.703 Y154.818
G00 X264.397 Y159.542
G00 X264.459 Y159.904
G00 X264.517 Y160.211
G00 X264.576 Y160.498
G00 X264.666 Y160.907
G00 X264.747 Y161.245
G00 X264.823 Y161.542
G00 X266.101 Y166.368
G00 X265.923 Y167.109
G00 X265.597 Y167.576
G00 X265.465 Y167.638
G00 X262.341 Y167.823
G00 X261.845 Y167.668
G00 X261.343 Y165.93
;Nearing path end, moving to preshutoff position
G00 X262.009 Y163.466
M107 ;Pump off
G00 X262.481 Y161.717
G00 X262.535 Y161.501
G00 X262.609 Y161.19
G00 X262.67 Y160.919
G00 X262.744 Y160.562
G00 X262.775 Y160.402
G00 X262.831 Y160.105
G00 X262.871 Y159.874
G00 X263.703 Y154.818
G4 P250 ;Pause for 250 milliseconds
;Completed path #5/5 on color #1
;PancakePainter Footer Start
G4 P1000 ;Pause for 1000 milliseconds
G00 X1 Y1 ;Help homing
G28 X0 Y0 ;Home All Axis
M84 ;Motors off
;PancakePainter Footer Complete
