;PancakePainter v1.4.0 GCODE header start
;Originally generated @ Wed Dec 04 2019 14:59:29 GMT-0600 (Central Standard Time)
;Settings used to generate this file:
;----------------------------------------
;botSpeed: 4620
;flattenResolution: 2
;lineEndPreShutoff: 25
;startWait: 350
;endWait: 250
;shadeChangeWait: 15
;useLineFill: false
;useShortest: true
;shapeFillWidth: 10
;fillSpacing: 10
;fillAngle: 23
;fillGroupThreshold: 27
;useColorSpeed: false
;botColorSpeed: 6600,5280,5280,3300
;----------------------------------------
W1 X42 Y210 L485 T0 ;Define Workspace of this file
G21 ;Set units to MM
G1 F4620 ;Set Speed
M107 ;Pump off
G4 P1000 ;Pause for 1000 milliseconds
M84 ;Motors off
G00 X1 Y1 ;Help homing
G28 X0 Y0 ;Home All Axis
;PancakePainter header complete
;Starting stroke path #1/12, segments: 4, length: 223, color #1
G00 X188.476 Y57.323
M106 ;Pump on
G4 P350 ;Pause for 350 milliseconds
G00 X217.275 Y64.35
G00 X224.572 Y65.566
G00 X231.497 Y67.612
G00 X238.182 Y72.986
G00 X243.91 Y79.399
;Nearing path end, moving to preshutoff position
G00 X249.877 Y85.13
M107 ;Pump off
G00 X250.01 Y85.258
G00 X257.808 Y88.967
G4 P250 ;Pause for 250 milliseconds
;Completed path #1/12 on color #1
;Starting stroke path #2/12, segments: 8, length: 259, color #1
G00 X259.585 Y104.255
M106 ;Pump on
G4 P350 ;Pause for 350 milliseconds
G00 X259.585 Y130.21
G00 X259.38 Y136.509
G00 X260.205 Y142.649
G00 X263.852 Y145.899
G00 X268.474 Y148.112
G00 X276.264 Y155.454
G00 X281.334 Y161.185
G00 X285.542 Y167.543
;Nearing path end, moving to preshutoff position
G00 X287.761 Y175.248
M107 ;Pump off
G00 X287.897 Y175.72
G00 X291.585 Y183.187
G4 P250 ;Pause for 250 milliseconds
;Completed path #2/12 on color #1
;Starting stroke path #3/12, segments: 4, length: 144, color #1
G00 X227.586 Y181.409
M106 ;Pump on
G4 P350 ;Pause for 350 milliseconds
G00 X235.889 Y174.995
G00 X241.986 Y162.209
;Nearing path end, moving to preshutoff position
G00 X254.15 Y149.691
M107 ;Pump off
G00 X260.297 Y143.365
G4 P250 ;Pause for 250 milliseconds
;Completed path #3/12 on color #1
;Starting stroke path #4/12, segments: 6, length: 219, color #1
G00 X270.252 Y148.699
M106 ;Pump on
G4 P350 ;Pause for 350 milliseconds
G00 X280.596 Y150.732
G00 X290.874 Y152.926
G00 X296.207 Y151.155
G00 X302.401 Y148.694
G00 X307.628 Y145.278
G00 X316.473 Y135.899
G00 X312.814 Y130.991
G00 X310.178 Y125.588
;Nearing path end, moving to preshutoff position
G00 X310.837 Y122.206
M107 ;Pump off
G00 X311.338 Y119.633
G00 X314.34 Y114.21
G4 P250 ;Pause for 250 milliseconds
;Completed path #4/12 on color #1
;Starting stroke path #5/12, segments: 13, length: 476, color #1
G00 X315.406 Y21.057
M106 ;Pump on
G4 P350 ;Pause for 350 milliseconds
G00 X304.945 Y34.212
G00 X281.231 Y63.723
G00 X264.629 Y80.789
G00 X261.326 Y84.898
G00 X258.679 Y89.322
G00 X258.191 Y96.698
G00 X259.941 Y103.9
G00 X267.407 Y96.433
G00 X270.963 Y93.486
G00 X276.652 Y95.684
G00 X293.718 Y95.722
G00 X301.52 Y95.508
G00 X304.566 Y90.389
;Nearing path end, moving to preshutoff position
G00 X306.844 Y88.249
M107 ;Pump off
G00 X313.273 Y82.211
G4 P250 ;Pause for 250 milliseconds
;Completed path #5/12 on color #1
;Starting stroke path #6/12, segments: 5, length: 122, color #1
G00 X301.896 Y95.722
M106 ;Pump on
G4 P350 ;Pause for 350 milliseconds
G00 X311.712 Y110.331
G00 X314.416 Y114.045
G00 X321.095 Y113.985
;Nearing path end, moving to preshutoff position
G00 X326.498 Y113.936
M107 ;Pump off
G00 X335.317 Y113.855
G4 P250 ;Pause for 250 milliseconds
;Completed path #6/12 on color #1
;Starting stroke path #7/12, segments: 2, length: 29, color #1
G00 X299.762 Y127.366
M106 ;Pump on
G4 P350 ;Pause for 350 milliseconds
;Nearing path end, moving to preshutoff position
G00 X301.094 Y127.08
M107 ;Pump off
G00 X309.718 Y125.232
G4 P250 ;Pause for 250 milliseconds
;Completed path #7/12 on color #1
;Starting stroke path #8/12, segments: 2, length: 41, color #1
G00 X316.473 Y135.899
M106 ;Pump on
G4 P350 ;Pause for 350 milliseconds
;Nearing path end, moving to preshutoff position
G00 X322.231 Y135.899
M107 ;Pump off
G00 X331.051 Y135.899
G4 P250 ;Pause for 250 milliseconds
;Completed path #8/12 on color #1
;Starting fill path #9/12, segments: 6, length: 117, color #1
G00 X225.79 Y65.418
M106 ;Pump on
G4 P350 ;Pause for 350 milliseconds
G00 X211.784 Y63.797
G00 X205.575 Y61.527
G00 X210.706 Y61.973
;Nearing path end, moving to preshutoff position
G00 X217.205 Y63.412
M107 ;Pump off
G00 X224.167 Y64.953
G00 X225.79 Y65.418
G4 P250 ;Pause for 250 milliseconds
;Completed path #9/12 on color #1
;Starting fill path #10/12, segments: 43, length: 37, color #1
G00 X257.661 Y95.86
M106 ;Pump on
G4 P350 ;Pause for 350 milliseconds
G00 X257.578 Y95.736
G00 X257.451 Y95.548
G00 X257.331 Y95.373
G00 X257.205 Y95.194
G00 X256.955 Y94.845
G00 X256.831 Y94.673
G00 X256.705 Y94.502
G00 X256.585 Y94.343
G00 X256.338 Y94.019
G00 X256.21 Y93.854
G00 X256.079 Y93.687
G00 X255.939 Y93.512
G00 X255.662 Y93.173
G00 X255.525 Y93.007
G00 X255.389 Y92.845
G00 X255.251 Y92.684
G00 X255.015 Y92.412
;Nearing path end, moving to preshutoff position
G00 X255.016 Y92.405
M107 ;Pump off
G00 X255.311 Y91.156
G00 X257.472 Y90.895
G00 X257.487 Y90.947
G00 X257.541 Y91.128
G00 X257.65 Y91.482
G00 X257.704 Y91.654
G00 X257.77 Y91.856
G00 X257.837 Y92.059
G00 X257.976 Y92.466
G00 X258.047 Y92.67
G00 X258.119 Y92.87
G00 X258.195 Y93.076
G00 X258.352 Y93.49
G00 X258.432 Y93.697
G00 X258.511 Y93.895
G00 X258.562 Y94.021
G00 X258.402 Y94.327
G00 X258.301 Y94.523
G00 X258.205 Y94.713
G00 X258.111 Y94.903
G00 X257.93 Y95.28
G00 X257.841 Y95.467
G00 X257.752 Y95.659
G00 X257.666 Y95.849
G00 X257.661 Y95.86
G4 P250 ;Pause for 250 milliseconds
;Completed path #10/12 on color #1
;Starting fill path #11/12, segments: 1077, length: 2370, color #1
G00 X262.16 Y138.753
M106 ;Pump on
G4 P350 ;Pause for 350 milliseconds
G00 X262.041 Y138.743
G00 X261.828 Y138.729
G00 X261.403 Y138.704
G00 X261.256 Y138.697
G00 X261.571 Y137.205
G00 X262.16 Y138.753
G00 X261.254 Y152.055
G00 X261.042 Y152.039
G00 X260.618 Y152.014
G00 X260.405 Y152.005
G00 X259.98 Y151.994
G00 X259.768 Y151.991
G00 X259.329 Y151.994
G00 X259.111 Y151.998
G00 X258.899 Y152.005
G00 X253.242 Y152.218
G00 X253.022 Y152.228
G00 X252.81 Y152.24
G00 X252.408 Y152.268
G00 X252.196 Y152.286
G00 X251.748 Y152.331
G00 X251.537 Y152.356
G00 X251.132 Y152.411
G00 X250.922 Y152.442
G00 X250.498 Y152.513
G00 X250.289 Y152.551
G00 X249.923 Y152.624
G00 X249.757 Y152.659
G00 X249.442 Y152.73
G00 X249.235 Y152.779
G00 X248.943 Y152.852
G00 X248.796 Y152.891
G00 X248.562 Y152.955
G00 X248.326 Y153.022
G00 X245.434 Y153.872
G00 X245.451 Y152.376
G00 X246.963 Y141.842
G00 X249.45 Y130.083
G00 X249.504 Y129.814
G00 X249.555 Y129.545
G00 X249.604 Y129.276
G00 X251.104 Y120.398
G00 X251.136 Y120.196
G00 X251.168 Y119.986
G00 X251.21 Y119.688
G00 X251.229 Y119.539
G00 X251.254 Y119.328
G00 X251.296 Y118.924
G00 X251.315 Y118.713
G00 X251.345 Y118.287
G00 X251.357 Y118.074
G00 X251.374 Y117.65
G00 X251.379 Y117.438
G00 X251.383 Y117.013
G00 X251.381 Y116.8
G00 X251.371 Y116.375
G00 X251.362 Y116.163
G00 X251.34 Y115.76
G00 X251.325 Y115.548
G00 X251.286 Y115.101
G00 X251.264 Y114.89
G00 X251.213 Y114.466
G00 X251.184 Y114.255
G00 X251.123 Y113.851
G00 X251.088 Y113.642
G00 X251.034 Y113.346
G00 X251.003 Y113.188
G00 X250.992 Y113.135
G00 X250.992 Y113.135
G00 X250.983 Y113.085
G00 X250.954 Y112.947
G00 X250.946 Y112.91
G00 X250.938 Y112.871
G00 X250.873 Y112.578
G00 X250.832 Y112.404
G00 X250.782 Y112.198
G00 X250.683 Y111.818
G00 X250.627 Y111.613
G00 X250.543 Y111.325
G00 X250.495 Y111.168
G00 X250.432 Y110.966
G00 X250.305 Y110.583
G00 X250.235 Y110.382
G00 X250.085 Y109.971
G00 X250.009 Y109.773
G00 X249.859 Y109.4
G00 X249.777 Y109.204
G00 X249.597 Y108.795
G00 X249.508 Y108.602
G00 X249.379 Y108.33
G00 X249.286 Y108.142
G00 X249.148 Y107.87
G00 X249.006 Y107.598
G00 X247.58 Y104.938
G00 X247.48 Y104.754
G00 X247.376 Y104.569
G00 X247.157 Y104.19
G00 X247.048 Y104.007
G00 X246.836 Y103.667
G00 X246.721 Y103.488
G00 X246.477 Y103.12
G00 X246.356 Y102.945
G00 X246.106 Y102.595
G00 X245.98 Y102.424
G00 X245.733 Y102.1
G00 X245.601 Y101.933
G00 X245.324 Y101.593
G00 X245.188 Y101.431
G00 X244.911 Y101.112
G00 X244.769 Y100.954
G00 X244.483 Y100.645
G00 X244.336 Y100.491
G00 X244.04 Y100.192
G00 X243.889 Y100.043
G00 X243.629 Y99.795
G00 X243.439 Y99.619
G00 X243.4 Y99.583
G00 X243.261 Y99.458
G00 X243.113 Y99.327
G00 X242.957 Y99.19
G00 X241.608 Y98.03
G00 X240.022 Y96.24
G00 X241.035 Y93.224
G00 X241.102 Y93.018
G00 X241.167 Y92.815
G00 X241.287 Y92.415
G00 X241.345 Y92.211
G00 X241.45 Y91.816
G00 X241.472 Y91.729
G00 X241.491 Y91.654
G00 X241.559 Y91.381
G00 X242.922 Y85.599
G00 X245.261 Y80.13
G00 X245.264 Y80.124
G00 X245.393 Y80.094
G00 X245.62 Y80.039
G00 X245.649 Y80.032
G00 X245.853 Y79.979
G00 X246.059 Y79.924
G00 X246.348 Y79.843
G00 X246.546 Y79.784
G00 X246.832 Y79.696
G00 X247.123 Y79.603
G00 X247.187 Y79.582
G00 X247.39 Y79.512
G00 X247.591 Y79.441
G00 X247.994 Y79.292
G00 X248.192 Y79.216
G00 X248.502 Y79.091
G00 X248.762 Y78.981
G00 X250.267 Y78.335
G00 X257.711 Y77.437
G00 X266.373 Y78.256
G00 X267.697 Y78.507
G00 X268.057 Y79.603
G00 X270.282 Y87.198
G00 X270.391 Y87.552
G00 X270.456 Y87.754
G00 X270.595 Y88.161
G00 X270.667 Y88.361
G00 X270.823 Y88.775
G00 X270.902 Y88.973
G00 X271.058 Y89.349
G00 X271.143 Y89.543
G00 X271.319 Y89.935
G00 X271.41 Y90.127
G00 X271.603 Y90.519
G00 X271.7 Y90.708
G00 X271.887 Y91.06
G00 X271.99 Y91.246
G00 X272.212 Y91.635
G00 X272.321 Y91.818
G00 X272.531 Y92.159
G00 X272.646 Y92.338
G00 X272.81 Y92.59
G00 X272.9 Y92.722
G00 X273.02 Y92.897
G00 X273.251 Y93.223
G00 X273.377 Y93.395
G00 X273.63 Y93.73
G00 X273.761 Y93.898
G00 X273.949 Y94.132
G00 X274.047 Y94.251
G00 X274.184 Y94.414
G00 X274.44 Y94.711
G00 X274.543 Y94.827
G00 X274.522 Y94.846
G00 X274.411 Y94.949
G00 X274.256 Y95.094
G00 X273.976 Y95.366
G00 X273.825 Y95.516
G00 X273.615 Y95.731
G00 X273.511 Y95.84
G00 X273.366 Y95.995
G00 X273.083 Y96.308
G00 X272.943 Y96.467
G00 X272.669 Y96.788
G00 X272.534 Y96.952
G00 X272.271 Y97.282
G00 X272.141 Y97.45
G00 X271.877 Y97.804
G00 X271.752 Y97.976
G00 X271.516 Y98.315
G00 X271.398 Y98.491
G00 X271.172 Y98.836
G00 X271.059 Y99.016
G00 X270.832 Y99.389
G00 X270.724 Y99.573
G00 X270.518 Y99.938
G00 X270.416 Y100.124
G00 X270.214 Y100.512
G00 X270.118 Y100.702
G00 X269.936 Y101.078
G00 X269.847 Y101.271
G00 X269.676 Y101.654
G00 X269.593 Y101.849
G00 X269.428 Y102.255
G00 X269.351 Y102.453
G00 X269.209 Y102.838
G00 X269.138 Y103.038
G00 X268.997 Y103.458
G00 X268.933 Y103.661
G00 X268.819 Y104.042
G00 X268.761 Y104.246
G00 X268.647 Y104.675
G00 X268.596 Y104.881
G00 X268.498 Y105.308
G00 X268.454 Y105.515
G00 X268.374 Y105.916
G00 X268.336 Y106.125
G00 X268.269 Y106.532
G00 X268.237 Y106.742
G00 X268.179 Y107.186
G00 X268.154 Y107.397
G00 X268.114 Y107.801
G00 X268.096 Y108.013
G00 X268.065 Y108.46
G00 X268.055 Y108.672
G00 X268.039 Y109.114
G00 X268.035 Y109.362
G00 X268.035 Y109.812
G00 X268.038 Y110.024
G00 X268.052 Y110.449
G00 X268.062 Y110.661
G00 X268.089 Y111.085
G00 X268.106 Y111.297
G00 X268.147 Y111.725
G00 X268.17 Y111.936
G00 X268.222 Y112.338
G00 X268.252 Y112.549
G00 X268.298 Y112.846
G00 X268.328 Y113.02
G00 X268.37 Y113.252
G00 X268.411 Y113.467
G00 X269.808 Y120.556
G00 X269.851 Y120.764
G00 X269.895 Y120.972
G00 X269.987 Y121.374
G00 X270.038 Y121.581
G00 X270.15 Y122.004
G00 X270.207 Y122.209
G00 X270.253 Y122.367
G00 X270.27 Y122.425
G00 X270.373 Y122.757
G00 X270.438 Y122.959
G00 X270.576 Y123.363
G00 X270.658 Y123.591
G00 X270.746 Y123.829
G00 X277.656 Y141.981
G00 X280.027 Y151.149
G00 X280.028 Y151.149
G00 X280.096 Y151.411
G00 X280.153 Y151.615
G00 X280.236 Y151.904
G00 X280.284 Y152.06
G00 X280.333 Y152.216
G00 X279.594 Y154.586
G00 X279.212 Y154.496
G00 X279.004 Y154.45
G00 X278.71 Y154.389
G00 X278.535 Y154.357
G00 X278.26 Y154.307
G00 X277.976 Y154.258
G00 X273.748 Y153.586
G00 X273.516 Y153.551
G00 X273.283 Y153.518
G00 X273.049 Y153.488
G00 X262.095 Y152.14
G00 X261.872 Y152.115
G00 X261.661 Y152.092
G00 X261.254 Y152.055
G00 X260.256 Y165.351
G00 X260.044 Y165.335
G00 X259.831 Y165.326
G00 X259.619 Y165.324
G00 X259.402 Y165.329
G00 X253.745 Y165.542
G00 X253.533 Y165.553
G00 X253.321 Y165.571
G00 X253.11 Y165.596
G00 X252.9 Y165.628
G00 X252.691 Y165.666
G00 X252.557 Y165.694
G00 X252.525 Y165.701
G00 X252.319 Y165.751
G00 X252.085 Y165.815
G00 X247.05 Y167.294
G00 X246.847 Y167.357
G00 X246.647 Y167.427
G00 X246.448 Y167.502
G00 X246.252 Y167.585
G00 X246.059 Y167.673
G00 X245.869 Y167.768
G00 X245.726 Y167.844
G00 X245.688 Y167.865
G00 X245.503 Y167.97
G00 X245.312 Y168.087
G00 X237.796 Y172.868
G00 X236.925 Y173.33
G00 X237.193 Y172.537
G00 X237.257 Y172.335
G00 X237.315 Y172.131
G00 X237.367 Y171.925
G00 X237.412 Y171.717
G00 X237.451 Y171.508
G00 X237.482 Y171.301
G00 X237.485 Y171.276
G00 X237.51 Y171.065
G00 X237.528 Y170.854
G00 X237.54 Y170.642
G00 X237.545 Y170.383
G00 X237.545 Y170.38
G00 X237.542 Y170.168
G00 X237.532 Y169.955
G00 X237.515 Y169.743
G00 X237.491 Y169.532
G00 X237.461 Y169.322
G00 X237.423 Y169.113
G00 X237.38 Y168.905
G00 X237.329 Y168.699
G00 X237.273 Y168.494
G00 X237.209 Y168.291
G00 X237.139 Y168.09
G00 X237.063 Y167.892
G00 X236.981 Y167.696
G00 X236.892 Y167.503
G00 X236.791 Y167.3
G00 X234.935 Y163.738
G00 X234.834 Y163.551
G00 X234.727 Y163.367
G00 X234.614 Y163.187
G00 X234.553 Y163.095
G00 X232.913 Y160.658
G00 X232.069 Y156.509
G00 X232.129 Y151.347
G00 X233.827 Y139.511
G00 X236.405 Y127.323
G00 X236.457 Y127.054
G00 X237.957 Y118.176
G00 X237.989 Y117.966
G00 X238.014 Y117.755
G00 X238.033 Y117.544
G00 X238.045 Y117.331
G00 X238.05 Y117.119
G00 X238.048 Y116.907
G00 X238.039 Y116.694
G00 X238.025 Y116.482
G00 X238.003 Y116.271
G00 X237.974 Y116.06
G00 X237.939 Y115.851
G00 X237.928 Y115.798
G00 X237.925 Y115.78
G00 X237.911 Y115.717
G00 X237.896 Y115.643
G00 X237.891 Y115.622
G00 X237.881 Y115.572
G00 X237.853 Y115.456
G00 X237.848 Y115.436
G00 X237.845 Y115.427
G00 X237.831 Y115.366
G00 X237.774 Y115.161
G00 X237.71 Y114.958
G00 X237.641 Y114.758
G00 X237.564 Y114.559
G00 X237.482 Y114.363
G00 X237.393 Y114.17
G00 X237.255 Y113.898
G00 X235.829 Y111.238
G00 X235.726 Y111.053
G00 X235.617 Y110.87
G00 X235.502 Y110.692
G00 X235.381 Y110.517
G00 X235.255 Y110.346
G00 X235.124 Y110.179
G00 X234.987 Y110.016
G00 X234.845 Y109.858
G00 X234.698 Y109.704
G00 X234.547 Y109.556
G00 X234.449 Y109.465
G00 X234.41 Y109.429
G00 X234.262 Y109.298
G00 X232.227 Y107.548
G00 X226.091 Y100.622
G00 X225.592 Y98.871
G00 X225.823 Y96.64
G00 X228.395 Y88.98
G00 X228.459 Y88.778
G00 X228.517 Y88.573
G00 X228.547 Y88.456
G00 X228.582 Y88.321
G00 X230.21 Y81.415
G00 X233.001 Y74.888
G00 X233.081 Y74.691
G00 X233.156 Y74.492
G00 X233.223 Y74.29
G00 X233.285 Y74.087
G00 X233.34 Y73.882
G00 X233.388 Y73.675
G00 X233.429 Y73.466
G00 X233.464 Y73.257
G00 X233.492 Y73.046
G00 X233.514 Y72.835
G00 X233.528 Y72.623
G00 X233.536 Y72.41
G00 X233.538 Y72.266
G00 X233.538 Y72.256
G00 X233.535 Y72.044
G00 X233.524 Y71.831
G00 X233.508 Y71.619
G00 X233.484 Y71.408
G00 X233.454 Y71.198
G00 X233.416 Y70.989
G00 X233.373 Y70.781
G00 X233.322 Y70.575
G00 X233.266 Y70.37
G00 X233.202 Y70.167
G00 X233.132 Y69.966
G00 X233.056 Y69.768
G00 X232.974 Y69.572
G00 X232.885 Y69.379
G00 X232.791 Y69.189
G00 X232.69 Y69.001
G00 X232.583 Y68.818
G00 X232.471 Y68.637
G00 X232.352 Y68.461
G00 X232.229 Y68.288
G00 X232.099 Y68.119
G00 X231.965 Y67.955
G00 X231.825 Y67.795
G00 X231.68 Y67.639
G00 X231.531 Y67.488
G00 X231.377 Y67.342
G00 X231.218 Y67.201
G00 X231.055 Y67.065
G00 X230.887 Y66.934
G00 X230.768 Y66.848
G00 X234.6 Y67.947
G00 X234.678 Y67.968
G00 X234.719 Y67.98
G00 X234.8 Y68.001
G00 X234.835 Y68.01
G00 X234.874 Y68.02
G00 X234.925 Y68.033
G00 X235.132 Y68.08
G00 X235.276 Y68.107
G00 X235.292 Y68.11
G00 X235.298 Y68.111
G00 X235.341 Y68.119
G00 X235.489 Y68.142
G00 X235.501 Y68.144
G00 X235.504 Y68.145
G00 X235.551 Y68.152
G00 X235.703 Y68.171
G00 X235.712 Y68.172
G00 X235.715 Y68.172
G00 X235.762 Y68.178
G00 X235.903 Y68.191
G00 X235.923 Y68.193
G00 X235.931 Y68.194
G00 X235.973 Y68.197
G00 X236.094 Y68.205
G00 X236.135 Y68.208
G00 X236.148 Y68.208
G00 X236.185 Y68.21
G00 X236.258 Y68.212
G00 X236.348 Y68.215
G00 X236.416 Y68.215
G00 X236.478 Y68.217
G00 X236.482 Y68.217
G00 X236.533 Y68.216
G00 X236.56 Y68.216
G00 X236.605 Y68.215
G00 X236.694 Y68.213
G00 X236.754 Y68.211
G00 X236.773 Y68.21
G00 X236.804 Y68.208
G00 X236.907 Y68.203
G00 X236.962 Y68.199
G00 X236.985 Y68.197
G00 X237.02 Y68.194
G00 X237.119 Y68.186
G00 X237.184 Y68.179
G00 X237.196 Y68.178
G00 X237.218 Y68.175
G00 X237.33 Y68.163
G00 X237.393 Y68.153
G00 X237.407 Y68.152
G00 X237.428 Y68.148
G00 X237.54 Y68.132
G00 X237.61 Y68.12
G00 X237.617 Y68.119
G00 X237.626 Y68.117
G00 X237.749 Y68.095
G00 X237.865 Y68.071
G00 X237.869 Y68.07
G00 X237.888 Y68.066
G00 X237.957 Y68.051
G00 X237.963 Y68.05
G00 X242.158 Y67.157
G00 X242.387 Y67.104
G00 X242.415 Y67.097
G00 X242.621 Y67.042
G00 X242.906 Y66.954
G00 X242.97 Y66.933
G00 X243.171 Y66.862
G00 X243.369 Y66.785
G00 X243.496 Y66.732
G00 X246.764 Y65.327
G00 X257.538 Y64.027
G00 X268.247 Y65.041
G00 X272.85 Y65.913
G00 X273.059 Y65.95
G00 X273.27 Y65.98
G00 X273.465 Y66.001
G00 X273.501 Y66.004
G00 X273.713 Y66.021
G00 X273.925 Y66.031
G00 X274.138 Y66.034
G00 X274.35 Y66.03
G00 X274.563 Y66.019
G00 X274.774 Y66.002
G00 X274.986 Y65.978
G00 X275.196 Y65.948
G00 X275.405 Y65.91
G00 X275.613 Y65.866
G00 X275.819 Y65.816
G00 X276.024 Y65.758
G00 X276.227 Y65.695
G00 X276.427 Y65.625
G00 X276.625 Y65.548
G00 X276.821 Y65.465
G00 X277.014 Y65.376
G00 X277.204 Y65.281
G00 X277.391 Y65.18
G00 X277.575 Y65.073
G00 X277.755 Y64.96
G00 X277.931 Y64.842
G00 X278.104 Y64.718
G00 X278.272 Y64.589
G00 X278.437 Y64.454
G00 X278.57 Y64.338
G00 X278.602 Y64.31
G00 X278.758 Y64.166
G00 X278.955 Y63.97
G00 X280.853 Y62.004
G00 X280.999 Y61.848
G00 X281.139 Y61.689
G00 X281.274 Y61.525
G00 X281.403 Y61.356
G00 X281.528 Y61.184
G00 X281.646 Y61.008
G00 X281.759 Y60.828
G00 X281.866 Y60.645
G00 X281.921 Y60.546
G00 X283.149 Y58.277
G00 X289.546 Y48.73
G00 X302.585 Y35.254
G00 X304.809 Y33.688
G00 X298.391 Y44.795
G00 X288.686 Y57.17
G00 X284.797 Y61.089
G00 X284.65 Y61.242
G00 X284.508 Y61.4
G00 X284.371 Y61.562
G00 X284.239 Y61.729
G00 X284.187 Y61.798
G00 X280.708 Y66.444
G00 X280.69 Y66.469
G00 X280.568 Y66.643
G00 X280.451 Y66.82
G00 X280.34 Y67.002
G00 X280.235 Y67.187
G00 X280.136 Y67.374
G00 X280.044 Y67.566
G00 X279.957 Y67.76
G00 X279.876 Y67.956
G00 X279.802 Y68.155
G00 X279.734 Y68.357
G00 X279.672 Y68.56
G00 X279.618 Y68.765
G00 X279.569 Y68.972
G00 X279.527 Y69.181
G00 X279.493 Y69.39
G00 X279.464 Y69.601
G00 X279.442 Y69.812
G00 X279.428 Y70.024
G00 X279.419 Y70.237
G00 X279.418 Y70.386
G00 X279.418 Y70.4
G00 X279.421 Y70.612
G00 X279.431 Y70.824
G00 X279.448 Y71.036
G00 X279.472 Y71.247
G00 X279.502 Y71.458
G00 X279.539 Y71.667
G00 X279.583 Y71.875
G00 X279.633 Y72.081
G00 X279.69 Y72.286
G00 X279.751 Y72.481
G00 X280.794 Y75.654
G00 X283.05 Y83.356
G00 X283.078 Y83.451
G00 X283.143 Y83.653
G00 X283.215 Y83.853
G00 X283.293 Y84.05
G00 X283.378 Y84.245
G00 X283.469 Y84.437
G00 X283.565 Y84.626
G00 X283.668 Y84.813
G00 X283.777 Y84.995
G00 X283.891 Y85.174
G00 X284.011 Y85.349
G00 X284.137 Y85.521
G00 X284.267 Y85.688
G00 X284.404 Y85.851
G00 X284.545 Y86.01
G00 X284.691 Y86.164
G00 X284.843 Y86.314
G00 X284.999 Y86.458
G00 X285.159 Y86.597
G00 X285.324 Y86.731
G00 X285.493 Y86.861
G00 X285.665 Y86.984
G00 X285.842 Y87.102
G00 X286.023 Y87.214
G00 X286.207 Y87.32
G00 X286.394 Y87.421
G00 X286.584 Y87.515
G00 X286.778 Y87.604
G00 X286.974 Y87.685
G00 X287.172 Y87.761
G00 X287.373 Y87.831
G00 X287.576 Y87.894
G00 X287.781 Y87.95
G00 X287.987 Y88
G00 X288.195 Y88.043
G00 X288.405 Y88.08
G00 X288.615 Y88.11
G00 X288.826 Y88.134
G00 X289.043 Y88.15
G00 X289.103 Y88.154
G00 X289.315 Y88.164
G00 X289.512 Y88.167
G00 X290.159 Y88.167
G00 X290.371 Y88.163
G00 X290.583 Y88.153
G00 X290.796 Y88.136
G00 X291.006 Y88.113
G00 X291.217 Y88.082
G00 X291.426 Y88.045
G00 X291.634 Y88.001
G00 X291.84 Y87.951
G00 X292.045 Y87.894
G00 X292.248 Y87.831
G00 X292.449 Y87.761
G00 X292.647 Y87.685
G00 X292.843 Y87.603
G00 X293.036 Y87.514
G00 X293.226 Y87.419
G00 X293.413 Y87.318
G00 X293.597 Y87.212
G00 X293.777 Y87.099
G00 X293.954 Y86.981
G00 X294.127 Y86.857
G00 X294.296 Y86.728
G00 X294.46 Y86.594
G00 X294.62 Y86.454
G00 X294.776 Y86.309
G00 X294.873 Y86.214
G00 X294.908 Y86.178
G00 X295.056 Y86.026
G00 X295.194 Y85.875
G00 X300.387 Y79.987
G00 X309.892 Y70.127
G00 X310.035 Y69.973
G00 X310.067 Y69.937
G00 X310.266 Y69.709
G00 X311.512 Y68.198
G00 X314.585 Y70.522
G00 X314.756 Y70.648
G00 X314.928 Y70.766
G00 X331.454 Y81.697
G00 X322.148 Y88.473
G00 X321.979 Y88.601
G00 X321.813 Y88.734
G00 X321.61 Y88.91
G00 X311.659 Y97.877
G00 X311.503 Y98.022
G00 X311.352 Y98.171
G00 X311.206 Y98.326
G00 X311.065 Y98.484
G00 X310.929 Y98.648
G00 X310.798 Y98.815
G00 X310.673 Y98.987
G00 X310.553 Y99.163
G00 X310.439 Y99.342
G00 X310.331 Y99.525
G00 X310.229 Y99.711
G00 X310.133 Y99.9
G00 X310.042 Y100.093
G00 X309.958 Y100.288
G00 X309.88 Y100.486
G00 X309.809 Y100.686
G00 X309.743 Y100.888
G00 X309.685 Y101.092
G00 X309.633 Y101.298
G00 X309.587 Y101.506
G00 X309.548 Y101.715
G00 X309.516 Y101.925
G00 X309.491 Y102.136
G00 X309.472 Y102.347
G00 X309.46 Y102.56
G00 X309.455 Y102.83
G00 X309.455 Y102.833
G00 X309.458 Y103.045
G00 X309.468 Y103.258
G00 X309.485 Y103.47
G00 X309.509 Y103.681
G00 X309.539 Y103.891
G00 X309.576 Y104.1
G00 X309.62 Y104.308
G00 X309.67 Y104.514
G00 X309.727 Y104.719
G00 X309.79 Y104.922
G00 X309.86 Y105.123
G00 X309.936 Y105.321
G00 X310.019 Y105.517
G00 X310.107 Y105.71
G00 X310.202 Y105.9
G00 X310.303 Y106.087
G00 X310.41 Y106.271
G00 X310.522 Y106.452
G00 X310.64 Y106.628
G00 X310.764 Y106.801
G00 X310.893 Y106.97
G00 X311.028 Y107.134
G00 X311.167 Y107.294
G00 X311.312 Y107.45
G00 X311.461 Y107.601
G00 X311.616 Y107.747
G00 X311.775 Y107.888
G00 X311.938 Y108.024
G00 X312.106 Y108.155
G00 X312.277 Y108.28
G00 X312.382 Y108.352
G00 X312.393 Y108.36
G00 X312.571 Y108.476
G00 X312.752 Y108.586
G00 X312.937 Y108.691
G00 X313.125 Y108.79
G00 X313.316 Y108.883
G00 X313.51 Y108.97
G00 X313.677 Y109.038
G00 X324.253 Y113.228
G00 X325.21 Y113.78
G00 X320.826 Y116.216
G00 X320.642 Y116.322
G00 X320.461 Y116.434
G00 X320.29 Y116.548
G00 X313.083 Y121.497
G00 X312.989 Y121.563
G00 X312.964 Y121.58
G00 X312.793 Y121.706
G00 X312.626 Y121.838
G00 X312.464 Y121.975
G00 X312.305 Y122.116
G00 X312.152 Y122.263
G00 X312.003 Y122.414
G00 X311.859 Y122.571
G00 X311.72 Y122.731
G00 X311.586 Y122.897
G00 X311.458 Y123.066
G00 X311.335 Y123.239
G00 X311.217 Y123.416
G00 X311.105 Y123.597
G00 X311 Y123.781
G00 X310.9 Y123.969
G00 X310.806 Y124.16
G00 X310.718 Y124.353
G00 X310.636 Y124.549
G00 X310.561 Y124.748
G00 X310.493 Y124.949
G00 X310.43 Y125.152
G00 X310.374 Y125.357
G00 X310.325 Y125.564
G00 X310.282 Y125.772
G00 X310.246 Y125.981
G00 X310.216 Y126.192
G00 X310.193 Y126.403
G00 X310.178 Y126.615
G00 X310.168 Y126.827
G00 X310.166 Y127.04
G00 X310.17 Y127.252
G00 X310.181 Y127.464
G00 X310.199 Y127.676
G00 X310.224 Y127.887
G00 X310.255 Y128.097
G00 X310.266 Y128.157
G00 X305.147 Y125.847
G00 X310.499 Y119.63
G00 X310.635 Y119.467
G00 X310.766 Y119.3
G00 X310.891 Y119.128
G00 X311.011 Y118.953
G00 X311.126 Y118.773
G00 X311.234 Y118.591
G00 X311.337 Y118.405
G00 X311.433 Y118.215
G00 X311.524 Y118.023
G00 X311.608 Y117.828
G00 X311.686 Y117.63
G00 X311.758 Y117.43
G00 X311.823 Y117.228
G00 X311.882 Y117.024
G00 X311.934 Y116.818
G00 X311.98 Y116.611
G00 X312.019 Y116.402
G00 X312.051 Y116.192
G00 X312.077 Y115.981
G00 X312.096 Y115.769
G00 X312.108 Y115.557
G00 X312.114 Y115.281
G00 X312.114 Y115.277
G00 X312.111 Y115.065
G00 X312.1 Y114.852
G00 X312.084 Y114.64
G00 X312.06 Y114.429
G00 X312.03 Y114.219
G00 X311.992 Y114.01
G00 X311.949 Y113.802
G00 X311.898 Y113.596
G00 X311.842 Y113.391
G00 X311.778 Y113.188
G00 X311.708 Y112.987
G00 X311.632 Y112.789
G00 X311.55 Y112.593
G00 X311.461 Y112.4
G00 X311.367 Y112.21
G00 X311.266 Y112.023
G00 X311.159 Y111.839
G00 X311.047 Y111.658
G00 X310.928 Y111.482
G00 X310.805 Y111.309
G00 X310.675 Y111.14
G00 X310.541 Y110.976
G00 X310.401 Y110.816
G00 X310.256 Y110.66
G00 X310.107 Y110.509
G00 X309.953 Y110.363
G00 X309.794 Y110.222
G00 X309.631 Y110.086
G00 X309.463 Y109.955
G00 X309.291 Y109.83
G00 X309.116 Y109.711
G00 X308.936 Y109.596
G00 X308.754 Y109.488
G00 X308.568 Y109.386
G00 X308.378 Y109.289
G00 X308.186 Y109.199
G00 X307.991 Y109.115
G00 X307.821 Y109.047
G00 X307.792 Y109.037
G00 X307.593 Y108.964
G00 X307.488 Y108.929
G00 X290.12 Y103.258
G00 X289.917 Y103.195
G00 X289.712 Y103.139
G00 X289.505 Y103.089
G00 X289.287 Y103.044
G00 X289.269 Y103.041
G00 X289.059 Y103.005
G00 X288.849 Y102.975
G00 X288.638 Y102.953
G00 X288.426 Y102.937
G00 X288.214 Y102.928
G00 X288.001 Y102.925
G00 X287.789 Y102.93
G00 X287.576 Y102.941
G00 X287.365 Y102.959
G00 X287.154 Y102.984
G00 X286.943 Y103.015
G00 X286.734 Y103.053
G00 X286.527 Y103.098
G00 X286.32 Y103.149
G00 X286.116 Y103.207
G00 X285.913 Y103.271
G00 X285.713 Y103.342
G00 X285.515 Y103.419
G00 X285.32 Y103.502
G00 X285.127 Y103.592
G00 X284.937 Y103.688
G00 X284.75 Y103.789
G00 X284.567 Y103.897
G00 X284.388 Y104.01
G00 X284.212 Y104.129
G00 X284.039 Y104.254
G00 X283.871 Y104.384
G00 X283.707 Y104.519
G00 X283.548 Y104.659
G00 X283.393 Y104.805
G00 X283.243 Y104.955
G00 X283.097 Y105.11
G00 X282.957 Y105.27
G00 X282.822 Y105.434
G00 X282.692 Y105.602
G00 X282.568 Y105.774
G00 X282.449 Y105.95
G00 X282.335 Y106.13
G00 X282.228 Y106.313
G00 X282.126 Y106.5
G00 X282.031 Y106.69
G00 X281.941 Y106.883
G00 X281.858 Y107.078
G00 X281.781 Y107.276
G00 X281.711 Y107.477
G00 X281.647 Y107.679
G00 X281.589 Y107.883
G00 X281.537 Y108.09
G00 X281.493 Y108.298
G00 X281.455 Y108.507
G00 X281.424 Y108.717
G00 X281.399 Y108.928
G00 X281.381 Y109.14
G00 X281.37 Y109.352
G00 X281.366 Y109.592
G00 X281.366 Y109.599
G00 X281.369 Y109.811
G00 X281.38 Y110.024
G00 X281.397 Y110.236
G00 X281.42 Y110.447
G00 X281.45 Y110.657
G00 X281.492 Y110.888
G00 X282.889 Y117.978
G00 X282.934 Y118.186
G00 X282.985 Y118.392
G00 X282.998 Y118.439
G00 X283.001 Y118.451
G00 X283.018 Y118.511
G00 X283.042 Y118.596
G00 X283.047 Y118.613
G00 X283.059 Y118.655
G00 X283.125 Y118.857
G00 X283.207 Y119.085
G00 X290.38 Y137.927
G00 X292.936 Y147.81
G00 X292.949 Y147.863
G00 X293.005 Y148.068
G00 X293.069 Y148.27
G00 X293.139 Y148.471
G00 X293.215 Y148.669
G00 X293.281 Y148.827
G00 X293.291 Y148.852
G00 X293.379 Y149.046
G00 X293.472 Y149.237
G00 X293.572 Y149.425
G00 X293.678 Y149.609
G00 X293.789 Y149.79
G00 X293.906 Y149.967
G00 X294.029 Y150.141
G00 X294.157 Y150.31
G00 X294.29 Y150.475
G00 X294.429 Y150.637
G00 X294.573 Y150.793
G00 X294.721 Y150.945
G00 X294.875 Y151.092
G00 X295.033 Y151.234
G00 X295.195 Y151.371
G00 X295.362 Y151.503
G00 X295.533 Y151.629
G00 X295.631 Y151.697
G00 X295.342 Y151.96
G00 X295.188 Y152.106
G00 X295.038 Y152.256
G00 X294.892 Y152.411
G00 X294.752 Y152.571
G00 X294.617 Y152.735
G00 X294.487 Y152.903
G00 X294.363 Y153.075
G00 X294.244 Y153.252
G00 X294.131 Y153.432
G00 X294.024 Y153.615
G00 X293.922 Y153.801
G00 X293.867 Y153.909
G00 X293.86 Y153.923
G00 X293.768 Y154.115
G00 X293.682 Y154.309
G00 X293.603 Y154.506
G00 X293.577 Y154.577
G00 X293.536 Y154.687
G00 X293.507 Y154.771
G00 X293.498 Y154.796
G00 X293.491 Y154.818
G00 X293.492 Y154.818
G00 X293.445 Y154.958
G00 X291.448 Y161.358
G00 X289.878 Y163.581
G00 X289.726 Y163.807
G00 X289.694 Y163.856
G00 X289.581 Y164.037
G00 X289.475 Y164.22
G00 X289.329 Y164.496
G00 X287.697 Y167.764
G00 X287.605 Y167.956
G00 X287.519 Y168.15
G00 X287.44 Y168.347
G00 X287.367 Y168.547
G00 X287.3 Y168.748
G00 X287.24 Y168.952
G00 X287.186 Y169.158
G00 X287.139 Y169.365
G00 X287.098 Y169.573
G00 X287.064 Y169.783
G00 X287.037 Y169.994
G00 X287.016 Y170.205
G00 X287.002 Y170.417
G00 X286.996 Y170.63
G00 X286.995 Y170.842
G00 X287.002 Y171.055
G00 X287.015 Y171.267
G00 X287.035 Y171.478
G00 X287.062 Y171.689
G00 X287.105 Y171.948
G00 X288.07 Y177.195
G00 X287.019 Y175.727
G00 X286.882 Y175.542
G00 X283.956 Y171.737
G00 X283.823 Y171.571
G00 X283.686 Y171.409
G00 X283.543 Y171.252
G00 X283.396 Y171.099
G00 X283.244 Y170.95
G00 X283.087 Y170.807
G00 X282.925 Y170.669
G00 X282.759 Y170.536
G00 X282.59 Y170.409
G00 X282.416 Y170.286
G00 X282.238 Y170.17
G00 X282.057 Y170.059
G00 X281.872 Y169.954
G00 X281.684 Y169.855
G00 X281.503 Y169.766
G00 X277.705 Y167.985
G00 X277.511 Y167.898
G00 X277.315 Y167.817
G00 X277.116 Y167.743
G00 X276.915 Y167.674
G00 X276.711 Y167.612
G00 X276.609 Y167.584
G00 X276.57 Y167.573
G00 X276.364 Y167.521
G00 X276.156 Y167.476
G00 X275.882 Y167.426
G00 X271.654 Y166.754
G00 X271.421 Y166.721
;Nearing path end, moving to preshutoff position
G00 X269.01 Y166.425
M107 ;Pump off
G00 X260.467 Y165.374
G00 X260.256 Y165.351
G4 P250 ;Pause for 250 milliseconds
;Completed path #11/12 on color #1
;Starting fill path #12/12, segments: 18, length: 23, color #1
G00 X316.797 Y137.503
M106 ;Pump on
G4 P350 ;Pause for 350 milliseconds
;Very short path, early shutoff without move
M107 ;Pump off
G00 X316.825 Y137.415
G00 X316.881 Y137.21
G00 X316.931 Y137.003
G00 X316.974 Y136.795
G00 X317.01 Y136.586
G00 X317.04 Y136.376
G00 X317.063 Y136.164
G00 X317.08 Y135.952
G00 X317.089 Y135.74
G00 X317.092 Y135.547
G00 X317.092 Y135.543
G00 X317.088 Y135.331
G00 X317.078 Y135.119
G00 X317.061 Y134.907
G00 X317.047 Y134.776
G00 X319.218 Y135.995
G00 X316.797 Y137.503
G4 P250 ;Pause for 250 milliseconds
;Completed path #12/12 on color #1
;PancakePainter Footer Start
G4 P1000 ;Pause for 1000 milliseconds
G00 X1 Y1 ;Help homing
G28 X0 Y0 ;Home All Axis
M84 ;Motors off
;PancakePainter Footer Complete
