;PancakePainter v1.4.0 GCODE header start
;Originally generated @ Wed Dec 04 2019 08:38:54 GMT-0600 (Central Standard Time)
;Settings used to generate this file:
;----------------------------------------
;botSpeed: 4620
;flattenResolution: 3
;lineEndPreShutoff: 25
;startWait: 350
;endWait: 250
;shadeChangeWait: 15
;useLineFill: false
;useShortest: true
;shapeFillWidth: 6.9
;fillSpacing: 10
;fillAngle: 23
;fillGroupThreshold: 27
;useColorSpeed: false
;botColorSpeed: 6600,5280,5280,3300
;----------------------------------------
W1 X42 Y210 L485 T0 ;Define Workspace of this file
G21 ;Set units to MM
G1 F4620 ;Set Speed
M107 ;Pump off
G4 P1000 ;Pause for 1000 milliseconds
M84 ;Motors off
G00 X1 Y1 ;Help homing
G28 X0 Y0 ;Home All Axis
;PancakePainter header complete
;Starting fill path #1/71, segments: 2387, length: 6116, color #4
G00 X176.45 Y123.819
M106 ;Pump on
G4 P350 ;Pause for 350 milliseconds
G00 X176.718 Y124.045
G00 X176.981 Y124.262
G00 X177.381 Y124.587
G00 X177.64 Y124.793
G00 X177.933 Y125.022
G00 X178.2 Y125.226
G00 X178.644 Y125.56
G00 X178.958 Y125.79
G00 X179.257 Y126.005
G00 X179.521 Y126.19
G00 X179.947 Y126.485
G00 X180.262 Y126.698
G00 X180.534 Y126.879
G00 X180.82 Y127.065
G00 X181.235 Y127.329
G00 X181.523 Y127.509
G00 X181.84 Y127.702
G00 X182.168 Y127.898
G00 X182.671 Y128.191
G00 X182.955 Y128.353
G00 X183.245 Y128.514
G00 X183.572 Y128.693
G00 X184.058 Y128.952
G00 X184.365 Y129.111
G00 X184.66 Y129.261
G00 X184.981 Y129.42
G00 X185.451 Y129.648
G00 X185.777 Y129.802
G00 X186.096 Y129.949
G00 X186.412 Y130.091
G00 X186.915 Y130.312
G00 X187.235 Y130.448
G00 X187.546 Y130.577
G00 X187.867 Y130.707
G00 X188.339 Y130.893
G00 X188.664 Y131.017
G00 X189.004 Y131.144
G00 X189.364 Y131.273
G00 X189.916 Y131.466
G00 X190.237 Y131.574
G00 X190.539 Y131.673
G00 X190.895 Y131.786
G00 X191.406 Y131.942
G00 X191.677 Y132.022
G00 X191.991 Y132.112
G00 X192.361 Y132.215
G00 X192.893 Y132.357
G00 X193.266 Y132.452
G00 X193.612 Y132.537
G00 X193.942 Y132.614
G00 X194.451 Y132.728
G00 X194.769 Y132.796
G00 X195.116 Y132.868
G00 X195.47 Y132.937
G00 X196.009 Y133.037
G00 X196.367 Y133.099
G00 X196.707 Y133.155
G00 X197.055 Y133.209
G00 X197.573 Y133.284
G00 X197.953 Y133.336
G00 X198.306 Y133.38
G00 X198.619 Y133.416
G00 X198.645 Y133.418
G00 X203.5 Y135.623
G00 X203.811 Y135.76
G00 X204.126 Y135.895
G00 X204.46 Y136.035
G00 X204.979 Y136.247
G00 X205.325 Y136.384
G00 X205.659 Y136.512
G00 X206.013 Y136.644
G00 X206.536 Y136.832
G00 X206.829 Y136.935
G00 X207.179 Y137.054
G00 X207.495 Y137.158
G00 X208.011 Y137.323
G00 X208.332 Y137.421
G00 X208.687 Y137.527
G00 X209.002 Y137.618
G00 X209.416 Y137.733
G00 X210.625 Y138.185
G00 X211.035 Y138.332
G00 X211.359 Y138.445
G00 X211.671 Y138.551
G00 X212.157 Y138.711
G00 X212.452 Y138.805
G00 X212.797 Y138.912
G00 X213.157 Y139.019
G00 X213.271 Y139.052
G00 X213.305 Y139.234
G00 X213.379 Y139.61
G00 X213.492 Y140.155
G00 X213.563 Y140.477
G00 X213.643 Y140.829
G00 X213.724 Y141.168
G00 X213.857 Y141.704
G00 X213.958 Y142.09
G00 X214.051 Y142.432
G00 X214.138 Y142.741
G00 X214.281 Y143.235
G00 X214.366 Y143.517
G00 X214.466 Y143.839
G00 X214.586 Y144.214
G00 X214.768 Y144.763
G00 X214.881 Y145.089
G00 X214.999 Y145.423
G00 X215.118 Y145.75
G00 X215.313 Y146.267
G00 X215.44 Y146.594
G00 X215.518 Y146.792
G00 X176.402 Y147.014
G00 X176.402 Y123.778
G00 X176.45 Y123.819
G00 X182.389 Y116.793
G00 X182.586 Y116.959
G00 X182.786 Y117.124
G00 X183.118 Y117.394
G00 X183.312 Y117.549
G00 X183.525 Y117.716
G00 X183.738 Y117.879
G00 X184.098 Y118.151
G00 X184.33 Y118.322
G00 X184.554 Y118.482
G00 X184.762 Y118.629
G00 X185.116 Y118.874
G00 X185.343 Y119.028
G00 X185.56 Y119.172
G00 X185.769 Y119.308
G00 X186.12 Y119.532
G00 X186.331 Y119.665
G00 X186.562 Y119.806
G00 X186.811 Y119.955
G00 X187.222 Y120.195
G00 X187.445 Y120.322
G00 X187.665 Y120.445
G00 X187.906 Y120.577
G00 X188.304 Y120.79
G00 X188.538 Y120.911
G00 X188.765 Y121.027
G00 X189.001 Y121.145
G00 X189.394 Y121.336
G00 X189.633 Y121.449
G00 X189.875 Y121.561
G00 X190.118 Y121.67
G00 X190.524 Y121.849
G00 X190.768 Y121.953
G00 X191.007 Y122.052
G00 X191.245 Y122.149
G00 X191.642 Y122.306
G00 X191.882 Y122.398
G00 X192.133 Y122.492
G00 X192.405 Y122.59
G00 X192.854 Y122.747
G00 X193.105 Y122.832
G00 X193.34 Y122.909
G00 X193.596 Y122.991
G00 X194.013 Y123.119
G00 X194.233 Y123.184
G00 X194.468 Y123.252
G00 X194.737 Y123.327
G00 X195.182 Y123.446
G00 X195.456 Y123.516
G00 X195.716 Y123.58
G00 X195.968 Y123.639
G00 X196.388 Y123.734
G00 X196.63 Y123.786
G00 X196.888 Y123.839
G00 X197.155 Y123.892
G00 X197.601 Y123.975
G00 X197.865 Y124.021
G00 X198.128 Y124.065
G00 X198.388 Y124.105
G00 X198.825 Y124.169
G00 X199.099 Y124.207
G00 X199.366 Y124.24
G00 X199.608 Y124.268
G00 X200.018 Y124.313
G00 X200.279 Y124.339
G00 X200.546 Y124.363
G00 X200.825 Y124.385
G00 X201.05 Y124.4
G00 X201.131 Y124.438
G00 X201.487 Y124.604
G00 X207.197 Y127.198
G00 X207.461 Y127.314
G00 X207.695 Y127.415
G00 X207.948 Y127.521
G00 X208.369 Y127.694
G00 X208.632 Y127.799
G00 X208.88 Y127.894
G00 X209.143 Y127.992
G00 X209.576 Y128.149
G00 X209.805 Y128.229
G00 X210.057 Y128.315
G00 X210.306 Y128.397
G00 X210.724 Y128.531
G00 X210.977 Y128.609
G00 X211.228 Y128.685
G00 X211.477 Y128.756
G00 X211.895 Y128.873
G00 X212.161 Y128.945
G00 X212.231 Y128.963
G00 X213.737 Y129.527
G00 X214.079 Y129.65
G00 X214.32 Y129.734
G00 X214.558 Y129.815
G00 X214.954 Y129.946
G00 X215.183 Y130.019
G00 X215.435 Y130.097
G00 X215.706 Y130.179
G00 X216.159 Y130.309
G00 X216.427 Y130.384
G00 X216.669 Y130.448
G00 X216.922 Y130.513
G00 X217.342 Y130.617
G00 X217.596 Y130.677
G00 X217.859 Y130.737
G00 X218.098 Y130.788
G00 X218.505 Y130.873
G00 X218.774 Y130.927
G00 X219.035 Y130.976
G00 X219.302 Y131.023
G00 X219.746 Y131.098
G00 X220.004 Y131.139
G00 X220.245 Y131.174
G00 X220.426 Y131.2
G00 X220.773 Y131.246
G00 X221.06 Y131.282
G00 X221.293 Y131.308
G00 X221.547 Y131.335
G00 X221.762 Y131.356
G00 X221.762 Y131.358
G00 X221.763 Y131.623
G00 X221.768 Y132.065
G00 X221.774 Y132.329
G00 X221.784 Y132.61
G00 X221.795 Y132.876
G00 X221.818 Y133.317
G00 X221.833 Y133.565
G00 X221.852 Y133.826
G00 X221.873 Y134.085
G00 X221.911 Y134.521
G00 X221.939 Y134.801
G00 X221.969 Y135.07
G00 X222.001 Y135.337
G00 X222.058 Y135.781
G00 X222.093 Y136.032
G00 X222.131 Y136.287
G00 X222.172 Y136.544
G00 X222.243 Y136.971
G00 X222.288 Y137.22
G00 X222.334 Y137.469
G00 X222.388 Y137.743
G00 X222.48 Y138.19
G00 X222.535 Y138.441
G00 X222.593 Y138.698
G00 X222.656 Y138.961
G00 X222.765 Y139.402
G00 X222.838 Y139.686
G00 X222.909 Y139.946
G00 X222.976 Y140.186
G00 X223.091 Y140.584
G00 X223.158 Y140.807
G00 X223.233 Y141.05
G00 X223.321 Y141.324
G00 X223.469 Y141.773
G00 X223.556 Y142.025
G00 X223.644 Y142.274
G00 X223.736 Y142.526
G00 X223.892 Y142.945
G00 X223.989 Y143.196
G00 X224.085 Y143.437
G00 X224.176 Y143.66
G00 X224.333 Y144.036
G00 X224.436 Y144.277
G00 X224.548 Y144.531
G00 X224.661 Y144.78
G00 X224.852 Y145.192
G00 X224.965 Y145.43
G00 X225.081 Y145.667
G00 X225.206 Y145.916
G00 X225.416 Y146.326
G00 X225.538 Y146.559
G00 X225.66 Y146.785
G00 X225.786 Y147.015
G00 X226.001 Y147.398
G00 X226.142 Y147.643
G00 X226.279 Y147.876
G00 X226.411 Y148.095
G00 X226.635 Y148.46
G00 X226.768 Y148.671
G00 X226.909 Y148.892
G00 X227.049 Y149.107
G00 X227.288 Y149.466
G00 X227.44 Y149.688
G00 X227.592 Y149.909
G00 X227.75 Y150.13
G00 X228.015 Y150.497
G00 X228.178 Y150.718
G00 X228.337 Y150.928
G00 X228.501 Y151.141
G00 X228.776 Y151.492
G00 X228.938 Y151.693
G00 X229.1 Y151.892
G00 X229.266 Y152.091
G00 X229.543 Y152.418
G00 X229.705 Y152.606
G00 X229.879 Y152.803
G00 X230.069 Y153.014
G00 X230.383 Y153.357
G00 X230.555 Y153.54
G00 X230.736 Y153.731
G00 X230.921 Y153.922
G00 X231.235 Y154.239
G00 X231.439 Y154.441
G00 X231.621 Y154.618
G00 X231.801 Y154.79
G00 X232.105 Y155.075
G00 X232.301 Y155.255
G00 X232.51 Y155.443
G00 X232.713 Y155.622
G00 X233.054 Y155.918
G00 X233.099 Y155.955
G00 X229.9 Y155.957
G00 X229.049 Y155.949
G00 X228.704 Y155.949
G00 X228.432 Y155.951
G00 X228.158 Y155.957
G00 X228.106 Y155.958
G00 X220.651 Y155.963
G00 X167.202 Y156.267
G00 X167.202 Y53.828
G00 X170.785 Y53.898
G00 X200.007 Y56.6
G00 X199.71 Y56.713
G00 X199.473 Y56.805
G00 X199.241 Y56.898
G00 X198.991 Y57
G00 X198.58 Y57.173
G00 X198.329 Y57.282
G00 X198.092 Y57.387
G00 X197.85 Y57.497
G00 X197.451 Y57.684
G00 X197.222 Y57.794
G00 X196.985 Y57.91
G00 X196.747 Y58.03
G00 X196.351 Y58.234
G00 X196.115 Y58.358
G00 X195.876 Y58.487
G00 X195.644 Y58.616
G00 X195.255 Y58.836
G00 X195.01 Y58.977
G00 X194.784 Y59.111
G00 X194.568 Y59.242
G00 X194.211 Y59.462
G00 X194.007 Y59.59
G00 X193.786 Y59.733
G00 X193.552 Y59.886
G00 X193.167 Y60.144
G00 X192.942 Y60.298
G00 X192.717 Y60.456
G00 X192.501 Y60.611
G00 X192.143 Y60.872
G00 X191.932 Y61.029
G00 X191.729 Y61.183
G00 X191.519 Y61.345
G00 X191.174 Y61.618
G00 X190.966 Y61.785
G00 X190.869 Y61.865
G00 X190.84 Y61.879
G00 X190.602 Y61.998
G00 X190.346 Y62.129
G00 X189.927 Y62.349
G00 X189.697 Y62.474
G00 X189.469 Y62.599
G00 X189.253 Y62.72
G00 X188.887 Y62.931
G00 X188.636 Y63.078
G00 X188.403 Y63.218
G00 X188.186 Y63.351
G00 X187.822 Y63.579
G00 X187.599 Y63.722
G00 X187.382 Y63.865
G00 X187.162 Y64.011
G00 X186.798 Y64.259
G00 X186.576 Y64.413
G00 X186.375 Y64.556
G00 X186.208 Y64.677
G00 X185.923 Y64.886
G00 X185.675 Y65.072
G00 X185.371 Y65.307
G00 X185.115 Y65.507
G00 X184.958 Y65.632
G00 X184.7 Y65.841
G00 X184.555 Y65.96
G00 X182.555 Y67.62
G00 X182.296 Y67.841
G00 X182.099 Y68.011
G00 X181.91 Y68.177
G00 X181.597 Y68.458
G00 X181.405 Y68.634
G00 X181.209 Y68.817
G00 X181.001 Y69.015
G00 X180.661 Y69.345
G00 X180.469 Y69.535
G00 X180.287 Y69.719
G00 X180.115 Y69.897
G00 X179.827 Y70.198
G00 X179.646 Y70.391
G00 X179.458 Y70.596
G00 X179.279 Y70.796
G00 X178.981 Y71.133
G00 X178.806 Y71.334
G00 X178.643 Y71.526
G00 X178.461 Y71.744
G00 X178.167 Y72.105
G00 X178.001 Y72.313
G00 X177.835 Y72.524
G00 X177.69 Y72.714
G00 X177.448 Y73.035
G00 X177.297 Y73.238
G00 X177.138 Y73.457
G00 X176.984 Y73.673
G00 X176.726 Y74.042
G00 X176.561 Y74.283
G00 X176.41 Y74.511
G00 X176.267 Y74.73
G00 X176.029 Y75.101
G00 X175.884 Y75.332
G00 X175.747 Y75.555
G00 X175.612 Y75.781
G00 X175.394 Y76.152
G00 X175.284 Y76.343
G00 X175.155 Y76.573
G00 X175.019 Y76.819
G00 X174.798 Y77.229
G00 X174.669 Y77.475
G00 X174.557 Y77.694
G00 X174.437 Y77.933
G00 X174.245 Y78.325
G00 X174.139 Y78.547
G00 X174.024 Y78.794
G00 X173.909 Y79.049
G00 X173.721 Y79.473
G00 X173.613 Y79.724
G00 X173.517 Y79.953
G00 X173.42 Y80.19
G00 X173.264 Y80.582
G00 X173.173 Y80.818
G00 X173.093 Y81.031
G00 X173.023 Y81.22
G00 X172.905 Y81.546
G00 X172.819 Y81.795
G00 X172.73 Y82.057
G00 X172.648 Y82.307
G00 X172.569 Y82.552
G00 X172.445 Y82.955
G00 X172.381 Y83.17
G00 X172.31 Y83.411
G00 X172.237 Y83.672
G00 X172.121 Y84.101
G00 X172.055 Y84.356
G00 X171.992 Y84.607
G00 X171.93 Y84.867
G00 X171.83 Y85.302
G00 X171.769 Y85.579
G00 X171.712 Y85.856
G00 X171.66 Y86.118
G00 X171.578 Y86.557
G00 X171.533 Y86.812
G00 X171.489 Y87.073
G00 X171.448 Y87.335
G00 X171.382 Y87.773
G00 X171.346 Y88.039
G00 X171.312 Y88.297
G00 X171.283 Y88.545
G00 X171.237 Y88.963
G00 X171.21 Y89.226
G00 X171.186 Y89.488
G00 X171.164 Y89.761
G00 X171.132 Y90.21
G00 X171.117 Y90.462
G00 X171.103 Y90.725
G00 X171.092 Y90.99
G00 X171.077 Y91.432
G00 X171.071 Y91.697
G00 X171.067 Y91.963
G00 X171.066 Y92.239
G00 X171.068 Y92.701
G00 X171.073 Y92.986
G00 X171.08 Y93.245
G00 X171.089 Y93.501
G00 X171.108 Y93.924
G00 X171.121 Y94.169
G00 X171.138 Y94.433
G00 X171.157 Y94.697
G00 X171.193 Y95.138
G00 X171.217 Y95.401
G00 X171.245 Y95.671
G00 X171.273 Y95.925
G00 X171.325 Y96.357
G00 X171.362 Y96.639
G00 X171.401 Y96.914
G00 X171.44 Y97.169
G00 X171.509 Y97.599
G00 X171.555 Y97.872
G00 X171.602 Y98.134
G00 X171.649 Y98.378
G00 X171.731 Y98.791
G00 X171.786 Y99.054
G00 X171.845 Y99.318
G00 X171.906 Y99.585
G00 X172.012 Y100.027
G00 X172.075 Y100.276
G00 X172.144 Y100.54
G00 X172.213 Y100.793
G00 X172.331 Y101.214
G00 X172.404 Y101.462
G00 X172.48 Y101.716
G00 X172.559 Y101.967
G00 X172.693 Y102.384
G00 X172.778 Y102.636
G00 X172.858 Y102.87
G00 X172.949 Y103.129
G00 X173.105 Y103.555
G00 X173.202 Y103.811
G00 X173.3 Y104.065
G00 X173.404 Y104.324
G00 X173.58 Y104.751
G00 X173.68 Y104.986
G00 X173.78 Y105.217
G00 X173.881 Y105.444
G00 X174.051 Y105.818
G00 X174.161 Y106.053
G00 X174.332 Y106.409
G00 X174.485 Y106.719
G00 X174.632 Y107.008
G00 X174.737 Y107.209
G00 X174.85 Y107.424
G00 X174.975 Y107.655
G00 X175.183 Y108.032
G00 X175.31 Y108.257
G00 X175.445 Y108.491
G00 X175.583 Y108.723
G00 X175.814 Y109.107
G00 X175.951 Y109.329
G00 X176.094 Y109.556
G00 X176.239 Y109.781
G00 X176.485 Y110.155
G00 X176.633 Y110.375
G00 X176.783 Y110.594
G00 X176.93 Y110.804
G00 X177.178 Y111.152
G00 X177.329 Y111.359
G00 X177.487 Y111.572
G00 X177.647 Y111.783
G00 X177.916 Y112.133
G00 X178.08 Y112.34
G00 X178.243 Y112.543
G00 X178.419 Y112.758
G00 X178.714 Y113.111
G00 X178.889 Y113.316
G00 X179.063 Y113.516
G00 X179.229 Y113.702
G00 X179.513 Y114.018
G00 X179.706 Y114.227
G00 X179.901 Y114.435
G00 X180.082 Y114.622
G00 X180.389 Y114.937
G00 X180.585 Y115.134
G00 X180.766 Y115.313
G00 X180.959 Y115.499
G00 X181.276 Y115.799
G00 X181.444 Y115.955
G00 X181.635 Y116.129
G00 X181.84 Y116.314
G00 X182.183 Y116.615
G00 X182.389 Y116.793
G00 X188.335 Y109.771
G00 X188.469 Y109.885
G00 X188.6 Y109.994
G00 X188.863 Y110.208
G00 X188.994 Y110.313
G00 X189.133 Y110.423
G00 X189.277 Y110.533
G00 X189.57 Y110.754
G00 X189.72 Y110.865
G00 X189.863 Y110.968
G00 X190.007 Y111.07
G00 X190.297 Y111.271
G00 X190.442 Y111.371
G00 X190.589 Y111.468
G00 X190.729 Y111.56
G00 X191.009 Y111.739
G00 X191.15 Y111.827
G00 X191.301 Y111.92
G00 X191.465 Y112.019
G00 X191.786 Y112.207
G00 X191.943 Y112.296
G00 X192.097 Y112.383
G00 X192.25 Y112.467
G00 X192.563 Y112.635
G00 X192.723 Y112.718
G00 X192.88 Y112.798
G00 X193.033 Y112.875
G00 X193.346 Y113.027
G00 X193.505 Y113.103
G00 X193.665 Y113.177
G00 X193.828 Y113.251
G00 X194.153 Y113.394
G00 X194.315 Y113.464
G00 X194.478 Y113.532
G00 X194.635 Y113.596
G00 X194.952 Y113.722
G00 X195.112 Y113.783
G00 X195.278 Y113.845
G00 X195.456 Y113.91
G00 X195.809 Y114.034
G00 X195.983 Y114.093
G00 X196.15 Y114.148
G00 X196.312 Y114.2
G00 X196.632 Y114.299
G00 X196.79 Y114.346
G00 X196.96 Y114.395
G00 X197.127 Y114.442
G00 X197.479 Y114.537
G00 X197.662 Y114.584
G00 X197.834 Y114.627
G00 X198.004 Y114.667
G00 X198.339 Y114.743
G00 X198.502 Y114.778
G00 X198.675 Y114.814
G00 X198.851 Y114.849
G00 X199.205 Y114.915
G00 X199.383 Y114.947
G00 X199.557 Y114.976
G00 X199.731 Y115.004
G00 X200.085 Y115.056
G00 X200.264 Y115.08
G00 X200.439 Y115.103
G00 X200.606 Y115.122
G00 X200.941 Y115.159
G00 X201.109 Y115.176
G00 X201.285 Y115.192
G00 X201.47 Y115.207
G00 X201.841 Y115.233
G00 X202.027 Y115.244
G00 X202.204 Y115.253
G00 X202.359 Y115.259
G00 X202.668 Y115.269
G00 X202.82 Y115.273
G00 X203.053 Y115.277
G00 X203.266 Y115.278
G00 X203.434 Y115.278
G00 X203.461 Y115.293
G00 X203.765 Y115.462
G00 X203.922 Y115.548
G00 X204.078 Y115.631
G00 X204.194 Y115.692
G00 X204.416 Y115.806
G00 X204.575 Y115.886
G00 X204.764 Y115.978
G00 X205.025 Y116.103
G00 X205.293 Y116.228
G00 X210.904 Y118.778
G00 X211.117 Y118.871
G00 X211.278 Y118.941
G00 X211.441 Y119.01
G00 X211.778 Y119.148
G00 X211.952 Y119.218
G00 X212.116 Y119.281
G00 X212.289 Y119.346
G00 X212.625 Y119.469
G00 X212.788 Y119.526
G00 X212.955 Y119.583
G00 X213.123 Y119.639
G00 X213.458 Y119.746
G00 X213.625 Y119.799
G00 X213.794 Y119.849
G00 X213.96 Y119.897
G00 X214.298 Y119.992
G00 X214.471 Y120.039
G00 X214.642 Y120.083
G00 X214.804 Y120.124
G00 X214.968 Y120.163
G00 X216.859 Y120.873
G00 X217.131 Y120.97
G00 X217.297 Y121.029
G00 X217.454 Y121.083
G00 X217.766 Y121.186
G00 X217.922 Y121.236
G00 X218.091 Y121.289
G00 X218.268 Y121.342
G00 X218.627 Y121.446
G00 X218.808 Y121.497
G00 X218.979 Y121.542
G00 X219.141 Y121.584
G00 X219.473 Y121.667
G00 X219.644 Y121.708
G00 X219.816 Y121.747
G00 X219.981 Y121.783
G00 X220.316 Y121.853
G00 X220.487 Y121.887
G00 X220.66 Y121.92
G00 X220.837 Y121.952
G00 X221.19 Y122.012
G00 X221.364 Y122.039
G00 X221.539 Y122.065
G00 X221.663 Y122.083
G00 X221.91 Y122.116
G00 X222.1 Y122.14
G00 X222.282 Y122.161
G00 X222.457 Y122.18
G00 X222.624 Y122.196
G00 X222.96 Y122.227
G00 X223.129 Y122.24
G00 X223.305 Y122.253
G00 X223.482 Y122.263
G00 X223.835 Y122.282
G00 X224.011 Y122.289
G00 X224.188 Y122.295
G00 X224.364 Y122.299
G00 X224.717 Y122.304
G00 X224.893 Y122.304
G00 X225.07 Y122.303
G00 X225.247 Y122.301
G00 X225.6 Y122.292
G00 X225.776 Y122.286
G00 X225.952 Y122.278
G00 X226.12 Y122.269
G00 X226.192 Y122.265
G00 X227.01 Y123.073
G00 X231.208 Y128.082
G00 X231.171 Y128.34
G00 X231.147 Y128.518
G00 X231.126 Y128.693
G00 X231.106 Y128.87
G00 X231.069 Y129.225
G00 X231.052 Y129.402
G00 X231.037 Y129.578
G00 X231.023 Y129.761
G00 X231.001 Y130.113
G00 X230.991 Y130.281
G00 X230.983 Y130.458
G00 X230.977 Y130.626
G00 X230.967 Y130.979
G00 X230.964 Y131.164
G00 X230.962 Y131.34
G00 X230.963 Y131.517
G00 X230.967 Y131.87
G00 X230.97 Y132.047
G00 X230.976 Y132.223
G00 X230.984 Y132.408
G00 X231.002 Y132.761
G00 X231.012 Y132.929
G00 X231.024 Y133.105
G00 X231.037 Y133.278
G00 X231.069 Y133.631
G00 X231.086 Y133.812
G00 X231.105 Y133.988
G00 X231.127 Y134.168
G00 X231.172 Y134.52
G00 X231.195 Y134.691
G00 X231.221 Y134.866
G00 X231.247 Y135.035
G00 X231.304 Y135.373
G00 X231.333 Y135.542
G00 X231.366 Y135.715
G00 X231.4 Y135.89
G00 X231.471 Y136.239
G00 X231.509 Y136.414
G00 X231.548 Y136.586
G00 X231.589 Y136.76
G00 X231.677 Y137.117
G00 X231.724 Y137.301
G00 X231.77 Y137.471
G00 X231.816 Y137.636
G00 X231.908 Y137.953
G00 X231.953 Y138.105
G00 X232.005 Y138.274
G00 X232.06 Y138.448
G00 X232.175 Y138.798
G00 X232.235 Y138.973
G00 X232.294 Y139.14
G00 X232.354 Y139.307
G00 X232.479 Y139.642
G00 X232.544 Y139.809
G00 X232.609 Y139.973
G00 X232.67 Y140.123
G00 X232.797 Y140.429
G00 X232.863 Y140.585
G00 X232.934 Y140.747
G00 X233.011 Y140.917
G00 X233.164 Y141.247
G00 X233.24 Y141.407
G00 X233.317 Y141.566
G00 X233.398 Y141.73
G00 X233.564 Y142.053
G00 X233.647 Y142.213
G00 X233.731 Y142.368
G00 X233.813 Y142.519
G00 X233.986 Y142.828
G00 X234.077 Y142.987
G00 X234.167 Y143.14
G00 X234.257 Y143.29
G00 X234.436 Y143.582
G00 X234.525 Y143.724
G00 X234.619 Y143.872
G00 X234.713 Y144.016
G00 X234.905 Y144.305
G00 X235.004 Y144.451
G00 X235.105 Y144.597
G00 X235.209 Y144.745
G00 X235.422 Y145.039
G00 X235.53 Y145.186
G00 X235.636 Y145.327
G00 X235.744 Y145.468
G00 X235.962 Y145.746
G00 X236.072 Y145.883
G00 X236.183 Y146.02
G00 X236.291 Y146.151
G00 X236.51 Y146.409
G00 X236.621 Y146.537
G00 X236.737 Y146.67
G00 X236.86 Y146.808
G00 X237.105 Y147.075
G00 X237.226 Y147.205
G00 X237.347 Y147.333
G00 X237.47 Y147.459
G00 X237.724 Y147.717
G00 X237.856 Y147.848
G00 X237.982 Y147.971
G00 X238.1 Y148.084
G00 X238.345 Y148.314
G00 X238.473 Y148.432
G00 X238.604 Y148.55
G00 X238.744 Y148.674
G00 X239.018 Y148.913
G00 X239.153 Y149.027
G00 X239.288 Y149.14
G00 X239.429 Y149.256
G00 X239.713 Y149.483
G00 X239.856 Y149.595
G00 X239.996 Y149.703
G00 X240.127 Y149.802
G00 X240.39 Y149.998
G00 X240.524 Y150.095
G00 X240.667 Y150.197
G00 X240.813 Y150.299
G00 X241.116 Y150.507
G00 X241.273 Y150.612
G00 X241.42 Y150.709
G00 X241.57 Y150.805
G00 X241.864 Y150.99
G00 X242.01 Y151.08
G00 X242.161 Y151.171
G00 X242.326 Y151.268
G00 X242.649 Y151.454
G00 X242.806 Y151.542
G00 X242.961 Y151.627
G00 X243.103 Y151.704
G00 X243.397 Y151.858
G00 X243.548 Y151.936
G00 X243.705 Y152.015
G00 X243.864 Y152.093
G00 X244.191 Y152.25
G00 X244.289 Y152.296
G00 X244.249 Y152.411
G00 X244.18 Y152.617
G00 X240.462 Y163.944
G00 X240.379 Y164.079
G00 X240.284 Y164.235
G00 X240.103 Y164.543
G00 X240.015 Y164.694
G00 X239.928 Y164.848
G00 X239.845 Y164.997
G00 X239.762 Y165.152
G00 X229.841 Y165.158
G00 X229.037 Y165.149
G00 X228.775 Y165.149
G00 X228.599 Y165.15
G00 X228.411 Y165.154
G00 X228.239 Y165.158
G00 X220.704 Y165.163
G00 X158.001 Y165.519
G00 X158.001 Y44.449
G00 X171.3 Y44.705
G00 X205.13 Y47.834
G00 X211.31 Y49.838
G00 X211.576 Y49.921
G00 X211.745 Y49.972
G00 X211.911 Y50.021
G00 X212.244 Y50.115
G00 X212.412 Y50.161
G00 X212.583 Y50.205
G00 X212.758 Y50.249
G00 X213.111 Y50.334
G00 X213.291 Y50.376
G00 X213.463 Y50.414
G00 X213.631 Y50.449
G00 X213.967 Y50.516
G00 X214.135 Y50.549
G00 X214.309 Y50.58
G00 X214.484 Y50.61
G00 X214.837 Y50.667
G00 X215.014 Y50.694
G00 X215.189 Y50.719
G00 X215.359 Y50.741
G00 X215.694 Y50.782
G00 X215.858 Y50.801
G00 X216.034 Y50.819
G00 X216.221 Y50.837
G00 X216.593 Y50.868
G00 X216.779 Y50.881
G00 X217.075 Y50.899
G00 X217.324 Y50.912
G00 X217.542 Y50.92
G00 X217.811 Y50.927
G00 X218.074 Y50.931
G00 X218.216 Y50.932
G00 X218.484 Y50.933
G00 X218.61 Y50.932
G00 X226.227 Y50.838
G00 X228.985 Y51.901
G00 X228.977 Y51.915
G00 X228.883 Y52.065
G00 X228.785 Y52.225
G00 X228.595 Y52.545
G00 X228.502 Y52.704
G00 X228.414 Y52.858
G00 X228.332 Y53.005
G00 X228.17 Y53.303
G00 X228.089 Y53.454
G00 X228.008 Y53.61
G00 X227.927 Y53.768
G00 X227.769 Y54.087
G00 X227.691 Y54.246
G00 X227.616 Y54.406
G00 X227.538 Y54.575
G00 X227.386 Y54.913
G00 X227.312 Y55.083
G00 X227.243 Y55.246
G00 X227.181 Y55.393
G00 X227.062 Y55.688
G00 X227.004 Y55.835
G00 X226.9 Y56.107
G00 X226.813 Y56.341
G00 X226.746 Y56.528
G00 X226.682 Y56.714
G00 X226.625 Y56.882
G00 X226.569 Y57.055
G00 X226.463 Y57.39
G00 X226.413 Y57.552
G00 X226.363 Y57.722
G00 X226.316 Y57.889
G00 X226.308 Y57.915
G00 X226.255 Y57.928
G00 X226.092 Y57.969
G00 X225.921 Y58.015
G00 X225.742 Y58.064
G00 X225.388 Y58.165
G00 X225.212 Y58.217
G00 X225.043 Y58.269
G00 X224.889 Y58.318
G00 X224.571 Y58.422
G00 X224.407 Y58.477
G00 X224.24 Y58.535
G00 X224.073 Y58.595
G00 X223.738 Y58.719
G00 X223.569 Y58.783
G00 X223.405 Y58.847
G00 X223.236 Y58.915
G00 X222.906 Y59.052
G00 X222.745 Y59.121
G00 X222.583 Y59.191
G00 X222.423 Y59.263
G00 X222.101 Y59.411
G00 X221.938 Y59.488
G00 X221.779 Y59.565
G00 X221.62 Y59.644
G00 X221.304 Y59.805
G00 X221.146 Y59.887
G00 X220.99 Y59.97
G00 X220.833 Y60.055
G00 X220.525 Y60.227
G00 X220.374 Y60.313
G00 X220.131 Y60.455
G00 X219.884 Y60.604
G00 X215.108 Y63.522
G00 X210.002 Y63.791
G00 X209.749 Y63.807
G00 X209.573 Y63.82
G00 X209.389 Y63.835
G00 X209.018 Y63.869
G00 X208.832 Y63.888
G00 X208.656 Y63.907
G00 X208.487 Y63.928
G00 X208.15 Y63.972
G00 X207.983 Y63.995
G00 X207.808 Y64.021
G00 X207.634 Y64.049
G00 X207.281 Y64.109
G00 X207.104 Y64.141
G00 X206.93 Y64.173
G00 X206.76 Y64.208
G00 X206.425 Y64.278
G00 X206.26 Y64.314
G00 X206.088 Y64.353
G00 X205.91 Y64.395
G00 X205.557 Y64.483
G00 X205.381 Y64.529
G00 X205.211 Y64.575
G00 X205.042 Y64.623
G00 X204.709 Y64.719
G00 X204.545 Y64.769
G00 X204.377 Y64.821
G00 X204.206 Y64.876
G00 X203.867 Y64.989
G00 X203.698 Y65.047
G00 X203.532 Y65.106
G00 X203.365 Y65.167
G00 X203.037 Y65.29
G00 X202.875 Y65.353
G00 X202.711 Y65.418
G00 X202.552 Y65.483
G00 X202.225 Y65.62
G00 X202.057 Y65.693
G00 X201.896 Y65.764
G00 X201.737 Y65.836
G00 X201.422 Y65.983
G00 X201.265 Y66.058
G00 X201.107 Y66.136
G00 X200.949 Y66.215
G00 X200.633 Y66.377
G00 X200.475 Y66.46
G00 X200.319 Y66.544
G00 X200.162 Y66.631
G00 X199.845 Y66.809
G00 X199.686 Y66.901
G00 X199.534 Y66.991
G00 X199.389 Y67.078
G00 X199.106 Y67.252
G00 X198.967 Y67.339
G00 X198.818 Y67.435
G00 X198.665 Y67.535
G00 X198.359 Y67.739
G00 X198.207 Y67.843
G00 X198.063 Y67.944
G00 X197.915 Y68.05
G00 X197.626 Y68.26
G00 X197.486 Y68.364
G00 X197.345 Y68.471
G00 X197.209 Y68.575
G00 X196.934 Y68.792
G00 X196.795 Y68.903
G00 X196.658 Y69.015
G00 X196.527 Y69.125
G00 X196.269 Y69.344
G00 X196.142 Y69.454
G00 X196.01 Y69.571
G00 X195.901 Y69.669
G00 X195.87 Y69.682
G00 X195.714 Y69.751
G00 X195.554 Y69.824
G00 X195.399 Y69.895
G00 X195.093 Y70.041
G00 X194.941 Y70.115
G00 X194.783 Y70.193
G00 X194.615 Y70.279
G00 X194.286 Y70.451
G00 X194.126 Y70.538
G00 X193.971 Y70.623
G00 X193.827 Y70.704
G00 X193.524 Y70.877
G00 X193.367 Y70.969
G00 X193.215 Y71.059
G00 X193.066 Y71.151
G00 X192.771 Y71.335
G00 X192.625 Y71.429
G00 X192.477 Y71.525
G00 X192.333 Y71.621
G00 X192.041 Y71.819
G00 X191.894 Y71.921
G00 X191.75 Y72.023
G00 X191.638 Y72.104
G00 X191.436 Y72.252
G00 X191.279 Y72.369
G00 X191.042 Y72.551
G00 X190.836 Y72.712
G00 X190.733 Y72.795
G00 X190.53 Y72.958
G00 X190.431 Y73.039
G00 X188.511 Y74.632
G00 X188.307 Y74.806
G00 X188.173 Y74.921
G00 X188.047 Y75.032
G00 X187.795 Y75.258
G00 X187.669 Y75.373
G00 X187.539 Y75.493
G00 X187.402 Y75.624
G00 X187.133 Y75.884
G00 X187.001 Y76.014
G00 X186.877 Y76.139
G00 X186.762 Y76.258
G00 X186.529 Y76.501
G00 X186.411 Y76.626
G00 X186.292 Y76.756
G00 X186.168 Y76.894
G00 X185.928 Y77.165
G00 X185.811 Y77.299
G00 X185.697 Y77.433
G00 X185.582 Y77.571
G00 X185.351 Y77.852
G00 X185.236 Y77.996
G00 X185.127 Y78.135
G00 X185.027 Y78.266
G00 X184.829 Y78.527
G00 X184.731 Y78.658
G00 X184.627 Y78.801
G00 X184.522 Y78.948
G00 X184.312 Y79.249
G00 X184.206 Y79.403
G00 X184.107 Y79.55
G00 X184.009 Y79.7
G00 X183.816 Y80.001
G00 X183.721 Y80.151
G00 X183.629 Y80.302
G00 X183.539 Y80.451
G00 X183.37 Y80.738
G00 X183.291 Y80.875
G00 X183.204 Y81.029
G00 X183.115 Y81.19
G00 X182.939 Y81.516
G00 X182.852 Y81.681
G00 X182.771 Y81.838
G00 X182.695 Y81.989
G00 X182.545 Y82.293
G00 X182.472 Y82.448
G00 X182.397 Y82.608
G00 X182.319 Y82.779
G00 X182.169 Y83.118
G00 X182.096 Y83.286
G00 X182.028 Y83.449
G00 X181.965 Y83.6
G00 X181.841 Y83.911
G00 X181.78 Y84.07
G00 X181.717 Y84.235
G00 X181.673 Y84.353
G00 X181.588 Y84.588
G00 X181.53 Y84.754
G00 X181.463 Y84.951
G00 X181.408 Y85.118
G00 X181.355 Y85.282
G00 X181.257 Y85.597
G00 X181.212 Y85.748
G00 X181.163 Y85.918
G00 X181.116 Y86.084
G00 X181.023 Y86.423
G00 X180.978 Y86.596
G00 X180.935 Y86.767
G00 X180.894 Y86.937
G00 X180.813 Y87.287
G00 X180.773 Y87.468
G00 X180.737 Y87.641
G00 X180.701 Y87.824
G00 X180.634 Y88.178
G00 X180.604 Y88.348
G00 X180.574 Y88.522
G00 X180.547 Y88.696
G00 X180.494 Y89.047
G00 X180.469 Y89.224
G00 X180.447 Y89.399
G00 X180.427 Y89.564
G00 X180.389 Y89.902
G00 X180.371 Y90.073
G00 X180.355 Y90.249
G00 X180.34 Y90.429
G00 X180.315 Y90.782
G00 X180.304 Y90.956
G00 X180.294 Y91.133
G00 X180.286 Y91.308
G00 X180.274 Y91.661
G00 X180.27 Y91.838
G00 X180.267 Y92.014
G00 X180.266 Y92.198
G00 X180.268 Y92.568
G00 X180.271 Y92.756
G00 X180.275 Y92.932
G00 X180.281 Y93.102
G00 X180.295 Y93.437
G00 X180.304 Y93.604
G00 X180.315 Y93.78
G00 X180.327 Y93.956
G00 X180.356 Y94.308
G00 X180.372 Y94.484
G00 X180.389 Y94.659
G00 X180.409 Y94.834
G00 X180.451 Y95.188
G00 X180.474 Y95.368
G00 X180.498 Y95.543
G00 X180.525 Y95.72
G00 X180.581 Y96.073
G00 X180.611 Y96.248
G00 X180.642 Y96.422
G00 X180.674 Y96.588
G00 X180.74 Y96.924
G00 X180.776 Y97.094
G00 X180.813 Y97.267
G00 X180.854 Y97.446
G00 X180.938 Y97.796
G00 X180.98 Y97.966
G00 X181.025 Y98.137
G00 X181.072 Y98.31
G00 X181.166 Y98.648
G00 X181.214 Y98.814
G00 X181.265 Y98.983
G00 X181.317 Y99.151
G00 X181.425 Y99.486
G00 X181.481 Y99.653
G00 X181.538 Y99.82
G00 X181.595 Y99.983
G00 X181.717 Y100.319
G00 X181.782 Y100.492
G00 X181.846 Y100.656
G00 X181.916 Y100.83
G00 X182.054 Y101.167
G00 X182.122 Y101.33
G00 X182.193 Y101.492
G00 X182.258 Y101.64
G00 X182.392 Y101.935
G00 X182.461 Y102.082
G00 X182.589 Y102.35
G00 X182.699 Y102.574
G00 X182.79 Y102.753
G00 X182.876 Y102.919
G00 X182.958 Y103.075
G00 X183.036 Y103.22
G00 X183.199 Y103.517
G00 X183.285 Y103.67
G00 X183.374 Y103.823
G00 X183.466 Y103.98
G00 X183.65 Y104.286
G00 X183.742 Y104.435
G00 X183.836 Y104.585
G00 X183.933 Y104.736
G00 X184.129 Y105.035
G00 X184.228 Y105.183
G00 X184.328 Y105.328
G00 X184.426 Y105.47
G00 X184.625 Y105.749
G00 X184.725 Y105.887
G00 X184.83 Y106.029
G00 X184.937 Y106.17
G00 X185.152 Y106.45
G00 X185.261 Y106.589
G00 X185.371 Y106.727
G00 X185.486 Y106.866
G00 X185.718 Y107.145
G00 X185.837 Y107.285
G00 X185.953 Y107.418
G00 X186.065 Y107.545
G00 X186.298 Y107.804
G00 X186.42 Y107.937
G00 X186.541 Y108.066
G00 X186.668 Y108.199
G00 X186.921 Y108.458
G00 X187.047 Y108.585
G00 X187.172 Y108.708
G00 X187.296 Y108.829
G00 X187.541 Y109.061
G00 X187.661 Y109.173
G00 X187.791 Y109.292
G00 X187.924 Y109.412
G00 X188.196 Y109.651
G00 X188.335 Y109.771
G00 X194.28 Y102.75
G00 X194.415 Y102.864
G00 X194.677 Y103.078
G00 X194.816 Y103.187
G00 X195.109 Y103.408
G00 X195.252 Y103.511
G00 X195.542 Y103.713
G00 X195.689 Y103.811
G00 X195.969 Y103.99
G00 X196.12 Y104.082
G00 X196.441 Y104.271
G00 X196.595 Y104.357
G00 X196.908 Y104.525
G00 X197.065 Y104.605
G00 X197.378 Y104.757
G00 X197.538 Y104.832
G00 X197.863 Y104.975
G00 X198.026 Y105.043
G00 X198.343 Y105.169
G00 X198.508 Y105.231
G00 X198.86 Y105.355
G00 X199.028 Y105.41
G00 X199.348 Y105.509
G00 X199.518 Y105.558
G00 X199.869 Y105.652
G00 X200.04 Y105.695
G00 X200.375 Y105.77
G00 X200.547 Y105.806
G00 X200.901 Y105.873
G00 X201.075 Y105.902
G00 X201.429 Y105.954
G00 X201.604 Y105.976
G00 X201.939 Y106.013
G00 X202.115 Y106.029
G00 X202.486 Y106.055
G00 X202.662 Y106.064
G00 X202.971 Y106.074
G00 X203.116 Y106.076
G00 X203.266 Y106.077
G00 X206.206 Y106.077
G00 X206.469 Y106.283
G00 X206.611 Y106.389
G00 X206.9 Y106.597
G00 X207.046 Y106.697
G00 X207.344 Y106.894
G00 X207.493 Y106.989
G00 X207.791 Y107.17
G00 X207.943 Y107.258
G00 X208.247 Y107.428
G00 X208.403 Y107.511
G00 X208.625 Y107.625
G00 X208.746 Y107.684
G00 X208.925 Y107.77
G00 X209.1 Y107.852
G00 X214.622 Y110.362
G00 X214.773 Y110.429
G00 X214.935 Y110.499
G00 X215.271 Y110.637
G00 X215.436 Y110.701
G00 X215.772 Y110.823
G00 X215.939 Y110.88
G00 X216.274 Y110.988
G00 X216.443 Y111.039
G00 X216.781 Y111.133
G00 X216.952 Y111.178
G00 X217.285 Y111.258
G00 X217.457 Y111.296
G00 X217.597 Y111.323
G00 X220.004 Y112.226
G00 X220.182 Y112.291
G00 X220.349 Y112.35
G00 X220.662 Y112.453
G00 X220.83 Y112.506
G00 X221.189 Y112.61
G00 X221.359 Y112.655
G00 X221.692 Y112.738
G00 X221.864 Y112.777
G00 X222.199 Y112.848
G00 X222.373 Y112.88
G00 X222.725 Y112.94
G00 X222.899 Y112.966
G00 X223.147 Y113
G00 X223.271 Y113.014
G00 X223.446 Y113.033
G00 X223.782 Y113.063
G00 X223.958 Y113.075
G00 X224.311 Y113.094
G00 X224.488 Y113.099
G00 X224.841 Y113.104
G00 X225.017 Y113.103
G00 X225.37 Y113.094
G00 X225.546 Y113.087
G00 X225.883 Y113.066
G00 X226.059 Y113.051
G00 X226.427 Y113.014
G00 X226.603 Y112.993
G00 X226.959 Y112.942
G00 X227.133 Y112.914
G00 X227.467 Y112.854
G00 X227.64 Y112.819
G00 X227.991 Y112.742
G00 X228.163 Y112.701
G00 X228.499 Y112.613
G00 X228.669 Y112.565
G00 X229.021 Y112.459
G00 X229.189 Y112.404
G00 X229.274 Y112.375
G00 X233.783 Y116.832
G00 X239.572 Y123.738
G00 X239.683 Y123.868
G00 X239.798 Y124.002
G00 X240.042 Y124.27
G00 X240.163 Y124.399
G00 X240.407 Y124.648
G00 X240.533 Y124.772
G00 X240.787 Y125.013
G00 X240.917 Y125.132
G00 X241.175 Y125.358
G00 X240.491 Y128.435
G00 X240.453 Y128.613
G00 X240.418 Y128.786
G00 X240.357 Y129.12
G00 X240.329 Y129.294
G00 X240.278 Y129.648
G00 X240.256 Y129.823
G00 X240.219 Y130.178
G00 X240.205 Y130.354
G00 X240.182 Y130.705
G00 X240.174 Y130.882
G00 X240.164 Y131.235
G00 X240.163 Y131.411
G00 X240.167 Y131.764
G00 X240.172 Y131.941
G00 X240.19 Y132.294
G00 X240.202 Y132.47
G00 X240.233 Y132.824
G00 X240.252 Y132.999
G00 X240.297 Y133.351
G00 X240.323 Y133.525
G00 X240.379 Y133.863
G00 X240.411 Y134.037
G00 X240.483 Y134.386
G00 X240.522 Y134.558
G00 X240.61 Y134.916
G00 X240.656 Y135.086
G00 X240.747 Y135.403
G00 X240.799 Y135.572
G00 X240.914 Y135.921
G00 X240.973 Y136.088
G00 X241.098 Y136.423
G00 X241.163 Y136.587
G00 X241.29 Y136.893
G00 X241.361 Y137.054
G00 X241.514 Y137.385
G00 X241.591 Y137.543
G00 X241.756 Y137.867
G00 X241.84 Y138.022
G00 X242.013 Y138.332
G00 X242.103 Y138.484
G00 X242.281 Y138.776
G00 X242.376 Y138.925
G00 X242.569 Y139.214
G00 X242.669 Y139.36
G00 X242.882 Y139.654
G00 X242.988 Y139.795
G00 X243.206 Y140.073
G00 X243.317 Y140.21
G00 X243.536 Y140.469
G00 X243.652 Y140.602
G00 X243.897 Y140.869
G00 X244.018 Y140.997
G00 X244.272 Y141.255
G00 X244.399 Y141.378
G00 X244.644 Y141.608
G00 X244.775 Y141.726
G00 X245.05 Y141.965
G00 X245.185 Y142.078
G00 X245.469 Y142.306
G00 X245.609 Y142.413
G00 X245.873 Y142.609
G00 X246.016 Y142.712
G00 X246.319 Y142.919
G00 X246.467 Y143.016
G00 X246.761 Y143.201
G00 X246.912 Y143.292
G00 X247.235 Y143.478
G00 X247.39 Y143.563
G00 X247.683 Y143.718
G00 X247.841 Y143.797
G00 X248.168 Y143.954
G00 X248.329 Y144.027
G00 X248.641 Y144.162
G00 X248.805 Y144.229
G00 X249.138 Y144.358
G00 X249.304 Y144.419
G00 X249.642 Y144.535
G00 X249.81 Y144.59
G00 X250.146 Y144.691
G00 X250.316 Y144.739
G00 X250.668 Y144.83
G00 X250.84 Y144.871
G00 X251.175 Y144.945
G00 X251.348 Y144.979
G00 X251.685 Y145.04
G00 X251.86 Y145.068
G00 X252.106 Y145.104
G00 X252.234 Y145.12
G00 X252.416 Y145.142
G00 X252.59 Y145.161
G00 X253.2 Y145.222
G00 X254.374 Y145.809
G00 X256.506 Y147.4
G00 X253.47 Y154.08
G00 X253.397 Y154.245
G00 X253.327 Y154.407
G00 X253.195 Y154.729
G00 X253.132 Y154.894
G00 X253.018 Y155.204
G00 X252.969 Y155.346
G00 X252.922 Y155.486
G00 X248.813 Y168.003
G00 X248.794 Y168.03
G00 X248.589 Y168.322
G00 X248.49 Y168.468
G00 X248.296 Y168.769
G00 X248.204 Y168.919
G00 X248.022 Y169.226
G00 X247.935 Y169.38
G00 X247.766 Y169.692
G00 X247.685 Y169.849
G00 X247.528 Y170.168
G00 X247.453 Y170.328
G00 X247.321 Y170.624
G00 X247.251 Y170.786
G00 X247.157 Y171.017
G00 X247.107 Y171.145
G00 X247.045 Y171.31
G00 X246.96 Y171.545
G00 X246.917 Y171.672
G00 X246.848 Y171.881
G00 X246.782 Y172.088
G00 X246.157 Y174.147
G00 X243.827 Y174.349
G00 X229.775 Y174.358
G00 X229.019 Y174.349
G00 X228.846 Y174.349
G00 X228.669 Y174.35
G00 X228.38 Y174.359
G00 X220.756 Y174.364
G00 X148.801 Y174.772
G00 X148.801 Y35.069
G00 X171.815 Y35.513
G00 X206.994 Y38.767
G00 X214.069 Y41.061
G00 X214.241 Y41.115
G00 X214.41 Y41.166
G00 X214.744 Y41.26
G00 X214.914 Y41.305
G00 X215.268 Y41.39
G00 X215.441 Y41.428
G00 X215.777 Y41.496
G00 X215.95 Y41.527
G00 X216.303 Y41.584
G00 X216.478 Y41.609
G00 X216.812 Y41.65
G00 X216.988 Y41.668
G00 X217.36 Y41.699
G00 X217.537 Y41.71
G00 X217.786 Y41.723
G00 X217.964 Y41.728
G00 X218.228 Y41.732
G00 X218.496 Y41.732
G00 X227.885 Y41.616
G00 X237.452 Y45.306
G00 X237.616 Y45.368
G00 X237.781 Y45.428
G00 X238.125 Y45.546
G00 X238.293 Y45.6
G00 X238.625 Y45.699
G00 X238.795 Y45.746
G00 X239.131 Y45.833
G00 X239.303 Y45.874
G00 X239.655 Y45.951
G00 X239.828 Y45.985
G00 X240.165 Y46.045
G00 X240.339 Y46.073
G00 X240.708 Y46.124
G00 X240.883 Y46.144
G00 X241.131 Y46.171
G00 X241.276 Y46.182
G00 X241.517 Y46.2
G00 X241.768 Y46.216
G00 X246.523 Y46.44
G00 X246.624 Y46.607
G00 X247.879 Y50.38
G00 X247.785 Y50.383
G00 X247.609 Y50.393
G00 X247.256 Y50.419
G00 X247.08 Y50.435
G00 X246.711 Y50.477
G00 X246.536 Y50.5
G00 X246.217 Y50.548
G00 X246.043 Y50.578
G00 X245.798 Y50.623
G00 X245.673 Y50.648
G00 X245.5 Y50.685
G00 X245.162 Y50.763
G00 X244.991 Y50.806
G00 X244.656 Y50.897
G00 X244.487 Y50.947
G00 X244.14 Y51.055
G00 X243.973 Y51.111
G00 X243.646 Y51.228
G00 X243.481 Y51.29
G00 X243.149 Y51.423
G00 X242.987 Y51.492
G00 X242.669 Y51.633
G00 X242.509 Y51.708
G00 X242.19 Y51.865
G00 X242.033 Y51.946
G00 X241.721 Y52.115
G00 X241.568 Y52.202
G00 X241.26 Y52.384
G00 X241.11 Y52.476
G00 X240.83 Y52.657
G00 X240.683 Y52.755
G00 X240.382 Y52.965
G00 X240.24 Y53.069
G00 X239.959 Y53.283
G00 X239.82 Y53.392
G00 X239.548 Y53.616
G00 X239.413 Y53.731
G00 X239.152 Y53.962
G00 X239.023 Y54.082
G00 X238.761 Y54.332
G00 X238.636 Y54.457
G00 X238.394 Y54.708
G00 X238.273 Y54.838
G00 X238.04 Y55.099
G00 X237.925 Y55.233
G00 X237.7 Y55.505
G00 X237.59 Y55.642
G00 X237.377 Y55.92
G00 X237.273 Y56.063
G00 X237.061 Y56.362
G00 X236.962 Y56.509
G00 X236.78 Y56.788
G00 X236.687 Y56.938
G00 X236.496 Y57.258
G00 X236.409 Y57.411
G00 X236.246 Y57.709
G00 X236.165 Y57.866
G00 X236.007 Y58.184
G00 X235.931 Y58.343
G00 X235.779 Y58.682
G00 X235.71 Y58.844
G00 X235.591 Y59.139
G00 X235.527 Y59.304
G00 X235.441 Y59.538
G00 X235.398 Y59.661
G00 X235.341 Y59.828
G00 X235.235 Y60.163
G00 X235.185 Y60.333
G00 X235.093 Y60.667
G00 X235.049 Y60.838
G00 X234.971 Y61.172
G00 X234.934 Y61.344
G00 X234.864 Y61.698
G00 X234.834 Y61.871
G00 X234.779 Y62.227
G00 X234.755 Y62.402
G00 X234.714 Y62.754
G00 X234.697 Y62.93
G00 X234.67 Y63.282
G00 X234.66 Y63.458
G00 X234.647 Y63.794
G00 X234.643 Y63.971
G00 X234.643 Y64.341
G00 X234.646 Y64.518
G00 X234.66 Y64.871
G00 X234.67 Y65.047
G00 X234.695 Y65.382
G00 X234.712 Y65.558
G00 X234.754 Y65.927
G00 X234.778 Y66.103
G00 X234.83 Y66.441
G00 X234.86 Y66.615
G00 X234.889 Y66.764
G00 X234.725 Y66.727
G00 X234.552 Y66.692
G00 X234.215 Y66.63
G00 X234.041 Y66.601
G00 X233.687 Y66.55
G00 X233.512 Y66.528
G00 X233.175 Y66.491
G00 X232.999 Y66.476
G00 X232.63 Y66.451
G00 X232.454 Y66.442
G00 X232.101 Y66.432
G00 X231.924 Y66.43
G00 X231.571 Y66.434
G00 X231.394 Y66.439
G00 X231.059 Y66.455
G00 X230.883 Y66.466
G00 X230.514 Y66.498
G00 X230.338 Y66.516
G00 X230.001 Y66.558
G00 X229.827 Y66.583
G00 X229.471 Y66.641
G00 X229.298 Y66.673
G00 X228.948 Y66.744
G00 X228.776 Y66.783
G00 X228.439 Y66.865
G00 X228.269 Y66.91
G00 X227.914 Y67.012
G00 X227.745 Y67.063
G00 X227.427 Y67.167
G00 X227.26 Y67.225
G00 X226.925 Y67.349
G00 X226.761 Y67.414
G00 X226.431 Y67.55
G00 X226.269 Y67.621
G00 X225.946 Y67.77
G00 X225.788 Y67.846
G00 X225.471 Y68.007
G00 X225.315 Y68.09
G00 X225.007 Y68.262
G00 X224.846 Y68.356
G00 X224.681 Y68.454
G00 X217.918 Y72.587
G00 X210.572 Y72.974
G00 X210.402 Y72.985
G00 X210.226 Y72.997
G00 X209.855 Y73.031
G00 X209.68 Y73.051
G00 X209.343 Y73.095
G00 X209.169 Y73.121
G00 X208.817 Y73.18
G00 X208.643 Y73.213
G00 X208.308 Y73.283
G00 X208.136 Y73.323
G00 X207.783 Y73.411
G00 X207.612 Y73.457
G00 X207.279 Y73.554
G00 X207.111 Y73.606
G00 X206.772 Y73.719
G00 X206.605 Y73.778
G00 X206.277 Y73.901
G00 X206.113 Y73.967
G00 X205.786 Y74.104
G00 X205.625 Y74.175
G00 X205.309 Y74.322
G00 X205.151 Y74.4
G00 X204.835 Y74.562
G00 X204.679 Y74.646
G00 X204.363 Y74.824
G00 X204.211 Y74.914
G00 X203.927 Y75.088
G00 X203.778 Y75.184
G00 X203.473 Y75.388
G00 X203.328 Y75.489
G00 X203.04 Y75.699
G00 X202.899 Y75.805
G00 X202.624 Y76.022
G00 X202.487 Y76.134
G00 X202.229 Y76.353
G00 X202.097 Y76.47
G00 X201.83 Y76.715
G00 X201.702 Y76.837
G00 X201.446 Y77.092
G00 X201.323 Y77.219
G00 X201.093 Y77.465
G00 X200.999 Y77.57
G00 X200.991 Y77.572
G00 X200.823 Y77.626
G00 X200.506 Y77.734
G00 X200.34 Y77.794
G00 X199.991 Y77.928
G00 X199.828 Y77.995
G00 X199.508 Y78.132
G00 X199.347 Y78.205
G00 X199.041 Y78.351
G00 X198.883 Y78.429
G00 X198.555 Y78.602
G00 X198.4 Y78.687
G00 X198.098 Y78.86
G00 X197.946 Y78.95
G00 X197.651 Y79.135
G00 X197.503 Y79.231
G00 X197.212 Y79.43
G00 X197.068 Y79.532
G00 X196.866 Y79.679
G00 X196.714 Y79.795
G00 X196.508 Y79.957
G00 X196.305 Y80.12
G00 X194.454 Y81.656
G00 X194.318 Y81.771
G00 X194.184 Y81.886
G00 X193.932 Y82.112
G00 X193.803 Y82.233
G00 X193.534 Y82.493
G00 X193.409 Y82.618
G00 X193.176 Y82.862
G00 X193.057 Y82.992
G00 X192.817 Y83.263
G00 X192.702 Y83.397
G00 X192.472 Y83.679
G00 X192.363 Y83.818
G00 X192.165 Y84.079
G00 X192.061 Y84.222
G00 X191.85 Y84.523
G00 X191.752 Y84.67
G00 X191.559 Y84.97
G00 X191.466 Y85.121
G00 X191.297 Y85.408
G00 X191.21 Y85.561
G00 X191.034 Y85.888
G00 X190.954 Y86.044
G00 X190.804 Y86.349
G00 X190.729 Y86.509
G00 X190.579 Y86.848
G00 X190.51 Y87.011
G00 X190.386 Y87.322
G00 X190.324 Y87.486
G00 X190.239 Y87.721
G00 X190.197 Y87.844
G00 X190.141 Y88.012
G00 X190.044 Y88.327
G00 X189.994 Y88.496
G00 X189.902 Y88.835
G00 X189.859 Y89.007
G00 X189.778 Y89.357
G00 X189.742 Y89.53
G00 X189.675 Y89.884
G00 X189.646 Y90.058
G00 X189.593 Y90.409
G00 X189.57 Y90.583
G00 X189.533 Y90.921
G00 X189.517 Y91.096
G00 X189.491 Y91.45
G00 X189.481 Y91.626
G00 X189.469 Y91.979
G00 X189.466 Y92.156
G00 X189.468 Y92.526
G00 X189.473 Y92.703
G00 X189.487 Y93.038
G00 X189.498 Y93.215
G00 X189.526 Y93.566
G00 X189.544 Y93.742
G00 X189.586 Y94.096
G00 X189.611 Y94.271
G00 X189.667 Y94.624
G00 X189.698 Y94.798
G00 X189.765 Y95.134
G00 X189.802 Y95.306
G00 X189.886 Y95.656
G00 X189.93 Y95.827
G00 X190.025 Y96.165
G00 X190.076 Y96.334
G00 X190.184 Y96.669
G00 X190.241 Y96.836
G00 X190.363 Y97.172
G00 X190.427 Y97.337
G00 X190.565 Y97.674
G00 X190.635 Y97.836
G00 X190.769 Y98.131
G00 X190.845 Y98.29
G00 X190.955 Y98.514
G00 X191.015 Y98.629
G00 X191.097 Y98.785
G00 X191.261 Y99.083
G00 X191.349 Y99.236
G00 X191.533 Y99.542
G00 X191.627 Y99.691
G00 X191.823 Y99.99
G00 X191.923 Y100.136
G00 X192.121 Y100.415
G00 X192.226 Y100.557
G00 X192.442 Y100.837
G00 X192.552 Y100.975
G00 X192.785 Y101.254
G00 X192.901 Y101.387
G00 X193.134 Y101.647
G00 X193.255 Y101.775
G00 X193.508 Y102.035
G00 X193.634 Y102.159
G00 X193.878 Y102.391
G00 X194.008 Y102.51
G00 X194.28 Y102.75
G00 X200.225 Y95.728
G00 X200.36 Y95.842
G00 X200.499 Y95.951
G00 X200.642 Y96.055
G00 X200.789 Y96.153
G00 X200.939 Y96.245
G00 X201.093 Y96.331
G00 X201.25 Y96.412
G00 X201.41 Y96.486
G00 X201.573 Y96.554
G00 X201.738 Y96.616
G00 X201.906 Y96.671
G00 X202.076 Y96.72
G00 X202.247 Y96.763
G00 X202.42 Y96.798
G00 X202.594 Y96.828
G00 X202.769 Y96.85
G00 X202.945 Y96.866
G00 X203.121 Y96.875
G00 X203.266 Y96.877
G00 X206.779 Y96.877
G00 X206.956 Y96.874
G00 X207.132 Y96.863
G00 X207.308 Y96.847
G00 X207.483 Y96.823
G00 X207.657 Y96.792
G00 X207.829 Y96.755
G00 X208 Y96.712
G00 X208.17 Y96.662
G00 X208.337 Y96.605
G00 X208.502 Y96.542
G00 X208.664 Y96.473
G00 X208.824 Y96.398
G00 X208.98 Y96.316
G00 X209.134 Y96.229
G00 X209.284 Y96.136
G00 X209.43 Y96.037
G00 X209.572 Y95.932
G00 X209.71 Y95.822
G00 X209.844 Y95.708
G00 X209.974 Y95.587
G00 X210.098 Y95.462
G00 X210.211 Y95.339
G00 X210.212 Y95.411
G00 X210.22 Y95.587
G00 X210.235 Y95.763
G00 X210.256 Y95.938
G00 X210.285 Y96.112
G00 X210.32 Y96.285
G00 X210.361 Y96.457
G00 X210.409 Y96.627
G00 X210.464 Y96.795
G00 X210.525 Y96.96
G00 X210.592 Y97.124
G00 X210.666 Y97.284
G00 X210.745 Y97.442
G00 X210.831 Y97.596
G00 X210.922 Y97.747
G00 X211.019 Y97.894
G00 X211.122 Y98.038
G00 X211.23 Y98.177
G00 X211.344 Y98.312
G00 X211.462 Y98.443
G00 X211.586 Y98.569
G00 X211.714 Y98.691
G00 X211.847 Y98.807
G00 X211.984 Y98.918
G00 X212.126 Y99.024
G00 X212.271 Y99.124
G00 X212.42 Y99.219
G00 X212.572 Y99.307
G00 X212.728 Y99.39
G00 X212.907 Y99.476
G00 X218.429 Y101.986
G00 X218.591 Y102.056
G00 X218.755 Y102.12
G00 X218.922 Y102.177
G00 X219.091 Y102.228
G00 X219.262 Y102.272
G00 X219.435 Y102.31
G00 X219.608 Y102.341
G00 X219.783 Y102.366
G00 X219.959 Y102.383
G00 X223.234 Y103.612
G00 X223.401 Y103.67
G00 X223.569 Y103.723
G00 X223.74 Y103.769
G00 X223.912 Y103.808
G00 X224.085 Y103.841
G00 X224.26 Y103.867
G00 X224.435 Y103.886
G00 X224.611 Y103.898
G00 X224.788 Y103.904
G00 X224.964 Y103.903
G00 X225.141 Y103.895
G00 X225.316 Y103.881
G00 X225.492 Y103.86
G00 X225.666 Y103.832
G00 X225.839 Y103.797
G00 X226.011 Y103.756
G00 X226.181 Y103.708
G00 X226.349 Y103.653
G00 X226.514 Y103.593
G00 X226.678 Y103.526
G00 X226.839 Y103.453
G00 X226.996 Y103.373
G00 X227.15 Y103.288
G00 X227.302 Y103.197
G00 X227.449 Y103.1
G00 X227.593 Y102.997
G00 X227.733 Y102.889
G00 X227.868 Y102.776
G00 X227.999 Y102.658
G00 X228.125 Y102.534
G00 X228.247 Y102.406
G00 X228.363 Y102.274
G00 X228.475 Y102.137
G00 X228.581 Y101.996
G00 X228.681 Y101.851
G00 X228.776 Y101.702
G00 X228.865 Y101.549
G00 X228.948 Y101.394
G00 X229.025 Y101.235
G00 X229.096 Y101.073
G00 X229.161 Y100.909
G00 X229.219 Y100.742
G00 X229.271 Y100.574
G00 X229.317 Y100.403
G00 X229.356 Y100.231
G00 X229.388 Y100.058
G00 X229.413 Y99.883
G00 X229.428 Y99.746
G00 X230.507 Y100.659
G00 X240.556 Y110.59
G00 X246.623 Y117.829
G00 X246.739 Y117.962
G00 X246.86 Y118.09
G00 X246.986 Y118.214
G00 X247.116 Y118.333
G00 X247.23 Y118.43
G00 X252.112 Y122.436
G00 X251.699 Y123.675
G00 X251.594 Y123.783
G00 X251.477 Y123.915
G00 X251.364 Y124.051
G00 X251.257 Y124.191
G00 X251.155 Y124.336
G00 X251.06 Y124.484
G00 X250.969 Y124.636
G00 X250.885 Y124.791
G00 X250.807 Y124.949
G00 X250.734 Y125.11
G00 X250.668 Y125.273
G00 X250.608 Y125.44
G00 X250.555 Y125.608
G00 X250.509 Y125.778
G00 X250.476 Y125.913
G00 X249.472 Y130.431
G00 X249.437 Y130.604
G00 X249.409 Y130.778
G00 X249.387 Y130.953
G00 X249.372 Y131.129
G00 X249.364 Y131.306
G00 X249.363 Y131.482
G00 X249.368 Y131.658
G00 X249.38 Y131.835
G00 X249.399 Y132.01
G00 X249.425 Y132.185
G00 X249.457 Y132.358
G00 X249.496 Y132.531
G00 X249.542 Y132.701
G00 X249.594 Y132.87
G00 X249.652 Y133.036
G00 X249.717 Y133.2
G00 X249.788 Y133.362
G00 X249.865 Y133.521
G00 X249.949 Y133.676
G00 X250.038 Y133.829
G00 X250.133 Y133.977
G00 X250.234 Y134.123
G00 X250.34 Y134.264
G00 X250.451 Y134.4
G00 X250.568 Y134.533
G00 X250.689 Y134.661
G00 X250.815 Y134.784
G00 X250.946 Y134.903
G00 X251.082 Y135.016
G00 X251.222 Y135.124
G00 X251.365 Y135.226
G00 X251.513 Y135.323
G00 X251.664 Y135.414
G00 X251.819 Y135.499
G00 X251.976 Y135.578
G00 X252.137 Y135.652
G00 X252.301 Y135.719
G00 X252.466 Y135.779
G00 X252.634 Y135.833
G00 X252.804 Y135.881
G00 X252.976 Y135.922
G00 X253.149 Y135.957
G00 X253.323 Y135.985
G00 X253.505 Y136.006
G00 X255.908 Y136.247
G00 X255.918 Y136.253
G00 X256.066 Y136.349
G00 X256.218 Y136.439
G00 X256.423 Y136.548
G00 X259.22 Y137.946
G00 X266.023 Y143.023
G00 X266.167 Y143.125
G00 X266.314 Y143.223
G00 X266.465 Y143.314
G00 X266.619 Y143.4
G00 X266.736 Y143.46
G00 X268.096 Y144.132
G00 X261.846 Y157.887
G00 X261.776 Y158.048
G00 X261.712 Y158.213
G00 X261.663 Y158.355
G00 X256.981 Y172.62
G00 X256.921 Y172.672
G00 X256.792 Y172.792
G00 X256.667 Y172.917
G00 X256.548 Y173.047
G00 X256.433 Y173.181
G00 X256.324 Y173.319
G00 X256.219 Y173.462
G00 X256.121 Y173.608
G00 X256.028 Y173.758
G00 X255.941 Y173.912
G00 X255.86 Y174.069
G00 X255.785 Y174.229
G00 X255.716 Y174.391
G00 X255.654 Y174.556
G00 X255.585 Y174.765
G00 X253.952 Y180.137
G00 X251.147 Y182.95
G00 X244.227 Y183.549
G00 X229.706 Y183.558
G00 X228.917 Y183.549
G00 X228.74 Y183.551
G00 X228.57 Y183.559
G00 X220.808 Y183.564
G00 X139.601 Y184.025
G00 X139.601 Y25.69
G00 X172.33 Y26.321
G00 X208.858 Y29.7
G00 X216.906 Y32.309
G00 X217.075 Y32.36
G00 X217.245 Y32.405
G00 X217.418 Y32.443
G00 X217.591 Y32.474
G00 X217.766 Y32.499
G00 X217.942 Y32.517
G00 X218.118 Y32.529
G00 X218.382 Y32.533
G00 X229.543 Y32.394
G00 X240.763 Y36.722
G00 X240.928 Y36.783
G00 X241.097 Y36.837
G00 X241.267 Y36.884
G00 X241.438 Y36.925
G00 X241.611 Y36.959
G00 X241.786 Y36.987
G00 X241.961 Y37.008
G00 X242.201 Y37.026
G00 X248.426 Y37.319
G00 X252.593 Y38.677
G00 X255.033 Y42.74
G00 X257.116 Y48.996
G00 X262.803 Y68.067
G00 X262.856 Y68.235
G00 X262.916 Y68.401
G00 X262.983 Y68.565
G00 X263.02 Y68.649
G00 X267.082 Y77.626
G00 X267.158 Y77.786
G00 X267.24 Y77.942
G00 X267.327 Y78.095
G00 X267.421 Y78.245
G00 X267.521 Y78.391
G00 X267.626 Y78.533
G00 X267.736 Y78.671
G00 X267.824 Y78.774
G00 X268.444 Y79.476
G00 X257.1 Y79.277
G00 X256.924 Y79.277
G00 X256.747 Y79.284
G00 X256.571 Y79.298
G00 X256.396 Y79.319
G00 X256.221 Y79.346
G00 X256.048 Y79.379
G00 X255.877 Y79.42
G00 X255.707 Y79.467
G00 X255.538 Y79.521
G00 X255.372 Y79.581
G00 X255.209 Y79.647
G00 X254.973 Y79.756
G00 X248.474 Y82.984
G00 X247.715 Y83.102
G00 X243.378 Y83.621
G00 X243.203 Y83.645
G00 X243.029 Y83.677
G00 X242.789 Y83.731
G00 X241.659 Y84.019
G00 X241.622 Y83.929
G00 X241.549 Y83.768
G00 X241.47 Y83.61
G00 X241.385 Y83.455
G00 X241.294 Y83.304
G00 X241.246 Y83.232
G00 X241.261 Y83.189
G00 X241.314 Y83.021
G00 X241.36 Y82.85
G00 X241.399 Y82.678
G00 X241.432 Y82.505
G00 X241.458 Y82.33
G00 X241.478 Y82.155
G00 X241.491 Y81.979
G00 X241.496 Y81.802
G00 X241.496 Y81.626
G00 X241.488 Y81.449
G00 X241.474 Y81.274
G00 X241.453 Y81.098
G00 X241.424 Y80.924
G00 X241.39 Y80.751
G00 X241.349 Y80.579
G00 X241.302 Y80.409
G00 X241.247 Y80.241
G00 X241.187 Y80.075
G00 X241.12 Y79.912
G00 X241.047 Y79.752
G00 X240.968 Y79.594
G00 X240.882 Y79.439
G00 X240.791 Y79.288
G00 X240.695 Y79.14
G00 X240.592 Y78.996
G00 X240.484 Y78.857
G00 X240.371 Y78.721
G00 X240.253 Y78.59
G00 X240.13 Y78.464
G00 X240.002 Y78.342
G00 X239.87 Y78.226
G00 X239.733 Y78.114
G00 X239.592 Y78.008
G00 X239.447 Y77.907
G00 X239.298 Y77.812
G00 X239.145 Y77.723
G00 X238.99 Y77.64
G00 X238.831 Y77.562
G00 X238.67 Y77.491
G00 X238.505 Y77.426
G00 X238.339 Y77.368
G00 X238.17 Y77.316
G00 X238 Y77.27
G00 X237.828 Y77.231
G00 X237.654 Y77.199
G00 X237.48 Y77.173
G00 X237.304 Y77.154
G00 X237.128 Y77.142
G00 X236.952 Y77.136
G00 X236.775 Y77.137
G00 X236.599 Y77.146
G00 X236.423 Y77.16
G00 X236.248 Y77.182
G00 X236.073 Y77.21
G00 X235.9 Y77.245
G00 X235.729 Y77.286
G00 X235.559 Y77.335
G00 X235.473 Y77.363
G00 X235.404 Y77.277
G00 X235.288 Y77.144
G00 X235.167 Y77.015
G00 X235.041 Y76.891
G00 X234.911 Y76.772
G00 X234.776 Y76.658
G00 X234.637 Y76.55
G00 X234.493 Y76.447
G00 X234.346 Y76.349
G00 X234.196 Y76.257
G00 X234.041 Y76.171
G00 X233.884 Y76.091
G00 X233.724 Y76.017
G00 X233.561 Y75.949
G00 X233.395 Y75.888
G00 X233.228 Y75.833
G00 X233.058 Y75.784
G00 X232.886 Y75.742
G00 X232.714 Y75.707
G00 X232.54 Y75.678
G00 X232.364 Y75.656
G00 X232.188 Y75.64
G00 X232.012 Y75.632
G00 X231.836 Y75.63
G00 X231.659 Y75.635
G00 X231.483 Y75.647
G00 X231.307 Y75.666
G00 X231.133 Y75.691
G00 X230.959 Y75.722
G00 X230.787 Y75.761
G00 X230.616 Y75.806
G00 X230.447 Y75.858
G00 X230.281 Y75.916
G00 X230.117 Y75.98
G00 X229.955 Y76.051
G00 X229.796 Y76.128
G00 X229.64 Y76.211
G00 X229.479 Y76.305
G00 X220.722 Y81.656
G00 X220.592 Y81.66
G00 X211.055 Y82.162
G00 X210.879 Y82.174
G00 X210.704 Y82.194
G00 X210.529 Y82.22
G00 X210.356 Y82.253
G00 X210.184 Y82.292
G00 X210.014 Y82.338
G00 X209.845 Y82.391
G00 X209.679 Y82.45
G00 X209.514 Y82.515
G00 X209.353 Y82.586
G00 X209.195 Y82.664
G00 X209.039 Y82.748
G00 X208.887 Y82.837
G00 X208.738 Y82.933
G00 X208.594 Y83.033
G00 X208.453 Y83.14
G00 X208.316 Y83.252
G00 X208.184 Y83.369
G00 X208.056 Y83.491
G00 X207.934 Y83.617
G00 X207.815 Y83.749
G00 X207.703 Y83.885
G00 X207.595 Y84.024
G00 X207.493 Y84.168
G00 X207.397 Y84.316
G00 X207.306 Y84.468
G00 X207.221 Y84.623
G00 X207.143 Y84.78
G00 X207.07 Y84.941
G00 X207.003 Y85.105
G00 X206.943 Y85.271
G00 X206.89 Y85.439
G00 X206.842 Y85.609
G00 X206.801 Y85.781
G00 X206.767 Y85.954
G00 X206.74 Y86.128
G00 X206.719 Y86.304
G00 X206.71 Y86.426
G00 X206.58 Y86.38
G00 X206.411 Y86.327
G00 X206.241 Y86.28
G00 X206.069 Y86.24
G00 X205.895 Y86.207
G00 X205.721 Y86.181
G00 X205.546 Y86.161
G00 X205.37 Y86.148
G00 X205.193 Y86.142
G00 X205.017 Y86.142
G00 X204.84 Y86.149
G00 X204.664 Y86.163
G00 X204.489 Y86.184
G00 X204.315 Y86.211
G00 X204.141 Y86.246
G00 X203.97 Y86.286
G00 X203.8 Y86.334
G00 X203.632 Y86.387
G00 X203.466 Y86.447
G00 X203.302 Y86.514
G00 X203.141 Y86.587
G00 X202.984 Y86.666
G00 X202.829 Y86.751
G00 X202.677 Y86.841
G00 X202.529 Y86.938
G00 X202.385 Y87.04
G00 X202.179 Y87.201
;Nearing path end, moving to preshutoff position
G00 X201.003 Y88.177
M107 ;Pump off
G00 X200.329 Y88.737
G00 X200.195 Y88.852
G00 X200.066 Y88.972
G00 X199.941 Y89.097
G00 X199.822 Y89.227
G00 X199.707 Y89.361
G00 X199.598 Y89.5
G00 X199.494 Y89.643
G00 X199.396 Y89.789
G00 X199.304 Y89.94
G00 X199.217 Y90.094
G00 X199.136 Y90.25
G00 X199.061 Y90.41
G00 X198.993 Y90.573
G00 X198.931 Y90.738
G00 X198.875 Y90.906
G00 X198.826 Y91.075
G00 X198.783 Y91.246
G00 X198.746 Y91.419
G00 X198.717 Y91.593
G00 X198.694 Y91.768
G00 X198.678 Y91.944
G00 X198.668 Y92.12
G00 X198.666 Y92.297
G00 X198.67 Y92.473
G00 X198.681 Y92.649
G00 X198.699 Y92.825
G00 X198.723 Y93
G00 X198.754 Y93.174
G00 X198.792 Y93.346
G00 X198.836 Y93.517
G00 X198.887 Y93.686
G00 X198.944 Y93.853
G00 X199.008 Y94.018
G00 X199.078 Y94.179
G00 X199.154 Y94.339
G00 X199.236 Y94.495
G00 X199.324 Y94.648
G00 X199.418 Y94.798
G00 X199.517 Y94.943
G00 X199.622 Y95.085
G00 X199.733 Y95.223
G00 X199.849 Y95.356
G00 X199.969 Y95.485
G00 X200.095 Y95.609
G00 X200.225 Y95.728
G4 P250 ;Pause for 250 milliseconds
;Completed path #1/71 on color #4
;Starting fill path #2/71, segments: 16, length: 9, color #4
G00 X211.379 Y92.226
M106 ;Pump on
G4 P350 ;Pause for 350 milliseconds
;Very short path, early shutoff without move
M107 ;Pump off
G00 X211.376 Y92.089
G00 X211.365 Y91.913
G00 X211.348 Y91.737
G00 X211.324 Y91.562
G00 X211.293 Y91.388
G00 X211.287 Y91.362
G00 X212.328 Y91.417
G00 X212.215 Y91.491
G00 X212.071 Y91.593
G00 X211.931 Y91.701
G00 X211.795 Y91.814
G00 X211.664 Y91.933
G00 X211.538 Y92.056
G00 X211.416 Y92.184
G00 X211.379 Y92.226
G4 P250 ;Pause for 250 milliseconds
;Completed path #2/71 on color #4
;Starting fill path #3/71, segments: 168, length: 111, color #4
G00 X246.192 Y69.342
M106 ;Pump on
G4 P350 ;Pause for 350 milliseconds
G00 X246.292 Y69.488
G00 X246.397 Y69.63
G00 X246.507 Y69.767
G00 X246.623 Y69.901
G00 X246.744 Y70.03
G00 X246.869 Y70.153
G00 X247 Y70.273
G00 X247.135 Y70.387
G00 X247.273 Y70.496
G00 X247.417 Y70.599
G00 X247.563 Y70.697
G00 X247.714 Y70.789
G00 X247.868 Y70.875
G00 X248.025 Y70.955
G00 X248.186 Y71.03
G00 X248.348 Y71.097
G00 X248.514 Y71.159
G00 X248.681 Y71.215
G00 X248.851 Y71.263
G00 X249.022 Y71.306
G00 X249.195 Y71.341
G00 X249.369 Y71.37
G00 X249.544 Y71.393
G00 X249.72 Y71.408
G00 X249.897 Y71.417
G00 X250.073 Y71.419
G00 X250.249 Y71.414
G00 X250.426 Y71.403
G00 X250.601 Y71.385
G00 X250.776 Y71.36
G00 X250.95 Y71.328
G00 X251.122 Y71.29
G00 X251.223 Y71.264
G00 X253.641 Y70.621
G00 X253.81 Y70.572
G00 X253.978 Y70.517
G00 X254.143 Y70.455
G00 X254.306 Y70.388
G00 X254.466 Y70.313
G00 X254.624 Y70.233
G00 X254.778 Y70.147
G00 X254.929 Y70.055
G00 X255.076 Y69.957
G00 X255.219 Y69.854
G00 X255.358 Y69.746
G00 X255.493 Y69.632
G00 X255.623 Y69.513
G00 X255.749 Y69.389
G00 X255.87 Y69.26
G00 X255.985 Y69.127
G00 X256.096 Y68.989
G00 X256.201 Y68.848
G00 X256.301 Y68.702
G00 X256.395 Y68.553
G00 X256.484 Y68.4
G00 X256.566 Y68.244
G00 X256.642 Y68.085
G00 X256.713 Y67.923
G00 X256.776 Y67.758
G00 X256.834 Y67.591
G00 X256.885 Y67.422
G00 X256.93 Y67.252
G00 X256.968 Y67.079
G00 X256.999 Y66.906
G00 X257.023 Y66.731
G00 X257.041 Y66.555
G00 X257.053 Y66.379
G00 X257.057 Y66.202
G00 X257.055 Y66.026
G00 X257.046 Y65.85
G00 X257.03 Y65.674
G00 X257.007 Y65.499
G00 X256.978 Y65.325
G00 X256.942 Y65.152
G00 X256.899 Y64.981
G00 X256.85 Y64.811
G00 X256.795 Y64.644
G00 X256.733 Y64.478
G00 X256.664 Y64.316
G00 X256.59 Y64.155
G00 X256.509 Y63.998
G00 X256.423 Y63.845
G00 X256.33 Y63.694
G00 X256.233 Y63.547
G00 X256.129 Y63.404
G00 X256.02 Y63.265
G00 X255.906 Y63.131
G00 X255.787 Y63.001
G00 X255.662 Y62.876
G00 X255.533 Y62.755
G00 X255.4 Y62.64
G00 X255.262 Y62.529
G00 X255.12 Y62.424
G00 X254.974 Y62.325
G00 X254.824 Y62.231
G00 X254.672 Y62.143
G00 X254.514 Y62.061
G00 X250.499 Y60.053
G00 X250.34 Y59.977
G00 X250.177 Y59.907
G00 X250.013 Y59.844
G00 X249.846 Y59.787
G00 X249.676 Y59.736
G00 X249.506 Y59.692
G00 X249.333 Y59.655
G00 X249.159 Y59.624
G00 X248.985 Y59.6
G00 X248.809 Y59.582
G00 X248.633 Y59.571
G00 X248.456 Y59.567
G00 X248.28 Y59.57
G00 X248.104 Y59.58
G00 X247.928 Y59.596
G00 X247.753 Y59.62
G00 X247.579 Y59.649
G00 X247.406 Y59.686
G00 X247.235 Y59.729
G00 X247.066 Y59.778
G00 X246.898 Y59.834
G00 X246.733 Y59.897
G00 X246.57 Y59.965
G00 X246.411 Y60.04
G00 X246.254 Y60.121
G00 X246.1 Y60.208
G00 X245.95 Y60.301
G00 X245.803 Y60.399
G00 X245.661 Y60.503
G00 X245.522 Y60.613
G00 X245.388 Y60.727
G00 X245.258 Y60.847
G00 X245.133 Y60.972
G00 X245.013 Y61.101
G00 X244.898 Y61.235
;Nearing path end, moving to preshutoff position
G00 X244.819 Y61.334
M107 ;Pump off
G00 X244.788 Y61.373
G00 X244.683 Y61.515
G00 X244.584 Y61.661
G00 X244.491 Y61.811
G00 X244.404 Y61.964
G00 X244.322 Y62.121
G00 X244.246 Y62.28
G00 X244.177 Y62.443
G00 X244.114 Y62.607
G00 X244.057 Y62.775
G00 X244.007 Y62.944
G00 X243.964 Y63.115
G00 X243.926 Y63.287
G00 X243.896 Y63.461
G00 X243.872 Y63.636
G00 X243.855 Y63.812
G00 X243.845 Y63.988
G00 X243.841 Y64.165
G00 X243.845 Y64.341
G00 X243.855 Y64.517
G00 X243.871 Y64.693
G00 X243.895 Y64.868
G00 X243.925 Y65.042
G00 X243.962 Y65.215
G00 X244.006 Y65.386
G00 X244.056 Y65.555
G00 X244.112 Y65.722
G00 X244.175 Y65.887
G00 X244.244 Y66.049
G00 X244.319 Y66.209
G00 X244.4 Y66.366
G00 X244.501 Y66.541
G00 X246.098 Y69.193
G00 X246.192 Y69.342
G4 P250 ;Pause for 250 milliseconds
;Completed path #3/71 on color #4
;Starting fill path #4/71, segments: 3, length: 21, color #4, too small to fill, outline only
G00 X298.135 Y112.857
M106 ;Pump on
G4 P350 ;Pause for 350 milliseconds
;Very short path, early shutoff without move
M107 ;Pump off
G00 X296.127 Y109.845
G00 X298.135 Y112.857
G4 P250 ;Pause for 250 milliseconds
;Completed path #4/71 on color #4
;Starting fill path #5/71, segments: 3, length: 26, color #4, too small to fill, outline only
G00 X323.734 Y92.779
M106 ;Pump on
G4 P350 ;Pause for 350 milliseconds
;Very short path, early shutoff without move
M107 ;Pump off
G00 X323.232 Y88.763
G00 X322.491 Y91.273
G00 X323.734 Y92.779
G4 P250 ;Pause for 250 milliseconds
;Completed path #5/71 on color #4
;Starting fill path #6/71, segments: 3, length: 21, color #4, too small to fill, outline only
G00 X322.35 Y116.337
M106 ;Pump on
G4 P350 ;Pause for 350 milliseconds
;Very short path, early shutoff without move
M107 ;Pump off
G00 X320.423 Y116.121
G00 X320.531 Y114.379
G00 X321.948 Y114.979
G00 X322.35 Y116.337
G4 P250 ;Pause for 250 milliseconds
;Completed path #6/71 on color #4
;Starting fill path #7/71, segments: 3, length: 21, color #4, too small to fill, outline only
G00 X304.66 Y187.647
M106 ;Pump on
G4 P350 ;Pause for 350 milliseconds
;Very short path, early shutoff without move
M107 ;Pump off
G00 X308.174 Y187.647
G00 X305.909 Y187.15
G00 X304.66 Y187.647
G4 P250 ;Pause for 250 milliseconds
;Completed path #7/71 on color #4
;Starting fill path #8/71, segments: 180, length: 225, color #4
G00 X328.857 Y171.38
M106 ;Pump on
G4 P350 ;Pause for 350 milliseconds
G00 X328.906 Y172.007
G00 X329.252 Y179.324
G00 X329.264 Y179.5
G00 X329.283 Y179.676
G00 X329.308 Y179.851
G00 X329.34 Y180.024
G00 X329.378 Y180.196
G00 X329.423 Y180.367
G00 X329.475 Y180.536
G00 X329.533 Y180.703
G00 X329.597 Y180.867
G00 X329.668 Y181.029
G00 X329.745 Y181.188
G00 X329.828 Y181.344
G00 X329.916 Y181.496
G00 X330.011 Y181.645
G00 X330.111 Y181.791
G00 X330.217 Y181.932
G00 X330.328 Y182.069
G00 X330.444 Y182.202
G00 X330.565 Y182.33
G00 X330.691 Y182.454
G00 X330.878 Y182.621
G00 X331.383 Y183.047
G00 X314.197 Y183.047
G00 X314.033 Y181.84
G00 X314.274 Y176.826
G00 X314.279 Y176.65
G00 X314.278 Y176.473
G00 X314.269 Y176.297
G00 X314.254 Y176.121
G00 X314.232 Y175.946
G00 X314.204 Y175.772
G00 X314.168 Y175.599
G00 X314.126 Y175.427
G00 X314.078 Y175.258
G00 X314.023 Y175.09
G00 X313.962 Y174.924
G00 X313.894 Y174.761
G00 X313.821 Y174.601
G00 X313.741 Y174.444
G00 X313.655 Y174.289
G00 X313.563 Y174.139
G00 X313.465 Y173.991
G00 X313.362 Y173.848
G00 X313.254 Y173.709
G00 X313.14 Y173.574
G00 X313.021 Y173.443
G00 X312.898 Y173.317
G00 X312.769 Y173.197
G00 X312.636 Y173.08
G00 X312.499 Y172.97
G00 X312.357 Y172.864
G00 X312.212 Y172.764
G00 X312.062 Y172.67
G00 X311.91 Y172.581
G00 X311.754 Y172.499
G00 X311.595 Y172.422
G00 X311.433 Y172.352
G00 X311.268 Y172.288
G00 X311.102 Y172.23
G00 X310.933 Y172.178
G00 X310.762 Y172.134
G00 X310.59 Y172.096
G00 X310.416 Y172.064
G00 X310.241 Y172.039
G00 X310.066 Y172.021
G00 X309.889 Y172.009
G00 X309.713 Y172.005
G00 X309.537 Y172.007
G00 X309.36 Y172.016
G00 X309.281 Y172.023
G00 X308.715 Y167.941
G00 X308.687 Y167.767
G00 X308.653 Y167.594
G00 X308.612 Y167.422
G00 X308.564 Y167.252
G00 X308.51 Y167.084
G00 X308.45 Y166.918
G00 X308.383 Y166.755
G00 X308.311 Y166.594
G00 X308.232 Y166.436
G00 X308.147 Y166.281
G00 X308.056 Y166.13
G00 X307.959 Y165.982
G00 X307.857 Y165.838
G00 X307.749 Y165.699
G00 X307.636 Y165.563
G00 X307.518 Y165.432
G00 X307.489 Y165.401
G00 X308.258 Y164.946
G00 X308.362 Y165.101
G00 X308.462 Y165.246
G00 X308.568 Y165.388
G00 X308.68 Y165.524
G00 X308.797 Y165.657
G00 X308.918 Y165.785
G00 X309.045 Y165.908
G00 X309.176 Y166.026
G00 X309.312 Y166.139
G00 X309.451 Y166.247
G00 X309.595 Y166.349
G00 X309.743 Y166.446
G00 X309.894 Y166.537
G00 X310.049 Y166.622
G00 X310.207 Y166.701
G00 X310.367 Y166.774
G00 X310.531 Y166.841
G00 X310.697 Y166.901
G00 X310.865 Y166.955
G00 X311.035 Y167.003
G00 X311.206 Y167.044
G00 X311.379 Y167.078
G00 X311.554 Y167.106
G00 X311.729 Y167.127
G00 X311.905 Y167.141
G00 X312.118 Y167.149
G00 X318.632 Y167.25
G00 X318.632 Y170.079
G00 X318.635 Y170.256
G00 X318.645 Y170.432
G00 X318.662 Y170.608
G00 X318.686 Y170.783
G00 X318.717 Y170.957
G00 X318.753 Y171.129
G00 X318.797 Y171.3
G00 X318.847 Y171.47
G00 X318.903 Y171.637
G00 X318.966 Y171.802
G00 X319.036 Y171.964
G00 X319.111 Y172.124
G00 X319.193 Y172.28
G00 X319.28 Y172.434
G00 X319.373 Y172.584
G00 X319.472 Y172.73
G00 X319.576 Y172.872
G00 X319.687 Y173.01
G00 X319.801 Y173.144
G00 X319.922 Y173.273
G00 X320.047 Y173.398
G00 X320.176 Y173.518
G00 X320.31 Y173.632
G00 X320.449 Y173.742
G00 X320.591 Y173.846
G00 X320.738 Y173.945
G00 X320.888 Y174.037
G00 X321.042 Y174.125
;Nearing path end, moving to preshutoff position
G00 X321.172 Y174.192
M107 ;Pump off
G00 X321.198 Y174.205
G00 X321.358 Y174.28
G00 X321.52 Y174.349
G00 X321.686 Y174.412
G00 X321.853 Y174.468
G00 X322.022 Y174.518
G00 X322.193 Y174.561
G00 X322.366 Y174.597
G00 X322.54 Y174.627
G00 X322.715 Y174.651
G00 X322.891 Y174.667
G00 X323.067 Y174.677
G00 X323.244 Y174.68
G00 X323.42 Y174.676
G00 X323.596 Y174.665
G00 X323.772 Y174.648
G00 X323.947 Y174.624
G00 X324.121 Y174.593
G00 X324.293 Y174.555
G00 X324.464 Y174.512
G00 X324.633 Y174.461
G00 X324.8 Y174.404
G00 X324.965 Y174.341
G00 X325.127 Y174.271
G00 X325.287 Y174.195
G00 X325.443 Y174.113
G00 X325.596 Y174.026
G00 X325.746 Y173.932
G00 X325.892 Y173.833
G00 X326.034 Y173.728
G00 X326.177 Y173.613
G00 X328.857 Y171.38
G4 P250 ;Pause for 250 milliseconds
;Completed path #8/71 on color #4
;Starting fill path #9/71, segments: 8, length: 47, color #4, too small to fill, outline only
G00 X351.342 Y139.46
M106 ;Pump on
G4 P350 ;Pause for 350 milliseconds
G00 X350.338 Y141.468
G00 X352.345 Y140.966
G00 X351.342 Y142.472
;Nearing path end, moving to preshutoff position
G00 X352.834 Y143.467
M107 ;Pump off
G00 X354.353 Y144.48
G00 X354.855 Y142.472
G00 X352.345 Y139.46
G00 X351.342 Y139.46
G4 P250 ;Pause for 250 milliseconds
;Completed path #9/71 on color #4
;Starting fill path #10/71, segments: 1002, length: 2152, color #4
G00 X378.199 Y118.821
M106 ;Pump on
G4 P350 ;Pause for 350 milliseconds
G00 X377.98 Y118.785
G00 X377.805 Y118.76
G00 X377.453 Y118.716
G00 X377.278 Y118.698
G00 X376.906 Y118.667
G00 X376.73 Y118.656
G00 X376.395 Y118.641
G00 X376.218 Y118.636
G00 X375.866 Y118.633
G00 X375.689 Y118.635
G00 X375.335 Y118.646
G00 X375.159 Y118.655
G00 X374.806 Y118.68
G00 X374.63 Y118.695
G00 X374.277 Y118.733
G00 X374.102 Y118.755
G00 X373.749 Y118.808
G00 X373.575 Y118.837
G00 X373.241 Y118.899
G00 X373.068 Y118.935
G00 X372.714 Y119.015
G00 X372.542 Y119.057
G00 X372.207 Y119.147
G00 X372.038 Y119.195
G00 X371.762 Y119.279
G00 X371.573 Y119.341
G00 X370.154 Y119.813
G00 X369.866 Y119.74
G00 X369.694 Y119.699
G00 X369.338 Y119.623
G00 X369.165 Y119.59
G00 X368.831 Y119.532
G00 X368.656 Y119.505
G00 X368.32 Y119.459
G00 X368.145 Y119.438
G00 X367.775 Y119.402
G00 X367.6 Y119.388
G00 X367.246 Y119.368
G00 X367.069 Y119.361
G00 X366.716 Y119.355
G00 X366.54 Y119.355
G00 X366.205 Y119.361
G00 X366.028 Y119.367
G00 X365.779 Y119.38
G00 X365.628 Y119.39
G00 X365.417 Y119.407
G00 X365.207 Y119.427
G00 X362.471 Y119.709
G00 X362.287 Y119.73
G00 X362.112 Y119.752
G00 X361.778 Y119.8
G00 X361.604 Y119.828
G00 X361.246 Y119.892
G00 X361.073 Y119.927
G00 X360.726 Y120.004
G00 X360.554 Y120.046
G00 X360.214 Y120.136
G00 X360.044 Y120.184
G00 X359.713 Y120.285
G00 X359.545 Y120.339
G00 X359.207 Y120.456
G00 X359.042 Y120.517
G00 X358.724 Y120.641
G00 X358.561 Y120.708
G00 X358.227 Y120.853
G00 X358.066 Y120.926
G00 X357.746 Y121.08
G00 X357.589 Y121.16
G00 X357.288 Y121.319
G00 X357.134 Y121.404
G00 X356.819 Y121.586
G00 X356.668 Y121.677
G00 X356.366 Y121.868
G00 X356.359 Y121.874
G00 X354.422 Y122.143
G00 X355.051 Y121.677
G00 X355.192 Y121.57
G00 X355.332 Y121.462
G00 X355.607 Y121.241
G00 X355.742 Y121.128
G00 X356.007 Y120.898
G00 X356.138 Y120.78
G00 X356.403 Y120.532
G00 X356.529 Y120.409
G00 X356.774 Y120.16
G00 X356.896 Y120.032
G00 X357.124 Y119.783
G00 X357.24 Y119.651
G00 X357.476 Y119.373
G00 X357.587 Y119.236
G00 X357.811 Y118.95
G00 X357.917 Y118.809
G00 X358.118 Y118.531
G00 X358.218 Y118.386
G00 X358.416 Y118.088
G00 X358.511 Y117.939
G00 X358.69 Y117.647
G00 X358.779 Y117.495
G00 X358.957 Y117.178
G00 X359.04 Y117.022
G00 X359.198 Y116.713
G00 X359.275 Y116.555
G00 X359.382 Y116.329
G00 X359.446 Y116.185
G00 X359.535 Y115.978
G00 X359.621 Y115.773
G00 X361.403 Y111.374
G00 X361.471 Y111.202
G00 X361.534 Y111.037
G00 X361.649 Y110.717
G00 X361.706 Y110.549
G00 X361.816 Y110.203
G00 X361.867 Y110.034
G00 X361.956 Y109.712
G00 X362 Y109.541
G00 X362.059 Y109.298
G00 X362.087 Y109.17
G00 X362.124 Y108.997
G00 X362.186 Y108.681
G00 X362.217 Y108.508
G00 X362.257 Y108.261
G00 X362.279 Y108.102
G00 X362.308 Y107.886
G00 X362.334 Y107.669
G00 X362.988 Y101.596
G00 X363.006 Y101.406
G00 X363.021 Y101.23
G00 X363.044 Y100.894
G00 X363.053 Y100.717
G00 X363.064 Y100.365
G00 X363.066 Y100.188
G00 X363.063 Y99.835
G00 X363.059 Y99.659
G00 X363.048 Y99.39
G00 X363.034 Y99.173
G00 X362.613 Y93.045
G00 X362.599 Y92.863
G00 X362.584 Y92.687
G00 X362.546 Y92.334
G00 X362.523 Y92.159
G00 X362.474 Y91.823
G00 X362.445 Y91.649
G00 X362.38 Y91.298
G00 X362.344 Y91.125
G00 X362.269 Y90.787
G00 X362.227 Y90.616
G00 X362.164 Y90.374
G00 X362.122 Y90.226
G00 X362.062 Y90.023
G00 X362.003 Y89.827
G00 X360.56 Y85.265
G00 X360.504 Y85.094
G00 X360.447 Y84.927
G00 X360.332 Y84.606
G00 X360.269 Y84.441
G00 X360.136 Y84.11
G00 X360.081 Y83.981
G00 X360.217 Y83.943
G00 X360.387 Y83.893
G00 X360.727 Y83.784
G00 X360.894 Y83.727
G00 X361.224 Y83.608
G00 X361.389 Y83.544
G00 X361.711 Y83.413
G00 X361.873 Y83.344
G00 X362.197 Y83.198
G00 X362.357 Y83.123
G00 X362.573 Y83.014
G00 X362.653 Y83.006
G00 X363.005 Y82.962
G00 X363.18 Y82.937
G00 X363.535 Y82.879
G00 X363.708 Y82.848
G00 X364.058 Y82.776
G00 X364.23 Y82.738
G00 X364.502 Y82.672
G00 X364.685 Y82.625
G00 X370.721 Y81.016
G00 X370.877 Y80.973
G00 X371.046 Y80.925
G00 X371.399 Y80.817
G00 X371.567 Y80.761
G00 X371.898 Y80.645
G00 X372.064 Y80.583
G00 X372.402 Y80.45
G00 X372.565 Y80.382
G00 X372.869 Y80.249
G00 X373.029 Y80.175
G00 X373.363 Y80.012
G00 X373.52 Y79.932
G00 X373.833 Y79.765
G00 X373.987 Y79.678
G00 X374.274 Y79.511
G00 X374.425 Y79.419
G00 X374.739 Y79.219
G00 X374.886 Y79.121
G00 X375.176 Y78.92
G00 X375.319 Y78.816
G00 X375.593 Y78.61
G00 X375.732 Y78.502
G00 X376.004 Y78.281
G00 X376.139 Y78.167
G00 X376.412 Y77.927
G00 X376.542 Y77.808
G00 X376.795 Y77.568
G00 X376.921 Y77.444
G00 X377.165 Y77.193
G00 X377.286 Y77.065
G00 X377.521 Y76.805
G00 X377.637 Y76.672
G00 X377.87 Y76.392
G00 X377.981 Y76.255
G00 X378.188 Y75.987
G00 X378.199 Y75.972
G00 X378.199 Y118.821
G00 X376.674 Y127.892
G00 X376.499 Y127.867
G00 X376.324 Y127.849
G00 X376.148 Y127.838
G00 X375.971 Y127.833
G00 X375.794 Y127.835
G00 X375.618 Y127.844
G00 X375.443 Y127.859
G00 X375.267 Y127.882
G00 X375.093 Y127.911
G00 X374.92 Y127.947
G00 X374.749 Y127.989
G00 X374.579 Y128.038
G00 X374.482 Y128.069
G00 X369.643 Y129.682
G00 X369.626 Y129.667
G00 X369.49 Y129.554
G00 X369.35 Y129.447
G00 X369.205 Y129.345
G00 X369.057 Y129.249
G00 X368.906 Y129.159
G00 X368.751 Y129.074
G00 X368.593 Y128.996
G00 X368.432 Y128.923
G00 X368.268 Y128.857
G00 X368.102 Y128.797
G00 X367.934 Y128.744
G00 X367.764 Y128.697
G00 X367.592 Y128.656
G00 X367.419 Y128.623
G00 X367.244 Y128.596
G00 X367.069 Y128.575
G00 X366.893 Y128.562
G00 X366.716 Y128.555
G00 X366.54 Y128.555
G00 X366.364 Y128.561
G00 X366.153 Y128.578
G00 X363.417 Y128.861
G00 X363.242 Y128.883
G00 X363.067 Y128.911
G00 X362.895 Y128.946
G00 X362.723 Y128.987
G00 X362.553 Y129.035
G00 X362.385 Y129.09
G00 X362.22 Y129.151
G00 X362.057 Y129.218
G00 X361.896 Y129.291
G00 X361.738 Y129.371
G00 X361.584 Y129.456
G00 X361.433 Y129.548
G00 X361.286 Y129.645
G00 X361.142 Y129.748
G00 X361.003 Y129.856
G00 X360.867 Y129.969
G00 X360.736 Y130.088
G00 X360.61 Y130.211
G00 X360.489 Y130.34
G00 X360.373 Y130.472
G00 X360.262 Y130.609
G00 X360.253 Y130.62
G00 X354.723 Y131.39
G00 X354.548 Y131.418
G00 X354.375 Y131.452
G00 X354.204 Y131.493
G00 X354.034 Y131.541
G00 X353.866 Y131.595
G00 X353.7 Y131.655
G00 X353.536 Y131.722
G00 X353.375 Y131.795
G00 X353.218 Y131.874
G00 X353.063 Y131.959
G00 X352.971 Y132.013
G00 X346.579 Y135.892
G00 X339.785 Y138.763
G00 X339.624 Y138.834
G00 X339.466 Y138.912
G00 X339.31 Y138.996
G00 X339.159 Y139.086
G00 X339.064 Y139.146
G00 X334.618 Y142.044
G00 X329.454 Y142.962
G00 X329.281 Y142.996
G00 X329.109 Y143.037
G00 X328.939 Y143.085
G00 X328.771 Y143.139
G00 X328.605 Y143.199
G00 X328.442 Y143.266
G00 X328.281 Y143.339
G00 X328.123 Y143.417
G00 X327.968 Y143.502
G00 X327.817 Y143.593
G00 X327.669 Y143.69
G00 X327.525 Y143.792
G00 X327.385 Y143.899
G00 X327.25 Y144.012
G00 X327.119 Y144.13
G00 X326.992 Y144.253
G00 X326.87 Y144.381
G00 X326.738 Y144.531
G00 X325.767 Y145.686
G00 X324.095 Y145.992
G00 X323.922 Y146.027
G00 X323.75 Y146.069
G00 X323.58 Y146.117
G00 X323.413 Y146.172
G00 X323.247 Y146.233
G00 X323.084 Y146.3
G00 X322.924 Y146.374
G00 X322.766 Y146.454
G00 X322.612 Y146.539
G00 X322.461 Y146.631
G00 X322.314 Y146.728
G00 X322.17 Y146.831
G00 X322.031 Y146.939
G00 X321.895 Y147.053
G00 X321.765 Y147.172
G00 X321.639 Y147.295
G00 X321.518 Y147.423
G00 X321.402 Y147.556
G00 X321.291 Y147.694
G00 X321.185 Y147.835
G00 X321.085 Y147.98
G00 X320.99 Y148.129
G00 X320.901 Y148.282
G00 X320.819 Y148.438
G00 X320.742 Y148.597
G00 X320.671 Y148.759
G00 X320.615 Y148.901
G00 X320.525 Y149.141
G00 X318.796 Y148.513
G00 X318.797 Y148.422
G00 X318.791 Y148.245
G00 X318.79 Y148.241
G00 X318.791 Y148.227
G00 X318.797 Y148.05
G00 X318.796 Y147.874
G00 X318.788 Y147.698
G00 X318.773 Y147.522
G00 X318.752 Y147.346
G00 X318.724 Y147.172
G00 X318.689 Y146.999
G00 X318.647 Y146.828
G00 X318.599 Y146.658
G00 X318.545 Y146.49
G00 X318.484 Y146.324
G00 X318.417 Y146.161
G00 X318.343 Y146.001
G00 X318.264 Y145.843
G00 X318.178 Y145.688
G00 X318.087 Y145.537
G00 X317.99 Y145.39
G00 X317.887 Y145.246
G00 X317.779 Y145.107
G00 X317.666 Y144.972
G00 X317.547 Y144.841
G00 X317.424 Y144.715
G00 X317.295 Y144.593
G00 X317.163 Y144.477
G00 X317.026 Y144.365
G00 X316.885 Y144.26
G00 X316.739 Y144.159
G00 X316.59 Y144.065
G00 X316.438 Y143.976
G00 X316.282 Y143.893
G00 X316.123 Y143.816
G00 X315.962 Y143.745
G00 X315.854 Y143.702
G00 X315.429 Y143.538
G00 X312.551 Y141.416
G00 X312.639 Y141.387
G00 X312.805 Y141.325
G00 X312.968 Y141.257
G00 X313.128 Y141.183
G00 X313.285 Y141.103
G00 X313.439 Y141.017
G00 X313.59 Y140.925
G00 X313.737 Y140.827
G00 X313.88 Y140.724
G00 X314.019 Y140.615
G00 X314.154 Y140.501
G00 X314.284 Y140.383
G00 X314.392 Y140.277
G00 X315.222 Y139.436
G00 X315.449 Y139.48
G00 X318.46 Y139.982
G00 X318.635 Y140.008
G00 X318.811 Y140.027
G00 X318.987 Y140.039
G00 X319.163 Y140.045
G00 X319.34 Y140.043
G00 X319.516 Y140.035
G00 X319.692 Y140.02
G00 X319.867 Y139.998
G00 X320.041 Y139.97
G00 X320.215 Y139.935
G00 X320.386 Y139.894
G00 X320.556 Y139.846
G00 X320.724 Y139.791
G00 X320.889 Y139.73
G00 X321.052 Y139.662
G00 X321.213 Y139.589
G00 X321.37 Y139.509
G00 X321.525 Y139.424
G00 X321.676 Y139.332
G00 X321.823 Y139.235
G00 X321.967 Y139.132
G00 X322.106 Y139.024
G00 X322.241 Y138.911
G00 X322.372 Y138.792
G00 X322.498 Y138.668
G00 X322.619 Y138.54
G00 X322.736 Y138.408
G00 X322.847 Y138.271
G00 X322.952 Y138.129
G00 X323.053 Y137.984
G00 X323.147 Y137.835
G00 X323.236 Y137.682
G00 X323.319 Y137.526
G00 X323.396 Y137.367
G00 X323.467 Y137.206
G00 X323.531 Y137.041
G00 X323.589 Y136.875
G00 X323.641 Y136.706
G00 X323.686 Y136.535
G00 X323.724 Y136.363
G00 X323.756 Y136.189
G00 X323.782 Y136.015
G00 X323.8 Y135.839
G00 X323.812 Y135.663
G00 X323.816 Y135.528
G00 X323.836 Y135.488
G00 X323.912 Y135.328
G00 X323.981 Y135.166
G00 X324.045 Y135.002
G00 X324.102 Y134.834
G00 X324.152 Y134.665
G00 X324.196 Y134.494
G00 X324.233 Y134.322
G00 X324.263 Y134.148
G00 X324.288 Y133.973
G00 X324.305 Y133.797
G00 X324.315 Y133.621
G00 X324.319 Y133.445
G00 X324.316 Y133.268
G00 X324.306 Y133.092
G00 X324.289 Y132.916
G00 X324.266 Y132.741
G00 X324.236 Y132.567
G00 X324.22 Y132.495
G00 X326.66 Y131.377
G00 X331.548 Y129.255
G00 X331.709 Y129.181
G00 X331.867 Y129.102
G00 X332.021 Y129.016
G00 X332.172 Y128.925
G00 X332.32 Y128.828
G00 X332.463 Y128.725
G00 X332.603 Y128.617
G00 X332.738 Y128.504
G00 X332.869 Y128.385
G00 X332.995 Y128.262
G00 X333.117 Y128.134
G00 X333.233 Y128.001
G00 X333.344 Y127.864
G00 X333.45 Y127.723
G00 X333.55 Y127.578
G00 X333.645 Y127.429
G00 X333.734 Y127.276
G00 X333.817 Y127.12
G00 X333.894 Y126.962
G00 X333.965 Y126.8
G00 X334.029 Y126.636
G00 X334.088 Y126.469
G00 X334.139 Y126.3
G00 X334.185 Y126.13
G00 X334.223 Y125.957
G00 X334.256 Y125.784
G00 X334.281 Y125.609
G00 X334.3 Y125.434
G00 X334.311 Y125.258
G00 X334.317 Y125.086
G00 X334.347 Y122.35
G00 X334.461 Y121.986
G00 X336.431 Y121.473
G00 X340.987 Y120.686
G00 X341.16 Y120.652
G00 X341.332 Y120.612
G00 X341.503 Y120.566
G00 X341.671 Y120.513
G00 X341.837 Y120.453
G00 X342.001 Y120.387
G00 X342.162 Y120.315
G00 X342.32 Y120.237
G00 X342.475 Y120.153
G00 X342.627 Y120.063
G00 X342.775 Y119.967
G00 X342.92 Y119.865
G00 X343.06 Y119.759
G00 X343.196 Y119.646
G00 X343.328 Y119.529
G00 X343.414 Y119.448
G00 X344.66 Y118.234
G00 X348.47 Y115.102
G00 X349.571 Y114.286
G00 X349.71 Y114.179
G00 X349.846 Y114.065
G00 X349.977 Y113.947
G00 X350.103 Y113.824
G00 X350.225 Y113.696
G00 X350.342 Y113.563
G00 X350.453 Y113.427
G00 X350.559 Y113.285
G00 X350.66 Y113.14
G00 X350.754 Y112.992
G00 X350.844 Y112.839
G00 X350.927 Y112.684
G00 X351.004 Y112.525
G00 X351.094 Y112.319
G00 X352.876 Y107.919
G00 X352.939 Y107.754
G00 X352.996 Y107.587
G00 X353.046 Y107.418
G00 X353.09 Y107.247
G00 X353.127 Y107.074
G00 X353.158 Y106.901
G00 X353.186 Y106.685
G00 X353.84 Y100.611
G00 X353.855 Y100.435
G00 X353.864 Y100.259
G00 X353.866 Y100.082
G00 X353.861 Y99.906
G00 X353.856 Y99.803
G00 X353.435 Y93.675
G00 X353.419 Y93.499
G00 X353.397 Y93.324
G00 X353.368 Y93.15
G00 X353.332 Y92.977
G00 X353.29 Y92.806
G00 X353.231 Y92.603
G00 X351.788 Y88.041
G00 X351.731 Y87.874
G00 X351.668 Y87.709
G00 X351.599 Y87.546
G00 X351.524 Y87.387
G00 X351.443 Y87.23
G00 X351.355 Y87.076
G00 X351.262 Y86.927
G00 X351.163 Y86.78
G00 X351.059 Y86.638
G00 X350.949 Y86.5
G00 X350.834 Y86.366
G00 X350.714 Y86.236
G00 X350.589 Y86.111
G00 X350.46 Y85.992
G00 X350.326 Y85.877
G00 X350.192 Y85.771
G00 X345.638 Y82.297
G00 X345.495 Y82.193
G00 X345.349 Y82.094
G00 X345.199 Y82.001
G00 X345.046 Y81.913
G00 X344.889 Y81.832
G00 X344.729 Y81.757
G00 X344.567 Y81.688
G00 X344.48 Y81.654
G00 X338.962 Y79.559
G00 X322.615 Y73.365
G00 X322.449 Y73.305
G00 X322.281 Y73.252
G00 X322.11 Y73.206
G00 X321.938 Y73.166
G00 X321.765 Y73.133
G00 X321.631 Y73.112
G00 X307.997 Y71.18
G00 X307.985 Y71.143
G00 X307.922 Y70.979
G00 X307.853 Y70.816
G00 X307.817 Y70.742
G00 X307.937 Y70.677
G00 X308.088 Y70.587
G00 X308.282 Y70.46
G00 X308.696 Y70.173
G00 X310.767 Y69.103
G00 X310.767 Y69.103
G00 X316.305 Y66.249
G00 X316.46 Y66.165
G00 X316.612 Y66.075
G00 X316.761 Y65.98
G00 X316.905 Y65.879
G00 X317.046 Y65.772
G00 X317.182 Y65.66
G00 X317.314 Y65.543
G00 X317.442 Y65.421
G00 X317.565 Y65.294
G00 X317.682 Y65.162
G00 X317.795 Y65.027
G00 X317.902 Y64.886
G00 X318.004 Y64.742
G00 X318.1 Y64.594
G00 X318.191 Y64.443
G00 X318.276 Y64.288
G00 X318.354 Y64.13
G00 X318.427 Y63.969
G00 X318.493 Y63.805
G00 X318.55 Y63.648
G00 X320.396 Y63.093
G00 X323.142 Y63.23
G00 X324.232 Y64.746
G00 X324.338 Y64.887
G00 X324.449 Y65.024
G00 X324.565 Y65.157
G00 X324.686 Y65.285
G00 X324.813 Y65.409
G00 X324.944 Y65.527
G00 X325.079 Y65.641
G00 X325.218 Y65.749
G00 X325.362 Y65.852
G00 X325.509 Y65.949
G00 X325.66 Y66.04
G00 X325.814 Y66.126
G00 X325.972 Y66.206
G00 X326.133 Y66.279
G00 X326.296 Y66.346
G00 X326.461 Y66.407
G00 X326.629 Y66.462
G00 X326.799 Y66.51
G00 X326.971 Y66.551
G00 X327.144 Y66.586
G00 X327.318 Y66.615
G00 X327.493 Y66.636
G00 X327.642 Y66.649
G00 X330.395 Y66.845
G00 X333.584 Y68.586
G00 X333.74 Y68.667
G00 X333.9 Y68.743
G00 X334.062 Y68.812
G00 X334.227 Y68.875
G00 X334.394 Y68.932
G00 X334.563 Y68.982
G00 X334.734 Y69.026
G00 X334.875 Y69.057
G00 X345.108 Y71.131
G00 X354.647 Y74.962
G00 X354.812 Y75.024
G00 X354.979 Y75.081
G00 X355.148 Y75.13
G00 X355.319 Y75.174
G00 X355.492 Y75.21
G00 X355.666 Y75.24
G00 X355.841 Y75.264
G00 X356.017 Y75.28
G00 X356.193 Y75.29
G00 X356.369 Y75.293
G00 X356.546 Y75.29
G00 X356.722 Y75.279
G00 X356.898 Y75.262
G00 X357.073 Y75.238
G00 X357.247 Y75.207
G00 X357.419 Y75.17
G00 X357.59 Y75.126
G00 X357.759 Y75.076
G00 X357.926 Y75.019
G00 X358.091 Y74.955
G00 X358.253 Y74.886
G00 X358.413 Y74.81
G00 X358.569 Y74.728
G00 X358.723 Y74.641
G00 X358.872 Y74.547
G00 X359.018 Y74.448
G00 X359.17 Y74.336
G00 X359.651 Y73.965
G00 X361.347 Y73.885
G00 X361.523 Y73.874
G00 X361.699 Y73.855
G00 X361.874 Y73.83
G00 X362.047 Y73.798
G00 X362.219 Y73.76
G00 X362.316 Y73.735
G00 X368.352 Y72.126
G00 X368.521 Y72.078
G00 X368.689 Y72.023
G00 X368.855 Y71.961
G00 X369.017 Y71.893
G00 X369.178 Y71.819
G00 X369.335 Y71.739
G00 X369.489 Y71.652
G00 X369.64 Y71.561
G00 X369.787 Y71.463
G00 X369.929 Y71.36
G00 X370.069 Y71.251
G00 X370.203 Y71.137
G00 X370.334 Y71.018
G00 X370.46 Y70.894
G00 X370.58 Y70.765
G00 X370.696 Y70.632
G00 X370.807 Y70.495
G00 X370.912 Y70.353
G00 X371.012 Y70.207
G00 X371.106 Y70.058
G00 X371.194 Y69.905
G00 X371.276 Y69.749
G00 X371.353 Y69.59
G00 X371.423 Y69.428
G00 X371.487 Y69.263
G00 X371.544 Y69.096
G00 X371.595 Y68.927
G00 X371.64 Y68.756
G00 X371.678 Y68.584
G00 X371.709 Y68.41
G00 X371.734 Y68.236
G00 X371.752 Y68.06
G00 X371.759 Y67.956
G00 X372.052 Y63.058
G00 X372.059 Y62.881
G00 X372.06 Y62.705
G00 X372.053 Y62.528
G00 X372.04 Y62.352
G00 X372.02 Y62.177
G00 X371.994 Y62.002
G00 X371.961 Y61.829
G00 X371.921 Y61.657
G00 X371.874 Y61.487
G00 X371.821 Y61.319
G00 X371.762 Y61.152
G00 X371.696 Y60.988
G00 X371.624 Y60.827
G00 X371.546 Y60.67
G00 X369.591 Y56.889
G00 X369.051 Y48.381
G00 X370.224 Y45.56
G00 X370.289 Y45.396
G00 X370.347 Y45.229
G00 X370.399 Y45.06
G00 X370.444 Y44.89
G00 X370.483 Y44.717
G00 X370.515 Y44.544
G00 X370.54 Y44.369
G00 X370.559 Y44.194
G00 X370.571 Y44.018
G00 X370.576 Y43.841
G00 X370.575 Y43.665
G00 X370.567 Y43.488
G00 X370.551 Y43.312
G00 X370.53 Y43.137
G00 X370.506 Y42.988
G00 X369.833 Y39.206
G00 X369.909 Y34.763
G00 X369.908 Y34.586
G00 X369.901 Y34.41
G00 X369.887 Y34.234
G00 X369.867 Y34.059
G00 X369.839 Y33.884
G00 X369.805 Y33.711
G00 X369.765 Y33.539
G00 X369.717 Y33.369
G00 X369.664 Y33.201
G00 X369.604 Y33.035
G00 X369.537 Y32.872
G00 X369.464 Y32.711
G00 X369.386 Y32.553
G00 X369.301 Y32.398
G00 X369.21 Y32.246
G00 X369.114 Y32.099
G00 X369.012 Y31.955
G00 X368.905 Y31.815
G00 X368.792 Y31.679
G00 X368.674 Y31.547
G00 X368.551 Y31.421
G00 X368.419 Y31.294
G00 X367.547 Y30.494
G00 X367.579 Y30.427
G00 X367.648 Y30.265
G00 X367.712 Y30.101
G00 X367.769 Y29.934
G00 X367.82 Y29.764
G00 X367.864 Y29.594
G00 X367.901 Y29.421
G00 X367.932 Y29.247
G00 X367.956 Y29.072
G00 X367.974 Y28.897
G00 X367.984 Y28.72
G00 X367.989 Y28.544
G00 X367.985 Y28.367
G00 X367.976 Y28.191
G00 X367.96 Y28.016
G00 X367.936 Y27.841
G00 X367.907 Y27.666
G00 X367.87 Y27.494
G00 X367.832 Y27.34
G00 X373.714 Y26.604
G00 X387.399 Y26.604
G00 X387.399 Y183.047
G00 X345.668 Y183.047
G00 X348.874 Y177.293
G00 X351.692 Y174.672
G00 X355.671 Y173.483
G00 X355.839 Y173.429
G00 X356.005 Y173.369
G00 X356.168 Y173.302
G00 X356.329 Y173.229
G00 X356.487 Y173.15
G00 X356.642 Y173.065
G00 X356.793 Y172.975
G00 X356.941 Y172.879
G00 X357.085 Y172.776
G00 X357.225 Y172.669
G00 X357.361 Y172.556
G00 X357.492 Y172.438
G00 X357.619 Y172.315
G00 X357.741 Y172.188
G00 X357.858 Y172.055
G00 X357.969 Y171.919
G00 X358.056 Y171.805
G00 X359.055 Y170.45
G00 X359.422 Y170.335
G00 X364.725 Y171.116
G00 X364.9 Y171.139
G00 X365.076 Y171.155
G00 X365.253 Y171.163
G00 X365.429 Y171.165
G00 X365.606 Y171.161
G00 X365.782 Y171.15
G00 X365.957 Y171.131
G00 X366.132 Y171.107
G00 X366.306 Y171.075
G00 X366.478 Y171.037
G00 X366.649 Y170.992
G00 X366.818 Y170.941
G00 X366.985 Y170.883
G00 X367.149 Y170.819
G00 X367.311 Y170.748
G00 X367.47 Y170.672
G00 X367.626 Y170.589
G00 X367.779 Y170.501
G00 X367.928 Y170.407
G00 X368.073 Y170.307
G00 X368.179 Y170.229
G00 X370.458 Y168.497
G00 X373.59 Y169.08
G00 X373.764 Y169.109
G00 X373.939 Y169.132
G00 X374.115 Y169.147
G00 X374.291 Y169.156
G00 X374.467 Y169.158
G00 X374.644 Y169.153
G00 X374.82 Y169.142
G00 X374.995 Y169.123
G00 X375.17 Y169.098
G00 X375.344 Y169.067
G00 X375.516 Y169.028
G00 X375.687 Y168.983
G00 X375.856 Y168.932
G00 X376.023 Y168.874
G00 X376.187 Y168.81
G00 X376.349 Y168.739
G00 X376.508 Y168.663
G00 X376.664 Y168.58
G00 X376.817 Y168.491
G00 X376.966 Y168.397
G00 X377.111 Y168.297
G00 X377.252 Y168.191
G00 X377.39 Y168.08
G00 X377.523 Y167.964
G00 X377.651 Y167.843
G00 X377.775 Y167.717
G00 X377.894 Y167.587
G00 X378.007 Y167.452
G00 X378.116 Y167.312
G00 X378.219 Y167.169
G00 X378.316 Y167.022
G00 X378.408 Y166.871
G00 X378.493 Y166.717
G00 X378.573 Y166.559
G00 X378.647 Y166.399
G00 X378.715 Y166.236
G00 X378.776 Y166.07
G00 X378.831 Y165.902
G00 X378.879 Y165.733
G00 X378.921 Y165.561
G00 X378.956 Y165.388
G00 X378.984 Y165.214
G00 X379.014 Y164.956
G00 X379.339 Y161.218
G00 X379.351 Y161.042
G00 X379.356 Y160.865
G00 X379.354 Y160.688
G00 X379.346 Y160.512
G00 X379.33 Y160.337
G00 X379.309 Y160.161
G00 X379.28 Y159.987
G00 X379.25 Y159.839
G00 X378.143 Y154.769
G00 X378.102 Y154.597
G00 X378.055 Y154.427
G00 X378.001 Y154.259
G00 X377.94 Y154.093
G00 X377.874 Y153.93
G00 X377.795 Y153.757
G00 X373.766 Y145.374
G00 X373.687 Y145.216
G00 X373.601 Y145.061
G00 X373.51 Y144.91
G00 X373.413 Y144.763
G00 X373.31 Y144.619
G00 X373.202 Y144.48
G00 X373.089 Y144.345
G00 X372.97 Y144.214
G00 X372.847 Y144.088
G00 X372.719 Y143.966
G00 X372.586 Y143.85
G00 X372.449 Y143.739
G00 X372.308 Y143.633
G00 X372.234 Y143.581
G00 X372.138 Y143.514
G00 X372.143 Y143.512
G00 X372.308 Y143.449
G00 X372.47 Y143.379
G00 X372.634 Y143.301
G00 X376.143 Y141.544
G00 X376.299 Y141.462
G00 X376.452 Y141.374
G00 X376.602 Y141.28
G00 X376.747 Y141.181
G00 X376.889 Y141.076
G00 X377.027 Y140.965
G00 X377.16 Y140.85
G00 X377.289 Y140.729
G00 X377.414 Y140.604
G00 X377.533 Y140.474
G00 X377.647 Y140.339
G00 X377.756 Y140.2
G00 X377.859 Y140.057
G00 X377.958 Y139.91
G00 X378.05 Y139.76
G00 X378.136 Y139.606
G00 X378.217 Y139.449
G00 X378.291 Y139.289
G00 X378.359 Y139.126
G00 X378.396 Y139.031
;Nearing path end, moving to preshutoff position
G00 X380.006 Y134.69
M107 ;Pump off
G00 X380.25 Y134.033
G00 X380.308 Y133.867
G00 X380.36 Y133.698
G00 X380.405 Y133.527
G00 X380.444 Y133.355
G00 X380.476 Y133.182
G00 X380.501 Y133.007
G00 X380.52 Y132.831
G00 X380.532 Y132.655
G00 X380.537 Y132.479
G00 X380.535 Y132.302
G00 X380.527 Y132.126
G00 X380.512 Y131.95
G00 X380.49 Y131.775
G00 X380.461 Y131.601
G00 X380.426 Y131.427
G00 X380.384 Y131.256
G00 X380.336 Y131.086
G00 X380.281 Y130.919
G00 X380.22 Y130.753
G00 X380.152 Y130.59
G00 X380.078 Y130.43
G00 X379.998 Y130.272
G00 X379.912 Y130.118
G00 X379.821 Y129.967
G00 X379.723 Y129.82
G00 X379.62 Y129.677
G00 X379.512 Y129.538
G00 X379.398 Y129.403
G00 X379.279 Y129.272
G00 X379.156 Y129.146
G00 X379.027 Y129.025
G00 X378.894 Y128.909
G00 X378.757 Y128.798
G00 X378.615 Y128.693
G00 X378.47 Y128.593
G00 X378.32 Y128.498
G00 X378.168 Y128.41
G00 X378.012 Y128.327
G00 X377.853 Y128.251
G00 X377.691 Y128.18
G00 X377.526 Y128.116
G00 X377.359 Y128.058
G00 X377.191 Y128.007
G00 X377.02 Y127.962
G00 X376.848 Y127.924
G00 X376.674 Y127.892
G4 P250 ;Pause for 250 milliseconds
;Completed path #10/71 on color #4
;Switching Color to: Medium dark
G4 P1000 ;Pause for 1000 milliseconds
G00 X1 Y1 ;Help homing
G28 X0 Y0 ;Home All Axis
M84 ;Motors off
M142 ;Bottle change
G4 P15000 ;Pause for 15000 milliseconds
;Starting fill path #11/71, segments: 3, length: 22, color #3, too small to fill, outline only
G00 X203.266 Y92.277
M106 ;Pump on
G4 P350 ;Pause for 350 milliseconds
;Very short path, early shutoff without move
M107 ;Pump off
G00 X206.779 Y92.277
G00 X204.728 Y91.441
G00 X203.266 Y92.277
G4 P250 ;Pause for 250 milliseconds
;Completed path #11/71 on color #3
;Starting fill path #12/71, segments: 3, length: 23, color #3, too small to fill, outline only
G00 X215.313 Y87.257
M106 ;Pump on
G4 P350 ;Pause for 350 milliseconds
;Very short path, early shutoff without move
M107 ;Pump off
G00 X217.069 Y88.486
G00 X218.826 Y87.257
G00 X215.313 Y87.257
G4 P250 ;Pause for 250 milliseconds
;Completed path #12/71 on color #3
;Starting fill path #13/71, segments: 6, length: 57, color #3, too small to fill, outline only
G00 X214.811 Y95.289
M106 ;Pump on
G4 P350 ;Pause for 350 milliseconds
G00 X222.842 Y94.787
G00 X222.842 Y95.791
;Nearing path end, moving to preshutoff position
G00 X220.515 Y95.791
M107 ;Pump off
G00 X219.83 Y95.791
G00 X220.332 Y97.798
G00 X214.811 Y95.289
G4 P250 ;Pause for 250 milliseconds
;Completed path #13/71 on color #3
;Starting fill path #14/71, segments: 4, length: 57, color #3, too small to fill, outline only
G00 X220.834 Y87.257
M106 ;Pump on
G4 P350 ;Pause for 350 milliseconds
G00 X220.834 Y86.254
G00 X211.297 Y86.755
;Nearing path end, moving to preshutoff position
G00 X212.026 Y86.794
M107 ;Pump off
G00 X220.834 Y87.257
G4 P250 ;Pause for 250 milliseconds
;Completed path #14/71 on color #3
;Starting fill path #15/71, segments: 8, length: 81, color #3, too small to fill, outline only
G00 X222.842 Y85.752
M106 ;Pump on
G4 P350 ;Pause for 350 milliseconds
G00 X222.842 Y87.257
G00 X225.854 Y87.257
G00 X225.854 Y85.752
G00 X227.861 Y85.752
G00 X225.854 Y85.25
G00 X231.877 Y80.23
;Nearing path end, moving to preshutoff position
G00 X230.368 Y81.152
M107 ;Pump off
G00 X222.842 Y85.752
G4 P250 ;Pause for 250 milliseconds
;Completed path #15/71 on color #3
;Starting fill path #16/71, segments: 4, length: 30, color #3, too small to fill, outline only
G00 X225.854 Y85.752
M106 ;Pump on
G4 P350 ;Pause for 350 milliseconds
;Nearing path end, moving to preshutoff position
G00 X225.854 Y87.363
M107 ;Pump off
G00 X225.854 Y87.759
G00 X229.367 Y88.763
G00 X227.487 Y86.42
G00 X225.854 Y85.752
G4 P250 ;Pause for 250 milliseconds
;Completed path #16/71 on color #3
;Starting fill path #17/71, segments: 4, length: 28, color #3, too small to fill, outline only
G00 X220.834 Y97.798
M106 ;Pump on
G4 P350 ;Pause for 350 milliseconds
;Nearing path end, moving to preshutoff position
G00 X221.761 Y98.146
M107 ;Pump off
G00 X224.85 Y99.304
G00 X224.85 Y97.798
G00 X220.834 Y97.798
G4 P250 ;Pause for 250 milliseconds
;Completed path #17/71 on color #3
;Starting fill path #18/71, segments: 4, length: 10, color #3, too small to fill, outline only
G00 X223.344 Y95.289
M106 ;Pump on
G4 P350 ;Pause for 350 milliseconds
;Very short path, early shutoff without move
M107 ;Pump off
G00 X223.344 Y96.293
G00 X224.348 Y96.293
G00 X223.344 Y95.289
G4 P250 ;Pause for 250 milliseconds
;Completed path #18/71 on color #3
;Starting fill path #19/71, segments: 6, length: 153, color #3, too small to fill, outline only
G00 X228.363 Y92.277
M106 ;Pump on
G4 P350 ;Pause for 350 milliseconds
G00 X232.881 Y96.293
G00 X229.869 Y92.779
G00 X249.947 Y88.763
G00 X247.17 Y87.573
G00 X243.924 Y88.189
;Nearing path end, moving to preshutoff position
G00 X236.857 Y89.908
M107 ;Pump off
G00 X234.119 Y90.574
G00 X230.035 Y91.766
G00 X228.363 Y92.277
G4 P250 ;Pause for 250 milliseconds
;Completed path #19/71 on color #3
;Starting fill path #20/71, segments: 4, length: 18, color #3, too small to fill, outline only
G00 X232.881 Y85.752
M106 ;Pump on
G4 P350 ;Pause for 350 milliseconds
;Very short path, early shutoff without move
M107 ;Pump off
G00 X232.881 Y88.261
G00 X233.885 Y85.752
G00 X232.881 Y85.752
G4 P250 ;Pause for 250 milliseconds
;Completed path #20/71 on color #3
;Starting fill path #21/71, segments: 4, length: 18, color #3, too small to fill, outline only
G00 X232.881 Y88.261
M106 ;Pump on
G4 P350 ;Pause for 350 milliseconds
;Very short path, early shutoff without move
M107 ;Pump off
G00 X233.885 Y85.752
G00 X232.881 Y85.752
G00 X232.881 Y88.261
G4 P250 ;Pause for 250 milliseconds
;Completed path #21/71 on color #3
;Starting fill path #22/71, segments: 5, length: 20, color #3, too small to fill, outline only
G00 X234.889 Y85.752
M106 ;Pump on
G4 P350 ;Pause for 350 milliseconds
;Very short path, early shutoff without move
M107 ;Pump off
G00 X234.889 Y86.755
G00 X236.897 Y87.257
G00 X237.399 Y85.752
G00 X234.889 Y85.752
G4 P250 ;Pause for 250 milliseconds
;Completed path #22/71 on color #3
;Starting fill path #23/71, segments: 4, length: 56, color #3, too small to fill, outline only
G00 X236.897 Y81.736
M106 ;Pump on
G4 P350 ;Pause for 350 milliseconds
G00 X232.881 Y88.261
;Nearing path end, moving to preshutoff position
G00 X230.55 Y85.931
M107 ;Pump off
G00 X229.869 Y85.25
G00 X236.897 Y81.736
G4 P250 ;Pause for 250 milliseconds
;Completed path #23/71 on color #3
;Starting fill path #24/71, segments: 16, length: 459, color #3, too small to fill, outline only
G00 X232.881 Y96.293
M106 ;Pump on
G4 P350 ;Pause for 350 milliseconds
G00 X244.785 Y105.046
G00 X256.023 Y114.67
G00 X271.531 Y121.238
G00 X278.559 Y124.638
G00 X291.107 Y125.406
G00 X280.566 Y125.82
G00 X272.535 Y124.402
G00 X282.83 Y129.794
G00 X282.574 Y129.685
G00 X265.508 Y124.421
G00 X258.149 Y122.749
G00 X257.117 Y123.416
G00 X256.975 Y123.398
G00 X257.477 Y120.888
G00 X250.149 Y114.874
G00 X243.944 Y107.471
;Nearing path end, moving to preshutoff position
G00 X239.118 Y102.528
M107 ;Pump off
G00 X237.109 Y100.471
G00 X234.121 Y97.51
G00 X232.881 Y96.293
G4 P250 ;Pause for 250 milliseconds
;Completed path #24/71 on color #3
;Starting fill path #25/71, segments: 3, length: 26, color #3, too small to fill, outline only
G00 X252.457 Y66.176
M106 ;Pump on
G4 P350 ;Pause for 350 milliseconds
;Nearing path end, moving to preshutoff position
G00 X252.189 Y66.041
M107 ;Pump off
G00 X248.441 Y64.168
G00 X250.672 Y65.9
G00 X252.457 Y66.176
G4 P250 ;Pause for 250 milliseconds
;Completed path #25/71 on color #3
;Starting fill path #26/71, segments: 3, length: 15, color #3, too small to fill, outline only
G00 X186.199 Y188.149
M106 ;Pump on
G4 P350 ;Pause for 350 milliseconds
;Very short path, early shutoff without move
M107 ;Pump off
G00 X188.709 Y188.651
G00 X186.199 Y188.149
G4 P250 ;Pause for 250 milliseconds
;Completed path #26/71 on color #3
;Starting fill path #27/71, segments: 462, length: 1516, color #3
G00 X294.464 Y45.938
M106 ;Pump on
G4 P350 ;Pause for 350 milliseconds
G00 X294.352 Y46.006
G00 X294.11 Y46.155
G00 X293.662 Y46.435
G00 X293.348 Y46.614
G00 X287.752 Y49.582
G00 X287.498 Y49.72
G00 X287.344 Y49.805
G00 X287.181 Y49.898
G00 X286.863 Y50.084
G00 X286.717 Y50.171
G00 X284.618 Y44.001
G00 X297.723 Y44.001
G00 X294.464 Y45.938
G00 X299.165 Y53.847
G00 X298.99 Y53.954
G00 X298.375 Y54.339
G00 X297.776 Y54.679
G00 X292.13 Y57.673
G00 X291.969 Y57.761
G00 X291.815 Y57.846
G00 X291.497 Y58.032
G00 X291.322 Y58.138
G00 X291.144 Y58.25
G00 X288.162 Y60.163
G00 X288.01 Y60.262
G00 X287.863 Y60.361
G00 X287.582 Y60.557
G00 X287.439 Y60.66
G00 X287.146 Y60.881
G00 X287.008 Y60.991
G00 X286.747 Y61.204
G00 X286.613 Y61.318
G00 X286.357 Y61.544
G00 X286.163 Y61.722
G00 X282.79 Y64.892
G00 X282.664 Y65.012
G00 X282.538 Y65.135
G00 X282.292 Y65.384
G00 X282.209 Y65.472
G00 X281.93 Y64.67
G00 X273.736 Y40.576
G00 X273.684 Y40.428
G00 X271.663 Y34.8
G00 X331.303 Y34.8
G00 X331.434 Y37.111
G00 X331.447 Y37.293
G00 X331.46 Y37.469
G00 X331.494 Y37.822
G00 X331.514 Y37.998
G00 X331.56 Y38.334
G00 X331.586 Y38.508
G00 X331.635 Y38.797
G00 X331.667 Y38.968
G00 X332.226 Y41.831
G00 X332.259 Y41.992
G00 X332.296 Y42.165
G00 X332.379 Y42.519
G00 X332.423 Y42.69
G00 X332.516 Y43.029
G00 X332.566 Y43.198
G00 X332.676 Y43.544
G00 X332.733 Y43.711
G00 X332.849 Y44.032
G00 X332.912 Y44.197
G00 X333.048 Y44.534
G00 X333.118 Y44.696
G00 X333.261 Y45.014
G00 X333.336 Y45.173
G00 X333.495 Y45.491
G00 X333.576 Y45.648
G00 X333.739 Y45.946
G00 X333.826 Y46.099
G00 X334.017 Y46.419
G00 X334.11 Y46.569
G00 X334.163 Y46.65
G00 X334.066 Y46.581
G00 X333.92 Y46.481
G00 X333.642 Y46.298
G00 X333.493 Y46.203
G00 X333.175 Y46.01
G00 X333.022 Y45.922
G00 X332.718 Y45.753
G00 X332.561 Y45.67
G00 X332.252 Y45.514
G00 X332.093 Y45.437
G00 X331.77 Y45.289
G00 X331.608 Y45.219
G00 X331.271 Y45.08
G00 X331.107 Y45.016
G00 X330.793 Y44.901
G00 X330.626 Y44.843
G00 X330.287 Y44.732
G00 X330.118 Y44.681
G00 X329.768 Y44.581
G00 X329.597 Y44.537
G00 X329.26 Y44.455
G00 X329.087 Y44.417
G00 X328.735 Y44.346
G00 X328.561 Y44.314
G00 X328.286 Y44.269
G00 X328.166 Y44.251
G00 X328.034 Y44.232
G00 X322.636 Y43.501
G00 X322.462 Y43.479
G00 X322.287 Y43.459
G00 X321.932 Y43.425
G00 X321.756 Y43.411
G00 X321.403 Y43.391
G00 X321.227 Y43.384
G00 X320.874 Y43.377
G00 X320.697 Y43.377
G00 X320.345 Y43.384
G00 X320.168 Y43.391
G00 X319.833 Y43.41
G00 X319.657 Y43.423
G00 X319.284 Y43.459
G00 X319.109 Y43.479
G00 X318.758 Y43.527
G00 X318.583 Y43.554
G00 X318.249 Y43.612
G00 X318.075 Y43.646
G00 X317.72 Y43.722
G00 X317.548 Y43.762
G00 X317.272 Y43.831
G00 X317.147 Y43.865
G00 X317.006 Y43.904
G00 X311.702 Y45.414
G00 X311.519 Y45.468
G00 X311.35 Y45.52
G00 X311.032 Y45.624
G00 X310.865 Y45.681
G00 X310.536 Y45.803
G00 X310.371 Y45.867
G00 X310.044 Y46.003
G00 X309.882 Y46.073
G00 X309.558 Y46.222
G00 X309.399 Y46.299
G00 X309.075 Y46.463
G00 X308.92 Y46.546
G00 X308.615 Y46.716
G00 X308.463 Y46.805
G00 X308.173 Y46.98
G00 X308.024 Y47.075
G00 X307.718 Y47.277
G00 X307.572 Y47.377
G00 X307.286 Y47.584
G00 X307.144 Y47.689
G00 X306.877 Y47.897
G00 X306.739 Y48.008
G00 X306.459 Y48.244
G00 X306.326 Y48.36
G00 X306.069 Y48.594
G00 X305.941 Y48.715
G00 X305.682 Y48.969
G00 X305.558 Y49.096
G00 X305.327 Y49.341
G00 X305.209 Y49.471
G00 X304.968 Y49.747
G00 X304.846 Y49.892
G00 X304.72 Y50.045
G00 X303.952 Y51.001
G00 X299.165 Y53.847
G00 X303.963 Y61.697
G00 X303.871 Y61.753
G00 X303.093 Y62.241
G00 X302.209 Y62.743
G00 X296.44 Y65.801
G00 X296.286 Y65.887
G00 X296.112 Y65.993
G00 X293.13 Y67.907
G00 X292.983 Y68.005
G00 X292.84 Y68.109
G00 X292.701 Y68.218
G00 X292.567 Y68.332
G00 X292.463 Y68.427
G00 X289.09 Y71.597
G00 X288.963 Y71.72
G00 X288.842 Y71.848
G00 X288.759 Y71.942
G00 X285.993 Y75.144
G00 X278.979 Y77.829
G00 X275.082 Y73.003
G00 X273.237 Y67.683
G00 X265.025 Y43.538
G00 X262.917 Y37.669
G00 X262.854 Y37.504
G00 X262.785 Y37.342
G00 X262.71 Y37.182
G00 X262.629 Y37.026
G00 X262.541 Y36.872
G00 X262.412 Y36.667
G00 X259.476 Y32.278
G00 X259.375 Y32.133
G00 X259.269 Y31.992
G00 X259.157 Y31.856
G00 X259.04 Y31.723
G00 X258.918 Y31.596
G00 X258.792 Y31.473
G00 X258.66 Y31.355
G00 X258.524 Y31.242
G00 X258.341 Y31.102
G00 X257.318 Y30.366
G00 X257.113 Y30.215
G00 X256.969 Y30.112
G00 X256.822 Y30.016
G00 X256.67 Y29.925
G00 X256.515 Y29.84
G00 X256.358 Y29.761
G00 X256.197 Y29.688
G00 X256.033 Y29.622
G00 X255.868 Y29.561
G00 X255.7 Y29.507
G00 X255.508 Y29.454
G00 X248.889 Y27.78
G00 X248.717 Y27.74
G00 X248.544 Y27.707
G00 X248.369 Y27.68
G00 X248.15 Y27.656
G00 X241.906 Y27.127
G00 X237.69 Y25.6
G00 X339.841 Y25.6
G00 X340.017 Y26.014
G00 X340.62 Y36.587
G00 X340.633 Y36.763
G00 X340.654 Y36.939
G00 X340.68 Y37.113
G00 X340.698 Y37.206
G00 X341.256 Y40.069
G00 X341.293 Y40.242
G00 X341.337 Y40.413
G00 X341.387 Y40.582
G00 X341.444 Y40.749
G00 X341.507 Y40.914
G00 X341.576 Y41.076
G00 X341.652 Y41.236
G00 X341.733 Y41.392
G00 X341.821 Y41.546
G00 X341.914 Y41.696
G00 X342.013 Y41.842
G00 X342.118 Y41.984
G00 X342.227 Y42.122
G00 X342.343 Y42.256
G00 X342.463 Y42.385
G00 X342.588 Y42.51
G00 X342.718 Y42.629
G00 X342.852 Y42.744
G00 X343.038 Y42.889
G00 X345.597 Y44.779
G00 X345.741 Y44.881
G00 X345.889 Y44.977
G00 X346.04 Y45.068
G00 X346.195 Y45.153
G00 X346.353 Y45.232
G00 X346.514 Y45.305
G00 X346.677 Y45.371
G00 X346.843 Y45.432
G00 X347.011 Y45.485
G00 X347.181 Y45.533
G00 X347.353 Y45.573
G00 X347.526 Y45.608
G00 X347.701 Y45.635
G00 X347.876 Y45.656
G00 X348.052 Y45.67
G00 X348.228 Y45.677
G00 X348.405 Y45.678
G00 X348.581 Y45.671
G00 X348.757 Y45.658
G00 X348.933 Y45.639
G00 X349.107 Y45.612
G00 X349.28 Y45.579
G00 X349.453 Y45.539
G00 X349.623 Y45.493
G00 X349.791 Y45.44
G00 X349.957 Y45.381
G00 X350.121 Y45.315
G00 X350.283 Y45.243
G00 X350.441 Y45.165
G00 X350.596 Y45.081
G00 X350.748 Y44.992
G00 X350.896 Y44.896
G00 X351.041 Y44.794
G00 X351.181 Y44.688
G00 X351.318 Y44.576
G00 X351.45 Y44.459
G00 X351.577 Y44.336
G00 X351.7 Y44.209
G00 X351.818 Y44.078
G00 X351.93 Y43.942
G00 X352.037 Y43.801
G00 X352.139 Y43.657
G00 X352.235 Y43.509
G00 X352.326 Y43.358
G00 X352.41 Y43.203
G00 X352.488 Y43.045
G00 X352.561 Y42.884
G00 X352.627 Y42.72
G00 X352.687 Y42.554
G00 X352.729 Y42.423
G00 X352.861 Y42.335
G00 X353.994 Y43.015
G00 X354.147 Y43.103
G00 X354.303 Y43.185
G00 X354.463 Y43.261
G00 X354.625 Y43.33
G00 X354.79 Y43.394
G00 X354.957 Y43.451
G00 X355.126 Y43.501
G00 X355.297 Y43.545
G00 X355.469 Y43.583
G00 X355.643 Y43.614
G00 X355.818 Y43.638
G00 X355.993 Y43.656
G00 X356.17 Y43.666
G00 X356.346 Y43.67
G00 X356.523 Y43.667
G00 X356.699 Y43.658
G00 X356.875 Y43.642
G00 X357.05 Y43.619
G00 X357.224 Y43.589
G00 X357.396 Y43.552
G00 X357.568 Y43.509
G00 X357.808 Y43.437
G00 X358.831 Y43.098
G00 X358.789 Y45.217
G00 X357.814 Y52.071
G00 X357.718 Y52.085
G00 X357.544 Y52.113
G00 X357.371 Y52.148
G00 X357.199 Y52.189
G00 X357.03 Y52.238
G00 X356.862 Y52.292
G00 X356.696 Y52.353
G00 X356.533 Y52.421
G00 X356.373 Y52.494
G00 X356.215 Y52.574
G00 X356.061 Y52.659
G00 X355.91 Y52.751
G00 X355.762 Y52.848
G00 X355.619 Y52.951
G00 X355.48 Y53.059
G00 X355.344 Y53.172
G00 X355.213 Y53.291
G00 X355.087 Y53.415
G00 X354.966 Y53.543
G00 X354.85 Y53.676
G00 X354.739 Y53.813
G00 X354.633 Y53.954
G00 X354.533 Y54.099
G00 X354.438 Y54.248
G00 X354.349 Y54.401
G00 X354.267 Y54.557
G00 X354.19 Y54.716
G00 X354.119 Y54.878
G00 X354.055 Y55.042
G00 X353.997 Y55.209
G00 X353.945 Y55.377
G00 X353.9 Y55.548
G00 X353.861 Y55.72
G00 X353.829 Y55.894
G00 X353.804 Y56.068
G00 X353.786 Y56.244
G00 X353.774 Y56.42
G00 X353.769 Y56.597
G00 X353.771 Y56.773
G00 X353.779 Y56.949
G00 X353.795 Y57.125
G00 X353.817 Y57.301
G00 X353.846 Y57.475
G00 X353.881 Y57.647
G00 X353.923 Y57.819
G00 X353.972 Y57.989
G00 X354.026 Y58.156
G00 X354.088 Y58.322
G00 X354.155 Y58.485
G00 X354.23 Y58.645
G00 X354.31 Y58.803
G00 X354.396 Y58.957
G00 X354.487 Y59.107
G00 X354.585 Y59.254
G00 X354.688 Y59.398
G00 X354.797 Y59.537
G00 X354.876 Y59.632
G00 X356.369 Y61.374
G00 X356.286 Y61.4
G00 X351.563 Y61.02
G00 X344.623 Y58.953
G00 X344.453 Y58.906
G00 X344.281 Y58.865
G00 X344.108 Y58.831
G00 X343.934 Y58.804
G00 X343.758 Y58.783
G00 X343.582 Y58.769
G00 X343.406 Y58.762
G00 X343.251 Y58.762
G00 X337.568 Y58.834
G00 X337.511 Y58.787
G00 X337.372 Y58.679
G00 X337.228 Y58.576
G00 X337.081 Y58.479
G00 X336.93 Y58.387
G00 X336.776 Y58.301
G00 X336.619 Y58.222
G00 X336.458 Y58.148
G00 X336.295 Y58.081
G00 X336.129 Y58.02
G00 X335.961 Y57.965
G00 X335.791 Y57.917
G00 X335.687 Y57.891
G00 X331.571 Y56.909
G00 X329.525 Y54.747
G00 X329.401 Y54.621
G00 X329.273 Y54.5
G00 X329.14 Y54.384
G00 X329.003 Y54.273
G00 X328.861 Y54.167
G00 X328.715 Y54.068
G00 X328.566 Y53.973
G00 X328.414 Y53.885
G00 X328.258 Y53.802
G00 X328.099 Y53.725
G00 X327.937 Y53.655
G00 X327.772 Y53.591
G00 X327.606 Y53.533
G00 X327.437 Y53.482
G00 X327.266 Y53.437
G00 X327.093 Y53.399
G00 X326.92 Y53.367
G00 X326.8 Y53.349
G00 X321.402 Y52.618
G00 X321.227 Y52.598
G00 X321.05 Y52.584
G00 X320.874 Y52.578
G00 X320.697 Y52.578
G00 X320.521 Y52.584
G00 X320.345 Y52.598
