;PancakePainter v1.4.0 GCODE header start
;Originally generated @ Wed Dec 04 2019 15:32:26 GMT-0600 (Central Standard Time)
;Settings used to generate this file:
;----------------------------------------
;botSpeed: 4620
;flattenResolution: 2
;lineEndPreShutoff: 25
;startWait: 350
;endWait: 250
;shadeChangeWait: 15
;useLineFill: false
;useShortest: true
;shapeFillWidth: 11
;fillSpacing: 10
;fillAngle: 23
;fillGroupThreshold: 27
;useColorSpeed: false
;botColorSpeed: 6600,5280,5280,3300
;----------------------------------------
W1 X42 Y210 L485 T0 ;Define Workspace of this file
G21 ;Set units to MM
G1 F4620 ;Set Speed
M107 ;Pump off
G4 P1000 ;Pause for 1000 milliseconds
M84 ;Motors off
G00 X1 Y1 ;Help homing
G28 X0 Y0 ;Home All Axis
;PancakePainter header complete
;Starting stroke path #1/6, segments: 7, length: 492, color #4
G00 X206.231 Y127.796
M106 ;Pump on
G4 P350 ;Pause for 350 milliseconds
G00 X207.223 Y137.689
G00 X210.076 Y147.213
G00 X214.427 Y156.135
G00 X220.26 Y164.172
G00 X227.263 Y170.795
G00 X235.103 Y176.076
G00 X243.59 Y179.969
G00 X252.535 Y182.423
G00 X261.749 Y183.39
G00 X271.043 Y182.819
G00 X280.229 Y180.663
G00 X289.116 Y176.871
G00 X297.524 Y171.325
G00 X304.93 Y164.269
G00 X310.972 Y156.022
G00 X315.287 Y146.901
;Nearing path end, moving to preshutoff position
G00 X317.455 Y138.361
M107 ;Pump off
G00 X318.48 Y134.324
G00 X318.904 Y129.689
G4 P250 ;Pause for 250 milliseconds
;Completed path #1/6 on color #4
;Starting fill path #2/6, segments: 74, length: 705, color #4
G00 X226.715 Y56.271
M106 ;Pump on
G4 P350 ;Pause for 350 milliseconds
G00 X223.685 Y55.844
G00 X220.774 Y55.874
G00 X216.307 Y56.67
G00 X212.098 Y57.952
G00 X208.347 Y59.77
G00 X204.873 Y62.304
G00 X201.542 Y65.833
G00 X198.965 Y69.904
G00 X197.208 Y74.409
G00 X196.309 Y79.08
G00 X196.252 Y83.794
G00 X197.015 Y88.415
G00 X198.57 Y92.828
G00 X200.883 Y96.9
G00 X203.93 Y100.524
G00 X207.768 Y103.659
G00 X210.876 Y105.442
G00 X214.131 Y106.713
G00 X219.947 Y107.796
G00 X225.8 Y107.647
G00 X230.462 Y106.554
G00 X234.778 Y104.599
G00 X238.662 Y101.874
G00 X242.013 Y98.48
G00 X244.724 Y94.541
G00 X246.698 Y90.187
G00 X247.846 Y85.556
G00 X248.106 Y80.7
G00 X247.534 Y76.373
G00 X246.233 Y72.218
G00 X244.267 Y68.351
G00 X241.692 Y64.847
G00 X238.596 Y61.813
G00 X235.05 Y59.331
G00 X231.132 Y57.478
G00 X226.715 Y56.271
G00 X223.748 Y70.664
G00 X222.73 Y70.521
G00 X222.146 Y70.527
G00 X219.741 Y70.956
G00 X217.464 Y71.649
G00 X215.926 Y72.395
G00 X214.61 Y73.354
G00 X213.178 Y74.872
G00 X212.114 Y76.553
G00 X211.358 Y78.492
G00 X210.958 Y80.567
G00 X210.933 Y82.68
G00 X211.275 Y84.756
G00 X211.967 Y86.72
G00 X212.972 Y88.488
G00 X214.274 Y90.036
G00 X216.111 Y91.537
G00 X217.225 Y92.176
G00 X218.177 Y92.548
G00 X221.117 Y93.095
G00 X223.92 Y93.024
G00 X225.717 Y92.602
G00 X227.477 Y91.805
G00 X229.156 Y90.627
G00 X230.666 Y89.097
G00 X231.904 Y87.3
G00 X232.786 Y85.354
G00 X233.275 Y83.379
G00 X233.388 Y81.275
G00 X233.16 Y79.549
G00 X232.603 Y77.77
G00 X231.738 Y76.067
;Nearing path end, moving to preshutoff position
G00 X231.075 Y75.166
M107 ;Pump off
G00 X230.579 Y74.491
G00 X229.196 Y73.136
G00 X227.657 Y72.059
G00 X226.025 Y71.286
G00 X223.748 Y70.664
G4 P250 ;Pause for 250 milliseconds
;Completed path #2/6 on color #4
;Starting fill path #3/6, segments: 70, length: 384, color #4
G00 X230.145 Y63.245
M106 ;Pump on
G4 P350 ;Pause for 350 milliseconds
G00 X227.211 Y62.443
G00 X225.272 Y62.169
G00 X223.465 Y62.188
G00 X220.483 Y62.72
G00 X217.671 Y63.576
G00 X215.236 Y64.756
G00 X212.993 Y66.392
G00 X210.818 Y68.697
G00 X209.143 Y71.343
G00 X207.997 Y74.282
G00 X207.408 Y77.34
G00 X207.371 Y80.426
G00 X207.871 Y83.455
G00 X208.889 Y86.345
G00 X210.4 Y89.004
G00 X212.386 Y91.366
G00 X214.916 Y93.433
G00 X216.915 Y94.579
G00 X218.979 Y95.385
G00 X222.834 Y96.103
G00 X226.689 Y96.005
G00 X229.705 Y95.298
G00 X232.509 Y94.027
G00 X235.043 Y92.25
G00 X237.242 Y90.023
G00 X239.02 Y87.44
G00 X240.311 Y84.59
G00 X241.06 Y81.571
G00 X241.23 Y78.399
G00 X240.859 Y75.591
G00 X240.011 Y72.884
G00 X238.724 Y70.351
G00 X237.04 Y68.06
G00 X235.011 Y66.072
G00 X232.693 Y64.45
G00 X230.145 Y63.245
G00 X225.038 Y77.053
G00 X224.489 Y76.903
G00 X223.918 Y77.005
G00 X223.039 Y77.273
G00 X222.816 Y77.381
G00 X222.729 Y77.444
G00 X222.456 Y77.734
G00 X222.292 Y77.992
G00 X222.147 Y78.365
G00 X222.058 Y78.828
G00 X222.051 Y79.313
G00 X222.131 Y79.794
;Nearing path end, moving to preshutoff position
G00 X222.246 Y80.119
M107 ;Pump off
G00 X222.287 Y80.238
G00 X222.489 Y80.592
G00 X222.727 Y80.876
G00 X223.186 Y81.25
G00 X224.004 Y81.403
G00 X224.808 Y81.382
G00 X224.96 Y81.346
G00 X225.208 Y81.234
G00 X225.538 Y81.003
G00 X225.895 Y80.641
G00 X226.199 Y80.199
G00 X226.399 Y79.757
G00 X226.489 Y79.393
G00 X226.512 Y78.972
G00 X226.485 Y78.769
G00 X226.381 Y78.436
G00 X226.194 Y78.067
G00 X225.926 Y77.704
G00 X225.61 Y77.394
G00 X225.301 Y77.177
G00 X225.038 Y77.053
G4 P250 ;Pause for 250 milliseconds
;Completed path #3/6 on color #4
;Starting fill path #4/6, segments: 166, length: 1051, color #4, too small to fill, outline only
G00 X226.654 Y166.897
M106 ;Pump on
G4 P350 ;Pause for 350 milliseconds
G00 X226.679 Y166.918
G00 X233.915 Y172.625
G00 X233.938 Y172.643
G00 X233.961 Y172.657
G00 X242.209 Y177.026
G00 X242.255 Y177.042
G00 X251.378 Y179.858
G00 X251.393 Y179.863
G00 X251.437 Y179.869
G00 X261.424 Y180.916
G00 X261.452 Y180.919
G00 X261.465 Y180.917
G00 X271.503 Y180.131
G00 X271.526 Y180.129
G00 X280.062 Y177.896
G00 X280.101 Y177.884
G00 X280.124 Y177.874
G00 X288.137 Y174.122
G00 X296.22 Y168.455
G00 X296.251 Y168.425
G00 X303.273 Y161.365
G00 X303.294 Y161.337
G00 X308.929 Y153.14
G00 X308.939 Y153.122
G00 X308.952 Y153.099
G00 X312.845 Y144.017
G00 X314.585 Y135.157
G00 X315.773 Y126.983
G00 X315.784 Y126.919
G00 X315.801 Y126.86
G00 X315.823 Y126.799
G00 X315.85 Y126.742
G00 X315.882 Y126.686
G00 X315.916 Y126.635
G00 X315.956 Y126.584
G00 X315.998 Y126.539
G00 X316.045 Y126.498
G00 X316.095 Y126.458
G00 X316.15 Y126.426
G00 X316.204 Y126.396
G00 X316.264 Y126.371
G00 X316.324 Y126.352
G00 X316.383 Y126.335
G00 X316.446 Y126.326
G00 X316.51 Y126.319
G00 X316.585 Y126.321
G00 X321.498 Y126.61
G00 X321.56 Y126.617
G00 X321.624 Y126.628
G00 X321.683 Y126.645
G00 X321.742 Y126.667
G00 X321.801 Y126.694
G00 X321.857 Y126.723
G00 X321.908 Y126.757
G00 X321.959 Y126.797
G00 X322.004 Y126.842
G00 X322.047 Y126.887
G00 X322.085 Y126.939
G00 X322.12 Y126.991
G00 X322.15 Y127.046
G00 X322.174 Y127.106
G00 X322.194 Y127.165
G00 X322.208 Y127.225
G00 X322.22 Y127.287
G00 X322.224 Y127.352
G00 X322.225 Y127.413
G00 X322.222 Y127.47
G00 X320.965 Y138.563
G00 X320.954 Y138.624
G00 X320.934 Y138.704
G00 X317.425 Y150.014
G00 X317.403 Y150.075
G00 X317.368 Y150.152
G00 X311.742 Y160.578
G00 X311.71 Y160.634
G00 X311.673 Y160.685
G00 X311.652 Y160.71
G00 X303.988 Y169.828
G00 X303.946 Y169.874
G00 X303.875 Y169.937
G00 X295.244 Y176.759
G00 X295.194 Y176.797
G00 X295.121 Y176.84
G00 X285.485 Y181.83
G00 X285.428 Y181.857
G00 X285.355 Y181.881
G00 X275.059 Y185.004
G00 X274.997 Y185.021
G00 X274.925 Y185.032
G00 X264.267 Y186.278
G00 X264.202 Y186.285
G00 X264.127 Y186.283
G00 X253.416 Y185.63
G00 X253.354 Y185.624
G00 X253.279 Y185.609
G00 X242.831 Y183.042
G00 X242.77 Y183.023
G00 X242.696 Y182.993
G00 X232.854 Y178.503
G00 X232.798 Y178.476
G00 X232.724 Y178.428
G00 X223.768 Y171.99
G00 X223.717 Y171.95
G00 X223.672 Y171.908
G00 X223.647 Y171.882
G00 X214.798 Y162.129
G00 X214.758 Y162.079
G00 X214.72 Y162.029
G00 X214.7 Y161.995
G00 X208.103 Y150.601
G00 X208.073 Y150.546
G00 X208.049 Y150.486
G00 X208.034 Y150.439
G00 X204.208 Y137.95
G00 X204.191 Y137.89
G00 X204.175 Y137.782
G00 X203.261 Y125.529
G00 X203.26 Y125.467
G00 X203.264 Y125.402
G00 X203.27 Y125.34
G00 X203.284 Y125.279
G00 X203.303 Y125.217
G00 X203.325 Y125.158
G00 X203.355 Y125.102
G00 X203.387 Y125.049
G00 X203.424 Y124.998
G00 X203.463 Y124.95
G00 X203.508 Y124.904
G00 X203.555 Y124.864
G00 X203.607 Y124.826
G00 X203.662 Y124.793
G00 X203.717 Y124.766
G00 X203.777 Y124.741
G00 X203.836 Y124.722
G00 X203.899 Y124.71
G00 X203.961 Y124.701
G00 X204.025 Y124.697
G00 X204.082 Y124.698
G00 X208.443 Y124.972
G00 X208.508 Y124.979
G00 X208.569 Y124.99
G00 X208.628 Y125.007
G00 X208.69 Y125.029
G00 X208.746 Y125.056
G00 X208.802 Y125.088
G00 X208.853 Y125.122
G00 X208.904 Y125.162
G00 X208.949 Y125.204
G00 X208.99 Y125.251
G00 X209.03 Y125.303
G00 X209.063 Y125.356
G00 X209.092 Y125.41
G00 X209.117 Y125.47
G00 X209.137 Y125.53
G00 X209.154 Y125.59
G00 X209.163 Y125.652
G00 X209.167 Y125.693
G00 X209.75 Y134.458
G00 X209.755 Y134.484
G00 X209.752 Y134.484
G00 X211.921 Y143.57
G00 X211.93 Y143.604
G00 X215.543 Y152.174
G00 X220.489 Y160.011
;Nearing path end, moving to preshutoff position
G00 X220.771 Y160.326
M107 ;Pump off
G00 X226.654 Y166.897
G4 P250 ;Pause for 250 milliseconds
;Completed path #4/6 on color #4
;Starting fill path #5/6, segments: 74, length: 705, color #4
G00 X303.196 Y55.027
M106 ;Pump on
G4 P350 ;Pause for 350 milliseconds
G00 X300.162 Y54.599
G00 X297.256 Y54.629
G00 X292.782 Y55.427
G00 X288.577 Y56.708
G00 X284.825 Y58.526
G00 X281.353 Y61.058
G00 X278.02 Y64.589
G00 X275.443 Y68.662
G00 X273.687 Y73.163
G00 X272.787 Y77.839
G00 X272.73 Y82.547
G00 X273.494 Y87.173
G00 X275.048 Y91.584
G00 X277.362 Y95.656
G00 X280.408 Y99.28
G00 X284.247 Y102.415
G00 X287.352 Y104.196
G00 X290.61 Y105.468
G00 X296.428 Y106.552
G00 X302.277 Y106.403
G00 X306.941 Y105.309
G00 X311.256 Y103.354
G00 X315.14 Y100.629
G00 X318.491 Y97.236
G00 X321.203 Y93.295
G00 X323.175 Y88.945
G00 X324.324 Y84.312
G00 X324.584 Y79.456
G00 X324.012 Y75.127
G00 X322.711 Y70.973
G00 X320.744 Y67.104
G00 X318.172 Y63.604
G00 X315.073 Y60.569
G00 X311.526 Y58.086
G00 X307.61 Y56.234
G00 X303.196 Y55.027
G00 X300.227 Y69.42
G00 X299.209 Y69.276
G00 X298.627 Y69.282
G00 X296.216 Y69.712
G00 X293.945 Y70.404
G00 X292.405 Y71.15
G00 X291.087 Y72.111
G00 X289.658 Y73.626
G00 X288.591 Y75.31
G00 X287.836 Y77.248
G00 X287.436 Y79.324
G00 X287.411 Y81.434
G00 X287.754 Y83.512
G00 X288.446 Y85.476
G00 X289.451 Y87.245
G00 X290.75 Y88.79
G00 X292.591 Y90.293
G00 X293.703 Y90.931
G00 X294.653 Y91.303
G00 X297.598 Y91.851
G00 X300.396 Y91.78
G00 X302.196 Y91.357
G00 X303.954 Y90.561
G00 X305.635 Y89.381
G00 X307.145 Y87.853
G00 X308.383 Y86.054
G00 X309.264 Y84.11
G00 X309.754 Y82.136
G00 X309.866 Y80.03
G00 X309.638 Y78.304
G00 X309.081 Y76.527
G00 X308.214 Y74.82
;Nearing path end, moving to preshutoff position
G00 X307.554 Y73.922
M107 ;Pump off
G00 X307.059 Y73.248
G00 X305.674 Y71.892
G00 X304.133 Y70.813
G00 X302.502 Y70.042
G00 X300.227 Y69.42
G4 P250 ;Pause for 250 milliseconds
;Completed path #5/6 on color #4
;Switching Color to: Light
G4 P1000 ;Pause for 1000 milliseconds
G00 X1 Y1 ;Help homing
G28 X0 Y0 ;Home All Axis
M84 ;Motors off
M142 ;Bottle change
G4 P15000 ;Pause for 15000 milliseconds
;Starting fill path #6/6, segments: 252, length: 6481, color #1
G00 X265.316 Y100.521
M106 ;Pump on
G4 P350 ;Pause for 350 milliseconds
G00 X265.859 Y100.778
G00 X266.665 Y101.343
G00 X267.572 Y102.231
G00 X268.351 Y103.29
G00 X268.869 Y104.311
G00 X269.124 Y105.124
G00 X269.153 Y105.34
G00 X269.094 Y106.436
G00 X268.874 Y107.322
G00 X268.302 Y108.584
G00 X267.387 Y109.914
G00 X266.341 Y110.974
G00 X265.491 Y111.57
G00 X265.104 Y111.745
G00 X262.503 Y111.812
G00 X260.342 Y111.409
G00 X259.39 Y110.631
G00 X258.812 Y109.944
G00 X258.283 Y109.013
G00 X257.842 Y107.763
G00 X257.61 Y106.357
G00 X257.627 Y104.96
G00 X257.877 Y103.664
G00 X258.246 Y102.716
G00 X258.563 Y102.216
G00 X259.183 Y101.559
G00 X259.492 Y101.409
G00 X262.698 Y100.433
G00 X264.086 Y100.185
G00 X265.316 Y100.521
G00 X270.423 Y86.713
G00 X273.253 Y88.051
G00 X276.065 Y90.02
G00 X278.686 Y92.587
G00 X280.881 Y95.574
G00 X282.498 Y98.757
G00 X283.498 Y101.947
G00 X283.871 Y104.768
G00 X283.665 Y108.612
G00 X282.787 Y112.153
G00 X281.122 Y115.826
G00 X278.734 Y119.297
G00 X275.847 Y122.22
G00 X272.791 Y124.364
G00 X269.819 Y125.71
G00 X267.017 Y126.368
G00 X261.334 Y126.513
G00 X255.067 Y125.345
G00 X254.315 Y125.051
G00 X252.785 Y124.173
G00 X249.048 Y121.122
G00 X246.722 Y118.355
G00 X244.885 Y115.122
G00 X243.582 Y111.423
G00 X242.929 Y107.471
G00 X242.978 Y103.474
G00 X243.728 Y99.579
G00 X245.097 Y96.068
G00 X246.927 Y93.177
G00 X249.518 Y90.431
G00 X251.507 Y88.981
G00 X254.126 Y87.712
G00 X259.261 Y86.148
G00 X264.47 Y85.219
G00 X265.479 Y85.362
G00 X270.423 Y86.713
G00 X275.531 Y72.905
G00 X280.645 Y75.323
G00 X285.465 Y78.697
G00 X289.799 Y82.943
G00 X293.411 Y87.858
G00 X296.127 Y93.202
G00 X297.872 Y98.771
G00 X298.588 Y104.195
G00 X298.235 Y110.788
G00 X296.699 Y116.986
G00 X293.943 Y123.066
G00 X290.08 Y128.68
G00 X285.353 Y133.466
G00 X280.092 Y137.158
G00 X274.564 Y139.662
G00 X268.898 Y140.991
G00 X260.164 Y141.214
G00 X251.023 Y139.51
G00 X247.964 Y138.316
G00 X244.442 Y136.295
G00 X238.707 Y131.612
G00 X234.633 Y126.765
G00 X231.487 Y121.229
G00 X229.322 Y115.084
G00 X228.249 Y108.585
G00 X228.329 Y101.987
G00 X229.578 Y95.495
G00 X231.948 Y89.419
G00 X235.291 Y84.138
G00 X239.781 Y79.38
G00 X243.927 Y76.356
G00 X248.759 Y74.015
G00 X255.824 Y71.863
G00 X263.283 Y70.533
G00 X265.218 Y70.513
G00 X268.448 Y70.969
G00 X275.531 Y72.905
G00 X280.638 Y59.096
G00 X288.038 Y62.596
G00 X294.864 Y67.374
G00 X300.912 Y73.299
G00 X305.941 Y80.142
G00 X309.757 Y87.65
G00 X312.246 Y95.594
G00 X313.306 Y103.622
G00 X312.806 Y112.965
G00 X310.61 Y121.819
G00 X306.764 Y130.306
G00 X301.425 Y138.064
G00 X294.86 Y144.712
G00 X287.394 Y149.951
G00 X279.308 Y153.614
G00 X270.779 Y155.614
G00 X258.995 Y155.914
G00 X246.976 Y153.675
G00 X241.616 Y151.582
G00 X236.098 Y148.417
G00 X228.364 Y142.101
G00 X222.544 Y135.178
G00 X218.089 Y127.337
G00 X215.062 Y118.744
G00 X213.568 Y109.699
G00 X213.68 Y100.501
G00 X215.429 Y91.411
G00 X218.799 Y82.77
G00 X223.655 Y75.1
G00 X230.044 Y68.329
G00 X236.348 Y63.732
G00 X243.393 Y60.317
G00 X252.388 Y57.578
G00 X261.912 Y55.88
G00 X266.172 Y55.836
G00 X271.419 Y56.576
G00 X280.638 Y59.096
G00 X285.745 Y45.288
G00 X295.43 Y49.868
G00 X304.265 Y56.052
G00 X312.026 Y63.655
G00 X318.471 Y72.425
G00 X323.386 Y82.096
G00 X326.62 Y92.418
G00 X328.024 Y103.049
G00 X327.377 Y115.142
G00 X324.522 Y126.652
G00 X319.585 Y137.546
G00 X312.772 Y147.447
G00 X304.365 Y155.959
G00 X294.695 Y162.744
G00 X284.053 Y167.566
G00 X272.659 Y170.237
G00 X257.827 Y170.615
G00 X242.93 Y167.839
G00 X235.266 Y164.848
G00 X227.754 Y160.539
G00 X218.023 Y152.591
G00 X210.455 Y143.589
G00 X204.691 Y133.445
G00 X200.801 Y122.403
G00 X198.887 Y110.814
G00 X199.03 Y99.015
G00 X201.279 Y87.327
G00 X205.65 Y76.122
G00 X212.018 Y66.061
G00 X220.307 Y57.278
G00 X228.769 Y51.107
G00 X238.027 Y46.62
G00 X248.951 Y43.293
G00 X260.54 Y41.227
G00 X267.125 Y41.159
G00 X274.39 Y42.184
G00 X285.745 Y45.288
G00 X290.852 Y31.479
G00 X302.823 Y37.141
G00 X313.665 Y44.73
G00 X323.14 Y54.011
G00 X331.001 Y64.708
G00 X337.015 Y76.542
G00 X340.993 Y89.242
G00 X342.741 Y102.476
G00 X341.947 Y117.318
G00 X338.434 Y131.485
G00 X332.405 Y144.787
G00 X324.118 Y156.83
G00 X313.872 Y167.205
G00 X301.997 Y175.537
G00 X288.797 Y181.517
G00 X274.539 Y184.86
G00 X256.658 Y185.316
G00 X238.884 Y182.004
G00 X228.916 Y178.114
G00 X219.411 Y172.662
G00 X207.68 Y163.08
G00 X198.367 Y152.002
G00 X191.293 Y139.552
G00 X186.54 Y126.062
G00 X184.207 Y111.928
G00 X184.381 Y97.53
G00 X187.13 Y83.242
G00 X192.5 Y69.473
G00 X200.382 Y57.023
G00 X210.57 Y46.227
G00 X221.19 Y38.482
G00 X232.66 Y32.923
G00 X245.515 Y29.008
G00 X259.169 Y26.574
G00 X268.08 Y26.482
G00 X277.358 Y27.791
G00 X290.852 Y31.479
G00 X295.96 Y17.671
G00 X310.216 Y24.414
G00 X323.065 Y33.407
G00 X334.253 Y44.367
G00 X343.531 Y56.993
G00 X350.644 Y70.989
G00 X355.367 Y86.065
G00 X357.459 Y101.903
G00 X356.518 Y119.495
G00 X352.346 Y136.318
G00 X345.226 Y152.028
G00 X335.465 Y166.212
G00 X323.378 Y178.451
G00 X309.297 Y188.331
G00 X293.544 Y195.469
G00 X276.419 Y199.483
G00 X255.49 Y200.017
G00 X234.837 Y196.169
G00 X222.568 Y191.38
G00 X211.068 Y184.783
G00 X197.338 Y173.569
G00 X186.278 Y160.413
G00 X177.895 Y145.66
G00 X172.279 Y129.722
G00 X169.526 Y113.043
G00 X169.732 Y96.044
G00 X172.981 Y79.158
G00 X179.352 Y62.825
G00 X188.747 Y47.984
G00 X200.833 Y35.176
G00 X213.61 Y25.857
G00 X227.294 Y19.226
G00 X242.078 Y14.723
G00 X257.798 Y11.92
G00 X269.035 Y11.805
G00 X280.326 Y13.398
;Nearing path end, moving to preshutoff position
G00 X287.452 Y15.346
M107 ;Pump off
G00 X295.96 Y17.671
G4 P250 ;Pause for 250 milliseconds
;Completed path #6/6 on color #1
;PancakePainter Footer Start
G4 P1000 ;Pause for 1000 milliseconds
G00 X1 Y1 ;Help homing
G28 X0 Y0 ;Home All Axis
M84 ;Motors off
;PancakePainter Footer Complete
