;PancakePainter v1.4.0 GCODE header start
;Originally generated @ Wed Dec 04 2019 15:16:50 GMT-0600 (Central Standard Time)
;Settings used to generate this file:
;----------------------------------------
;botSpeed: 4620
;flattenResolution: 2
;lineEndPreShutoff: 25
;startWait: 350
;endWait: 250
;shadeChangeWait: 15
;useLineFill: false
;useShortest: true
;shapeFillWidth: 11
;fillSpacing: 10
;fillAngle: 23
;fillGroupThreshold: 27
;useColorSpeed: false
;botColorSpeed: 6600,5280,5280,3300
;----------------------------------------
W1 X42 Y210 L485 T0 ;Define Workspace of this file
G21 ;Set units to MM
G1 F4620 ;Set Speed
M107 ;Pump off
G4 P1000 ;Pause for 1000 milliseconds
M84 ;Motors off
G00 X1 Y1 ;Help homing
G28 X0 Y0 ;Home All Axis
;PancakePainter header complete
;Starting fill path #1/14, segments: 7, length: 48, color #4
G00 X118.718 Y58.465
M106 ;Pump on
G4 P350 ;Pause for 350 milliseconds
G00 X118.268 Y63.771
G00 X118.258 Y63.787
;Nearing path end, moving to preshutoff position
G00 X117.149 Y61.345
M107 ;Pump off
G00 X116.974 Y60.959
G00 X117.469 Y55.705
G00 X117.5 Y55.657
G00 X118.718 Y58.465
G4 P250 ;Pause for 250 milliseconds
;Completed path #1/14 on color #4
;Starting fill path #2/14, segments: 7, length: 48, color #4
G00 X169.945 Y60.921
M106 ;Pump on
G4 P350 ;Pause for 350 milliseconds
G00 X170.421 Y55.633
G00 X170.433 Y55.613
;Nearing path end, moving to preshutoff position
G00 X171.583 Y58.13
M107 ;Pump off
G00 X171.716 Y58.422
G00 X171.267 Y63.65
G00 X171.192 Y63.77
G00 X169.945 Y60.921
G4 P250 ;Pause for 250 milliseconds
;Completed path #2/14 on color #4
;Switching Color to: Light
G4 P1000 ;Pause for 1000 milliseconds
G00 X1 Y1 ;Help homing
G28 X0 Y0 ;Home All Axis
M84 ;Motors off
M142 ;Bottle change
G4 P15000 ;Pause for 15000 milliseconds
;Starting stroke path #3/14, segments: 2, length: 15, color #1
G00 X117.865 Y58.941
M106 ;Pump on
G4 P350 ;Pause for 350 milliseconds
;Very short path, early shutoff without move
M107 ;Pump off
G00 X117.865 Y64.201
G4 P250 ;Pause for 250 milliseconds
;Completed path #3/14 on color #1
;Starting stroke path #4/14, segments: 11, length: 1744, color #1
G00 X138.904 Y8.46
M106 ;Pump on
G4 P350 ;Pause for 350 milliseconds
G00 X157.258 Y8.304
G00 X175.244 Y11.916
G00 X193.9 Y19.894
G00 X210.127 Y31.137
G00 X223.641 Y45.122
G00 X234.156 Y61.324
G00 X241.388 Y79.221
G00 X245.05 Y98.287
G00 X244.86 Y118.001
G00 X240.531 Y137.837
G00 X234.245 Y151.815
G00 X225.8 Y164.614
G00 X214.461 Y177.363
G00 X201.064 Y187.94
G00 X180.424 Y198.039
G00 X158.03 Y203.209
G00 X139.735 Y203.516
G00 X121.69 Y200.404
G00 X104.63 Y194.18
G00 X89.175 Y184.596
G00 X72.449 Y168.794
G00 X65.373 Y159.673
G00 X59.515 Y149.791
G00 X53.026 Y133.184
G00 X49.818 Y116.109
G00 X49.741 Y98.963
G00 X52.646 Y82.138
G00 X58.382 Y66.031
G00 X66.801 Y51.035
G00 X77.753 Y37.544
G00 X91.088 Y25.954
G00 X102.257 Y19.057
G00 X113.861 Y14.087
G00 X126.033 Y10.677
;Nearing path end, moving to preshutoff position
G00 X130.212 Y9.957
M107 ;Pump off
G00 X138.904 Y8.46
G4 P250 ;Pause for 250 milliseconds
;Completed path #4/14 on color #1
;Starting stroke path #5/14, segments: 3, length: 56, color #1
G00 X91.088 Y98.629
M106 ;Pump on
G4 P350 ;Pause for 350 milliseconds
G00 X87.019 Y106.552
;Nearing path end, moving to preshutoff position
G00 X85.192 Y107.098
M107 ;Pump off
G00 X76.743 Y109.626
G4 P250 ;Pause for 250 milliseconds
;Completed path #5/14 on color #1
;Starting stroke path #6/14, segments: 3, length: 232, color #1
G00 X87.263 Y107.235
M106 ;Pump on
G4 P350 ;Pause for 350 milliseconds
G00 X96.091 Y120.624
G00 X107.612 Y132.401
G00 X121.044 Y141.798
G00 X136.05 Y148.019
;Nearing path end, moving to preshutoff position
G00 X143.556 Y149.059
M107 ;Pump off
G00 X152.292 Y150.27
G4 P250 ;Pause for 250 milliseconds
;Completed path #6/14 on color #1
;Starting stroke path #7/14, segments: 4, length: 70, color #1
G00 X202.977 Y88.109
M106 ;Pump on
G4 P350 ;Pause for 350 milliseconds
G00 X204.644 Y91.671
G00 X205.859 Y95.272
G00 X208.591 Y97.417
G00 X210.24 Y97.414
G00 X211.482 Y96.167
;Nearing path end, moving to preshutoff position
G00 X211.522 Y95.223
M107 ;Pump off
G00 X211.588 Y93.706
G00 X210.06 Y91.822
G00 X205.368 Y90.5
G4 P250 ;Pause for 250 milliseconds
;Completed path #7/14 on color #1
;Starting stroke path #8/14, segments: 4, length: 259, color #1
G00 X159.943 Y149.791
M106 ;Pump on
G4 P350 ;Pause for 350 milliseconds
G00 X156.044 Y148.174
G00 X152.292 Y150.27
G00 X156.586 Y151.224
G00 X162.022 Y150.012
G00 X167.494 Y147.762
G00 X171.896 Y145.603
G00 X184.196 Y137.109
G00 X194.713 Y125.396
G00 X202.787 Y111.805
;Nearing path end, moving to preshutoff position
G00 X204.832 Y105.992
M107 ;Pump off
G00 X207.758 Y97.672
G4 P250 ;Pause for 250 milliseconds
;Completed path #8/14 on color #1
;Starting stroke path #9/14, segments: 2, length: 14, color #1
G00 X211.584 Y97.672
M106 ;Pump on
G4 P350 ;Pause for 350 milliseconds
;Very short path, early shutoff without move
M107 ;Pump off
G00 X216.365 Y98.15
G4 P250 ;Pause for 250 milliseconds
;Completed path #9/14 on color #1
;Starting fill path #10/14, segments: 53, length: 75, color #1
G00 X87.147 Y64.164
M106 ;Pump on
G4 P350 ;Pause for 350 milliseconds
G00 X87.191 Y64.544
G00 X87.219 Y64.764
G00 X87.286 Y65.229
G00 X87.322 Y65.449
G00 X87.397 Y65.875
G00 X87.439 Y66.094
G00 X87.527 Y66.518
G00 X87.576 Y66.735
G00 X87.647 Y67.042
G00 X87.686 Y67.198
G00 X87.742 Y67.414
G00 X87.853 Y67.821
G00 X87.915 Y68.035
G00 X88.048 Y68.474
G00 X88.117 Y68.686
G00 X88.255 Y69.094
G00 X88.329 Y69.303
G00 X88.487 Y69.726
G00 X88.568 Y69.934
G00 X88.741 Y70.36
G00 X88.829 Y70.565
G00 X89.003 Y70.958
G00 X89.097 Y71.16
G00 X89.265 Y71.511
G00 X89.314 Y71.668
G00 X89.384 Y71.88
G00 X89.47 Y72.127
G00 X89.266 Y72.127
G00 X89.043 Y72.131
G00 X88.597 Y72.145
G00 X88.375 Y72.155
G00 X87.907 Y72.185
G00 X87.685 Y72.202
G00 X87.261 Y72.242
G00 X87.04 Y72.266
G00 X86.595 Y72.322
G00 X86.374 Y72.352
G00 X85.929 Y72.422
G00 X85.709 Y72.459
G00 X85.263 Y72.542
G00 X85.044 Y72.587
G00 X84.617 Y72.681
G00 X84.4 Y72.731
G00 X83.959 Y72.842
G00 X83.744 Y72.899
G00 X83.343 Y73.013
G00 X83.13 Y73.076
G00 X82.68 Y73.218
G00 X82.468 Y73.289
G00 X82.146 Y73.402
;Nearing path end, moving to preshutoff position
G00 X82.914 Y71.865
M107 ;Pump off
G00 X86.169 Y65.357
G00 X87.147 Y64.164
G4 P250 ;Pause for 250 milliseconds
;Completed path #10/14 on color #1
;Starting fill path #11/14, segments: 895, length: 2327, color #1
G00 X129.78 Y46.247
M106 ;Pump on
G4 P350 ;Pause for 350 milliseconds
G00 X129.899 Y46.436
G00 X130.013 Y46.627
G00 X130.121 Y46.823
G00 X130.222 Y47.021
G00 X130.317 Y47.222
G00 X130.407 Y47.426
G00 X130.49 Y47.633
G00 X130.566 Y47.843
G00 X130.637 Y48.054
G00 X130.701 Y48.268
G00 X130.758 Y48.483
G00 X131.367 Y50.92
G00 X131.412 Y51.109
G00 X131.457 Y51.327
G00 X131.495 Y51.547
G00 X131.899 Y54.083
G00 X131.918 Y54.216
G00 X131.946 Y54.437
G00 X131.967 Y54.659
G00 X132.331 Y59.279
G00 X132.342 Y59.439
G00 X132.351 Y59.662
G00 X132.353 Y59.885
G00 X132.333 Y64.887
G00 X132.325 Y65.212
G00 X132.311 Y65.434
G00 X132.29 Y65.656
G00 X132.262 Y65.877
G00 X132.228 Y66.097
G00 X132.187 Y66.316
G00 X131.439 Y69.997
G00 X131.396 Y70.197
G00 X131.342 Y70.414
G00 X131.282 Y70.628
G00 X131.215 Y70.841
G00 X131.142 Y71.051
G00 X131.062 Y71.26
G00 X130.976 Y71.465
G00 X130.885 Y71.668
G00 X130.786 Y71.868
G00 X130.682 Y72.065
G00 X130.572 Y72.259
G00 X130.456 Y72.449
G00 X130.334 Y72.636
G00 X130.207 Y72.819
G00 X130.074 Y72.998
G00 X129.936 Y73.173
G00 X129.792 Y73.343
G00 X129.644 Y73.509
G00 X129.49 Y73.671
G00 X129.332 Y73.827
G00 X129.169 Y73.979
G00 X129.001 Y74.126
G00 X128.829 Y74.268
G00 X128.653 Y74.404
G00 X126.216 Y76.232
G00 X126.068 Y76.34
G00 X125.884 Y76.467
G00 X124.057 Y77.685
G00 X123.775 Y77.864
G00 X123.582 Y77.976
G00 X123.387 Y78.082
G00 X123.187 Y78.183
G00 X122.986 Y78.277
G00 X122.781 Y78.365
G00 X122.573 Y78.447
G00 X122.364 Y78.522
G00 X122.152 Y78.591
G00 X121.938 Y78.653
G00 X121.722 Y78.71
G00 X121.505 Y78.759
G00 X121.286 Y78.802
G00 X121.066 Y78.838
G00 X120.845 Y78.867
G00 X120.623 Y78.89
G00 X120.401 Y78.906
G00 X120.178 Y78.915
G00 X119.956 Y78.917
G00 X116.766 Y78.903
G00 X116.59 Y78.9
G00 X116.367 Y78.89
G00 X116.145 Y78.874
G00 X115.923 Y78.851
G00 X115.703 Y78.821
G00 X115.483 Y78.784
G00 X115.264 Y78.741
G00 X115.047 Y78.691
G00 X114.832 Y78.634
G00 X114.618 Y78.571
G00 X114.406 Y78.502
G00 X114.196 Y78.426
G00 X113.989 Y78.343
G00 X111.086 Y77.139
G00 X110.801 Y77.014
G00 X110.6 Y76.916
G00 X110.403 Y76.813
G00 X110.209 Y76.704
G00 X110.018 Y76.589
G00 X109.83 Y76.468
G00 X109.647 Y76.342
G00 X109.467 Y76.21
G00 X109.291 Y76.073
G00 X109.12 Y75.93
G00 X108.953 Y75.782
G00 X108.791 Y75.63
G00 X108.633 Y75.472
G00 X108.481 Y75.31
G00 X108.333 Y75.143
G00 X108.19 Y74.972
G00 X108.053 Y74.796
G00 X107.921 Y74.617
G00 X107.795 Y74.433
G00 X104.139 Y68.95
G00 X103.978 Y68.697
G00 X103.865 Y68.505
G00 X103.758 Y68.31
G00 X103.657 Y68.111
G00 X103.562 Y67.91
G00 X103.473 Y67.705
G00 X103.39 Y67.498
G00 X103.314 Y67.289
G00 X103.244 Y67.077
G00 X103.18 Y66.863
G00 X103.123 Y66.648
G00 X103.073 Y66.431
G00 X103.029 Y66.213
G00 X102.997 Y66.018
G00 X102.921 Y65.905
G00 X102.847 Y65.792
G00 X102.73 Y65.602
G00 X102.618 Y65.41
G00 X102.513 Y65.213
G00 X102.413 Y65.014
G00 X102.32 Y64.811
G00 X102.232 Y64.607
G00 X102.151 Y64.399
G00 X102.077 Y64.189
G00 X102.008 Y63.977
G00 X101.947 Y63.763
G00 X101.891 Y63.547
G00 X101.843 Y63.329
G00 X101.801 Y63.11
G00 X101.765 Y62.89
G00 X101.737 Y62.669
G00 X101.715 Y62.448
G00 X101.7 Y62.225
G00 X101.691 Y62.003
G00 X101.689 Y61.78
G00 X101.695 Y61.557
G00 X101.706 Y61.334
G00 X101.725 Y61.112
G00 X101.75 Y60.891
G00 X101.783 Y60.67
G00 X101.822 Y60.451
G00 X101.867 Y60.233
G00 X101.919 Y60.016
G00 X101.978 Y59.801
G00 X102.043 Y59.588
G00 X102.114 Y59.377
G00 X102.192 Y59.168
G00 X102.276 Y58.962
G00 X102.298 Y58.912
G00 X102.298 Y55.744
G00 X102.302 Y55.513
G00 X102.313 Y55.291
G00 X102.33 Y55.068
G00 X102.354 Y54.847
G00 X102.384 Y54.626
G00 X102.422 Y54.406
G00 X102.466 Y54.188
G00 X102.516 Y53.971
G00 X102.573 Y53.755
G00 X102.637 Y53.542
G00 X102.707 Y53.33
G00 X102.784 Y53.121
G00 X102.867 Y52.914
G00 X102.956 Y52.71
G00 X106.002 Y46.009
G00 X106.063 Y45.878
G00 X106.162 Y45.678
G00 X106.267 Y45.482
G00 X106.379 Y45.289
G00 X106.495 Y45.099
G00 X106.618 Y44.913
G00 X106.746 Y44.731
G00 X106.88 Y44.553
G00 X107.019 Y44.379
G00 X107.164 Y44.209
G00 X107.313 Y44.044
G00 X107.468 Y43.883
G00 X107.627 Y43.727
G00 X107.791 Y43.576
G00 X107.959 Y43.43
G00 X108.132 Y43.289
G00 X108.309 Y43.154
G00 X108.49 Y43.024
G00 X108.675 Y42.899
G00 X108.863 Y42.78
G00 X109.055 Y42.667
G00 X109.251 Y42.56
G00 X109.449 Y42.459
G00 X109.651 Y42.364
G00 X109.855 Y42.275
G00 X110.062 Y42.192
G00 X110.272 Y42.116
G00 X110.325 Y42.098
G00 X111.324 Y41.349
G00 X111.536 Y41.196
G00 X111.721 Y41.071
G00 X111.909 Y40.953
G00 X112.102 Y40.839
G00 X112.297 Y40.732
G00 X112.496 Y40.631
G00 X112.697 Y40.536
G00 X112.902 Y40.447
G00 X113.109 Y40.365
G00 X113.318 Y40.288
G00 X113.529 Y40.218
G00 X113.743 Y40.155
G00 X113.959 Y40.098
G00 X114.176 Y40.048
G00 X114.394 Y40.004
G00 X114.614 Y39.967
G00 X114.835 Y39.936
G00 X115.056 Y39.913
G00 X115.279 Y39.896
G00 X115.501 Y39.885
G00 X115.724 Y39.882
G00 X117.551 Y39.882
G00 X117.747 Y39.885
G00 X117.97 Y39.894
G00 X118.192 Y39.91
G00 X118.414 Y39.933
G00 X118.634 Y39.963
G00 X118.854 Y39.999
G00 X122.28 Y40.617
G00 X122.59 Y40.68
G00 X122.807 Y40.733
G00 X123.022 Y40.792
G00 X123.235 Y40.857
G00 X123.446 Y40.929
G00 X123.655 Y41.007
G00 X123.861 Y41.091
G00 X124.064 Y41.182
G00 X124.265 Y41.279
G00 X124.463 Y41.382
G00 X124.657 Y41.491
G00 X124.848 Y41.606
G00 X125.036 Y41.726
G00 X125.219 Y41.852
G00 X125.399 Y41.984
G00 X125.575 Y42.121
G00 X125.746 Y42.264
G00 X125.913 Y42.411
G00 X128.58 Y44.839
G00 X128.794 Y45.042
G00 X128.951 Y45.201
G00 X129.102 Y45.364
G00 X129.248 Y45.533
G00 X129.389 Y45.705
G00 X129.525 Y45.882
G00 X129.656 Y46.063
G00 X129.78 Y46.247
G00 X150.816 Y33.005
G00 X149.756 Y32.966
G00 X146.253 Y32.939
G00 X144.204 Y33.154
G00 X143.887 Y33.183
G00 X143.699 Y33.199
G00 X143.33 Y33.29
G00 X143.112 Y33.34
G00 X142.71 Y33.427
G00 X142.492 Y33.471
G00 X142.334 Y33.502
G00 X142.024 Y33.558
G00 X141.804 Y33.594
G00 X141.38 Y33.659
G00 X141.159 Y33.69
G00 X140.715 Y33.744
G00 X140.493 Y33.768
G00 X140.045 Y33.809
G00 X139.823 Y33.826
G00 X139.379 Y33.853
G00 X139.156 Y33.863
G00 X138.951 Y33.869
G00 X138.469 Y34.007
G00 X138.669 Y34.194
G00 X138.884 Y34.397
G00 X139.031 Y34.538
G00 X139.254 Y34.761
G00 X139.41 Y34.92
G00 X139.715 Y35.239
G00 X139.866 Y35.403
G00 X140.171 Y35.743
G00 X140.317 Y35.911
G00 X140.593 Y36.238
G00 X140.735 Y36.41
G00 X141.02 Y36.77
G00 X141.156 Y36.947
G00 X141.422 Y37.305
G00 X141.553 Y37.485
G00 X141.811 Y37.855
G00 X141.935 Y38.04
G00 X142.172 Y38.402
G00 X142.292 Y38.59
G00 X142.521 Y38.965
G00 X142.634 Y39.157
G00 X142.858 Y39.548
G00 X142.965 Y39.744
G00 X143.185 Y40.157
G00 X143.286 Y40.355
G00 X143.471 Y40.731
G00 X143.567 Y40.932
G00 X143.753 Y41.34
G00 X143.842 Y41.544
G00 X144.02 Y41.968
G00 X144.049 Y42.04
G00 X144.239 Y41.595
G00 X144.317 Y41.416
G00 X144.392 Y41.249
G00 X144.554 Y40.897
G00 X144.65 Y40.696
G00 X144.849 Y40.294
G00 X144.951 Y40.096
G00 X145.167 Y39.691
G00 X145.275 Y39.496
G00 X145.488 Y39.124
G00 X145.602 Y38.933
G00 X145.849 Y38.532
G00 X145.969 Y38.345
G00 X146.207 Y37.983
G00 X146.332 Y37.799
G00 X146.581 Y37.445
G00 X146.711 Y37.264
G00 X146.978 Y36.907
G00 X147.114 Y36.731
G00 X147.401 Y36.371
G00 X147.542 Y36.199
G00 X147.83 Y35.86
G00 X147.977 Y35.692
G00 X148.282 Y35.354
G00 X148.434 Y35.192
G00 X148.718 Y34.895
G00 X148.874 Y34.736
G00 X148.997 Y34.613
G00 X149.223 Y34.394
G00 X149.384 Y34.24
G00 X149.685 Y33.963
G00 X149.851 Y33.814
G00 X150.198 Y33.512
G00 X150.368 Y33.369
G00 X150.724 Y33.078
G00 X150.816 Y33.005
G00 X211.667 Y46.918
G00 X211.522 Y46.769
G00 X211.371 Y46.605
G00 X204.496 Y38.871
G00 X196.226 Y33.139
G00 X196.062 Y33.022
G00 X195.884 Y32.887
G00 X195.711 Y32.747
G00 X195.542 Y32.602
G00 X195.377 Y32.452
G00 X195.218 Y32.296
G00 X194.842 Y31.921
G00 X193.469 Y31.235
G00 X193.352 Y31.174
G00 X193.156 Y31.068
G00 X192.963 Y30.956
G00 X192.774 Y30.838
G00 X192.588 Y30.714
G00 X192.407 Y30.585
G00 X192.229 Y30.451
G00 X192.056 Y30.311
G00 X191.887 Y30.165
G00 X191.723 Y30.015
G00 X191.562 Y29.86
G00 X190.649 Y28.946
G00 X184.127 Y25.903
G00 X184.101 Y25.901
G00 X183.878 Y25.884
G00 X183.657 Y25.86
G00 X183.436 Y25.829
G00 X183.217 Y25.791
G00 X182.998 Y25.747
G00 X182.781 Y25.696
G00 X182.566 Y25.639
G00 X182.352 Y25.575
G00 X182.141 Y25.504
G00 X181.932 Y25.427
G00 X181.725 Y25.344
G00 X181.521 Y25.255
G00 X181.319 Y25.159
G00 X181.121 Y25.058
G00 X180.926 Y24.95
G00 X177.291 Y22.873
G00 X174.953 Y22.094
G00 X171.343 Y21.578
G00 X171.179 Y21.553
G00 X170.96 Y21.513
G00 X170.742 Y21.466
G00 X170.526 Y21.413
G00 X170.311 Y21.354
G00 X160.968 Y18.606
G00 X158.977 Y18.606
G00 X158.744 Y18.602
G00 X155.166 Y18.488
G00 X150.08 Y18.301
G00 X145.546 Y18.267
G00 X142.681 Y18.566
G00 X142.365 Y18.592
G00 X142.142 Y18.602
G00 X141.92 Y18.606
G00 X141.188 Y18.606
G00 X141.087 Y18.65
G00 X140.88 Y18.733
G00 X140.671 Y18.809
G00 X140.459 Y18.879
G00 X140.245 Y18.942
G00 X140.03 Y18.999
G00 X139.813 Y19.05
G00 X139.594 Y19.094
G00 X139.375 Y19.13
G00 X139.154 Y19.161
G00 X138.932 Y19.185
G00 X138.71 Y19.202
G00 X138.487 Y19.212
G00 X138.264 Y19.215
G00 X136.854 Y19.215
G00 X133.578 Y20.151
G00 X133.329 Y20.218
G00 X133.112 Y20.268
G00 X132.893 Y20.312
G00 X132.673 Y20.349
G00 X132.453 Y20.379
G00 X132.231 Y20.403
G00 X132.009 Y20.42
G00 X131.786 Y20.43
G00 X131.563 Y20.434
G00 X131.44 Y20.434
G00 X131.34 Y20.477
G00 X131.133 Y20.56
G00 X130.924 Y20.636
G00 X130.712 Y20.706
G00 X130.498 Y20.77
G00 X130.283 Y20.827
G00 X130.066 Y20.877
G00 X129.847 Y20.921
G00 X129.628 Y20.958
G00 X129.407 Y20.988
G00 X129.185 Y21.012
G00 X128.963 Y21.029
G00 X128.74 Y21.039
G00 X128.517 Y21.043
G00 X127.812 Y21.043
G00 X126.924 Y21.487
G00 X126.671 Y21.607
G00 X126.466 Y21.696
G00 X126.259 Y21.778
G00 X126.05 Y21.855
G00 X125.838 Y21.925
G00 X125.625 Y21.988
G00 X125.409 Y22.045
G00 X125.192 Y22.095
G00 X124.974 Y22.139
G00 X124.754 Y22.176
G00 X124.533 Y22.207
G00 X124.312 Y22.231
G00 X124.089 Y22.248
G00 X123.867 Y22.258
G00 X123.644 Y22.261
G00 X123.108 Y22.261
G00 X117.621 Y24.256
G00 X117.342 Y24.351
G00 X117.129 Y24.416
G00 X113.965 Y25.32
G00 X113.09 Y25.903
G00 X112.886 Y26.034
G00 X112.694 Y26.149
G00 X112.5 Y26.258
G00 X112.302 Y26.361
G00 X104.992 Y30.016
G00 X104.69 Y30.158
G00 X99.915 Y32.28
G00 X94.306 Y36.36
G00 X92.276 Y38.389
G00 X92.117 Y38.544
G00 X91.952 Y38.694
G00 X91.783 Y38.84
G00 X91.61 Y38.98
G00 X91.432 Y39.114
G00 X86.077 Y43.047
G00 X81.77 Y48.241
G00 X81.64 Y48.395
G00 X81.49 Y48.56
G00 X77.222 Y53.14
G00 X73.787 Y57.325
G00 X68.672 Y67.553
G00 X68.524 Y67.834
G00 X65.887 Y72.581
G00 X63.964 Y79.311
G00 X63.964 Y80.113
G00 X63.963 Y80.244
G00 X63.956 Y80.467
G00 X63.942 Y80.689
G00 X63.921 Y80.911
G00 X63.893 Y81.132
G00 X63.859 Y81.352
G00 X63.818 Y81.571
G00 X63.77 Y81.789
G00 X63.716 Y82.005
G00 X63.655 Y82.22
G00 X63.588 Y82.432
G00 X61.527 Y88.613
G00 X61.527 Y92.297
G00 X61.525 Y92.487
G00 X61.515 Y92.71
G00 X61.5 Y92.932
G00 X61.477 Y93.154
G00 X61.448 Y93.374
G00 X61.412 Y93.595
G00 X61.369 Y93.813
G00 X61.319 Y94.03
G00 X61.264 Y94.246
G00 X61.201 Y94.46
G00 X61.132 Y94.672
G00 X61.057 Y94.882
G00 X60.975 Y95.089
G00 X60.918 Y95.221
G00 X60.918 Y102.044
G00 X60.916 Y102.23
G00 X60.907 Y102.453
G00 X60.891 Y102.675
G00 X60.868 Y102.897
G00 X60.839 Y103.117
G00 X60.803 Y103.338
G00 X60.76 Y103.556
G00 X60.711 Y103.773
G00 X60.655 Y103.989
G00 X60.593 Y104.203
G00 X60.524 Y104.415
G00 X60.449 Y104.625
G00 X60.367 Y104.832
G00 X60.309 Y104.968
G00 X60.309 Y108.714
G00 X62.025 Y118.437
G00 X62.052 Y118.601
G00 X62.082 Y118.822
G00 X62.106 Y119.043
G00 X62.123 Y119.266
G00 X62.133 Y119.488
G00 X62.137 Y119.711
G00 X62.137 Y121.052
G00 X62.181 Y121.153
G00 X62.263 Y121.36
G00 X62.34 Y121.569
G00 X62.41 Y121.781
G00 X62.473 Y121.995
G00 X62.53 Y122.21
G00 X62.58 Y122.427
G00 X62.624 Y122.646
G00 X62.661 Y122.866
G00 X62.692 Y123.086
G00 X62.715 Y123.308
G00 X62.732 Y123.53
G00 X62.742 Y123.753
G00 X62.746 Y123.976
G00 X62.746 Y125.29
G00 X63.19 Y126.179
G00 X63.31 Y126.432
G00 X63.399 Y126.636
G00 X63.482 Y126.843
G00 X63.558 Y127.052
G00 X63.628 Y127.264
G00 X63.692 Y127.478
G00 X63.749 Y127.693
G00 X63.799 Y127.91
G00 X63.843 Y128.129
G00 X63.88 Y128.349
G00 X63.91 Y128.569
G00 X63.934 Y128.791
G00 X63.951 Y129.013
G00 X63.961 Y129.236
G00 X63.961 Y129.258
G00 X65.876 Y134.046
G00 X65.918 Y134.154
G00 X65.995 Y134.363
G00 X66.065 Y134.575
G00 X66.128 Y134.788
G00 X66.185 Y135.004
G00 X66.235 Y135.221
G00 X66.279 Y135.439
G00 X66.316 Y135.659
G00 X66.347 Y135.88
G00 X66.371 Y136.101
G00 X66.379 Y136.212
G00 X66.845 Y137.144
G00 X66.919 Y137.297
G00 X67.011 Y137.5
G00 X67.097 Y137.706
G00 X67.176 Y137.914
G00 X67.249 Y138.124
G00 X67.316 Y138.337
G00 X67.376 Y138.552
G00 X67.43 Y138.768
G00 X67.477 Y138.986
G00 X67.837 Y140.787
G00 X69.011 Y142.744
G00 X69.144 Y142.974
G00 X69.249 Y143.171
G00 X69.347 Y143.371
G00 X69.44 Y143.574
G00 X69.526 Y143.779
G00 X69.606 Y143.987
G00 X69.68 Y144.197
G00 X69.913 Y144.896
G00 X71.027 Y146.381
G00 X71.104 Y146.487
G00 X71.232 Y146.67
G00 X71.354 Y146.856
G00 X71.471 Y147.046
G00 X71.581 Y147.24
G00 X71.686 Y147.436
G00 X71.784 Y147.636
G00 X71.877 Y147.839
G00 X71.963 Y148.045
G00 X72.044 Y148.252
G00 X72.117 Y148.463
G00 X72.35 Y149.16
G00 X73.463 Y150.645
G00 X73.54 Y150.75
G00 X73.668 Y150.933
G00 X73.79 Y151.119
G00 X73.907 Y151.31
G00 X74.017 Y151.503
G00 X74.122 Y151.7
G00 X74.221 Y151.9
G00 X74.313 Y152.102
G00 X74.4 Y152.308
G00 X74.48 Y152.516
G00 X74.553 Y152.726
G00 X74.786 Y153.425
G00 X75.9 Y154.91
G00 X75.977 Y155.015
G00 X76.105 Y155.197
G00 X76.227 Y155.384
G00 X76.344 Y155.574
G00 X76.454 Y155.767
G00 X76.559 Y155.964
G00 X76.657 Y156.164
G00 X76.75 Y156.367
G00 X76.836 Y156.572
G00 X76.916 Y156.78
G00 X76.99 Y156.99
G00 X77.097 Y157.311
G00 X83.936 Y164.676
G00 X84.03 Y164.779
G00 X84.175 Y164.948
G00 X84.316 Y165.12
G00 X84.452 Y165.297
G00 X84.582 Y165.478
G00 X84.706 Y165.663
G00 X84.825 Y165.851
G00 X84.938 Y166.044
G00 X85.046 Y166.239
G00 X85.146 Y166.438
G00 X85.192 Y166.535
G00 X88.621 Y169.964
G00 X88.713 Y170.057
G00 X88.865 Y170.22
G00 X89.013 Y170.387
G00 X89.155 Y170.559
G00 X89.291 Y170.735
G00 X89.423 Y170.915
G00 X89.549 Y171.098
G00 X89.669 Y171.286
G00 X89.76 Y171.438
G00 X92.103 Y173.111
G00 X94.026 Y174.073
G00 X94.143 Y174.133
G00 X94.338 Y174.239
G00 X94.531 Y174.351
G00 X94.72 Y174.469
G00 X94.906 Y174.592
G00 X95.087 Y174.721
G00 X95.265 Y174.856
G00 X95.438 Y174.996
G00 X95.607 Y175.141
G00 X95.772 Y175.291
G00 X95.932 Y175.447
G00 X97.291 Y176.806
G00 X103.92 Y181.395
G00 X107.942 Y182.904
G00 X108.086 Y182.959
G00 X108.291 Y183.045
G00 X120.904 Y188.529
G00 X121.207 Y188.529
G00 X121.338 Y188.53
G00 X121.56 Y188.538
G00 X121.783 Y188.551
G00 X122.005 Y188.572
G00 X122.226 Y188.6
G00 X122.446 Y188.634
G00 X122.665 Y188.675
G00 X122.883 Y188.723
G00 X123.099 Y188.777
G00 X123.313 Y188.838
G00 X123.526 Y188.905
G00 X126.051 Y189.747
G00 X127.299 Y189.747
G00 X127.51 Y189.75
G00 X127.732 Y189.76
G00 X127.955 Y189.777
G00 X128.176 Y189.8
G00 X128.397 Y189.83
G00 X128.617 Y189.867
G00 X128.835 Y189.91
G00 X136.604 Y191.575
G00 X138.264 Y191.575
G00 X138.452 Y191.577
G00 X138.675 Y191.586
G00 X138.897 Y191.602
G00 X139.119 Y191.625
G00 X139.34 Y191.654
G00 X139.56 Y191.69
G00 X139.779 Y191.733
G00 X139.996 Y191.782
G00 X140.211 Y191.838
G00 X140.425 Y191.901
G00 X140.637 Y191.969
G00 X140.847 Y192.045
G00 X141.055 Y192.126
G00 X141.188 Y192.184
G00 X145.73 Y192.184
G00 X150.148 Y191.632
G00 X150.39 Y191.605
G00 X150.612 Y191.588
G00 X150.835 Y191.578
G00 X151.058 Y191.575
G00 X156.952 Y191.575
G00 X161.649 Y191.319
G00 X166.075 Y190.037
G00 X166.35 Y189.963
G00 X166.567 Y189.913
G00 X166.786 Y189.869
G00 X167.005 Y189.832
G00 X167.226 Y189.801
G00 X167.448 Y189.778
G00 X167.67 Y189.761
G00 X167.893 Y189.751
G00 X168.116 Y189.747
G00 X168.841 Y189.747
G00 X175.706 Y187.635
G00 X175.882 Y187.583
G00 X176.098 Y187.526
G00 X176.315 Y187.476
G00 X176.533 Y187.432
G00 X176.753 Y187.395
G00 X176.974 Y187.364
G00 X177.195 Y187.341
G00 X177.418 Y187.324
G00 X177.64 Y187.314
G00 X177.863 Y187.31
G00 X178.013 Y187.31
G00 X193.051 Y180.05
G00 X193.391 Y179.711
G00 X193.631 Y179.481
G00 X193.798 Y179.334
G00 X193.969 Y179.191
G00 X194.145 Y179.054
G00 X194.324 Y178.922
G00 X194.508 Y178.795
G00 X199.386 Y175.543
G00 X200.701 Y174.228
G00 X200.803 Y174.128
G00 X200.966 Y173.976
G00 X201.133 Y173.829
G00 X201.305 Y173.687
G00 X208.734 Y167.744
G00 X212.358 Y163.241
G00 X212.434 Y163.147
G00 X212.58 Y162.978
G00 X212.73 Y162.813
G00 X212.885 Y162.653
G00 X217.19 Y158.349
G00 X224.919 Y146.204
G00 X227.101 Y140.747
G00 X227.191 Y140.531
G00 X231.056 Y131.698
G00 X231.524 Y128.421
G00 X231.551 Y128.246
G00 X231.591 Y128.027
G00 X231.638 Y127.809
G00 X231.692 Y127.592
G00 X234.496 Y116.935
G00 X234.496 Y109.964
G00 X234.501 Y109.699
G00 X234.512 Y109.476
G00 X235.105 Y100.582
G00 X235.105 Y100.094
G00 X235.061 Y99.993
G00 X234.979 Y99.786
G00 X234.902 Y99.577
G00 X234.832 Y99.365
G00 X234.769 Y99.151
G00 X234.712 Y98.936
G00 X234.662 Y98.719
G00 X234.618 Y98.5
G00 X234.581 Y98.281
G00 X234.55 Y98.06
G00 X234.527 Y97.838
G00 X234.51 Y97.616
G00 X234.499 Y97.393
G00 X234.496 Y97.17
G00 X234.496 Y94.611
G00 X234.452 Y94.51
G00 X234.37 Y94.303
G00 X234.293 Y94.094
G00 X234.223 Y93.882
G00 X234.16 Y93.669
G00 X234.103 Y93.453
G00 X234.053 Y93.236
G00 X234.009 Y93.018
G00 X233.972 Y92.798
G00 X233.941 Y92.577
G00 X233.918 Y92.356
G00 X233.901 Y92.133
G00 X233.891 Y91.911
G00 X233.887 Y91.688
G00 X233.887 Y90.347
G00 X233.843 Y90.246
G00 X233.76 Y90.039
G00 X233.684 Y89.83
G00 X233.614 Y89.618
G00 X233.551 Y89.404
G00 X233.494 Y89.189
G00 X233.443 Y88.972
G00 X233.399 Y88.753
G00 X233.363 Y88.534
G00 X233.332 Y88.313
G00 X233.308 Y88.091
G00 X233.291 Y87.869
G00 X233.281 Y87.646
G00 X233.278 Y87.423
G00 X233.278 Y85.623
G00 X229.425 Y74.615
G00 X229.384 Y74.493
G00 X229.317 Y74.28
G00 X229.257 Y74.065
G00 X229.203 Y73.849
G00 X229.156 Y73.631
G00 X228.782 Y71.764
G00 X218.292 Y53.544
G00 X211.667 Y46.918
G00 X200.997 Y62.457
G00 X201.23 Y62.437
G00 X201.453 Y62.422
G00 X201.922 Y62.397
G00 X202.145 Y62.389
G00 X202.568 Y62.38
G00 X202.791 Y62.378
G00 X203.259 Y62.382
G00 X203.482 Y62.388
G00 X203.905 Y62.404
G00 X204.128 Y62.416
G00 X204.595 Y62.448
G00 X204.817 Y62.467
G00 X205.243 Y62.51
G00 X205.464 Y62.535
G00 X205.905 Y62.593
G00 X206.126 Y62.625
G00 X206.574 Y62.697
G00 X206.646 Y62.71
G00 X206.55 Y62.543
;Nearing path end, moving to preshutoff position
G00 X203.681 Y59.675
M107 ;Pump off
G00 X201.296 Y57.29
G00 X201.188 Y57.18
G00 X201.191 Y57.203
G00 X201.208 Y57.425
G00 X201.236 Y57.871
G00 X201.246 Y58.093
G00 X201.26 Y58.517
G00 X201.264 Y58.74
G00 X201.265 Y59.208
G00 X201.262 Y59.43
G00 X201.249 Y59.877
G00 X201.239 Y60.099
G00 X201.213 Y60.543
G00 X201.196 Y60.766
G00 X201.158 Y61.192
G00 X201.135 Y61.413
G00 X201.079 Y61.88
G00 X201.049 Y62.101
G00 X201.019 Y62.31
G00 X200.997 Y62.457
G4 P250 ;Pause for 250 milliseconds
;Completed path #11/14 on color #1
;Starting fill path #12/14, segments: 714, length: 1000, color #1
G00 X144.987 Y99.507
M106 ;Pump on
G4 P350 ;Pause for 350 milliseconds
G00 X145.259 Y99.727
G00 X145.433 Y99.866
G00 X145.61 Y100.005
G00 X145.948 Y100.267
G00 X146.11 Y100.39
G00 X146.288 Y100.525
G00 X146.467 Y100.657
G00 X146.831 Y100.923
G00 X147.016 Y101.056
G00 X147.198 Y101.184
G00 X147.373 Y101.306
G00 X147.741 Y101.558
G00 X147.933 Y101.687
G00 X148.119 Y101.81
G00 X148.316 Y101.938
G00 X148.696 Y102.181
G00 X148.88 Y102.296
G00 X149.07 Y102.413
G00 X149.253 Y102.524
G00 X149.63 Y102.75
G00 X149.824 Y102.864
G00 X150.017 Y102.975
G00 X150.216 Y103.088
G00 X150.617 Y103.311
G00 X150.819 Y103.422
G00 X151.015 Y103.527
G00 X151.212 Y103.63
G00 X151.592 Y103.827
G00 X151.777 Y103.921
G00 X151.976 Y104.02
G00 X152.176 Y104.118
G00 X152.59 Y104.317
G00 X152.804 Y104.418
G00 X153.006 Y104.511
G00 X153.211 Y104.603
G00 X153.621 Y104.785
G00 X153.826 Y104.873
G00 X154.031 Y104.96
G00 X154.233 Y105.044
G00 X154.632 Y105.206
G00 X154.829 Y105.285
G00 X155.036 Y105.366
G00 X155.251 Y105.447
G00 X155.681 Y105.607
G00 X155.896 Y105.685
G00 X156.014 Y105.727
G00 X155.975 Y105.76
G00 X155.806 Y105.905
G00 X155.738 Y105.964
G00 X155.294 Y106.217
G00 X155.019 Y106.378
G00 X154.828 Y106.492
G00 X154.646 Y106.601
G00 X154.271 Y106.83
G00 X154.078 Y106.95
G00 X153.89 Y107.069
G00 X153.701 Y107.191
G00 X153.323 Y107.438
G00 X153.134 Y107.564
G00 X153.084 Y107.598
G00 X149.958 Y108.64
G00 X149.822 Y108.638
G00 X149.649 Y108.606
G00 X149.43 Y108.567
G00 X149.205 Y108.529
G00 X148.76 Y108.457
G00 X148.541 Y108.423
G00 X148.17 Y108.37
G00 X147.858 Y108.328
G00 X147.599 Y108.295
G00 X147.347 Y108.265
G00 X147.187 Y108.192
G00 X146.98 Y108.1
G00 X146.776 Y108.01
G00 X146.566 Y107.921
G00 X146.15 Y107.746
G00 X145.944 Y107.662
G00 X145.738 Y107.579
G00 X145.526 Y107.496
G00 X145.117 Y107.339
G00 X144.919 Y107.264
G00 X144.71 Y107.187
G00 X144.508 Y107.115
G00 X144.089 Y106.968
G00 X143.872 Y106.893
G00 X143.66 Y106.823
G00 X143.449 Y106.754
G00 X143.025 Y106.62
G00 X142.813 Y106.555
G00 X142.6 Y106.491
G00 X142.381 Y106.427
G00 X142.064 Y106.337
G00 X139.971 Y104.71
G00 X139.696 Y104.5
G00 X139.518 Y104.366
G00 X139.386 Y104.269
G00 X139.112 Y104.067
G00 X138.97 Y103.963
G00 X138.787 Y103.832
G00 X138.579 Y103.685
G00 X138.19 Y103.413
G00 X138.332 Y103.331
G00 X138.525 Y103.219
G00 X138.661 Y103.139
G00 X138.932 Y102.978
G00 X139.178 Y102.827
G00 X139.492 Y102.631
G00 X139.902 Y102.37
G00 X140.18 Y102.19
G00 X140.33 Y102.091
G00 X142.259 Y100.804
G00 X142.544 Y100.61
G00 X142.727 Y100.484
G00 X142.889 Y100.371
G00 X143.206 Y100.145
G00 X143.363 Y100.033
G00 X143.588 Y99.868
G00 X143.815 Y99.699
G00 X144.551 Y99.147
G00 X144.987 Y99.507
G00 X154.238 Y88.125
G00 X154.418 Y88.272
G00 X154.592 Y88.411
G00 X154.931 Y88.673
G00 X155.109 Y88.807
G00 X155.473 Y89.073
G00 X155.655 Y89.201
G00 X156.023 Y89.453
G00 X156.209 Y89.576
G00 X156.589 Y89.819
G00 X156.779 Y89.936
G00 X157.156 Y90.161
G00 X157.349 Y90.273
G00 X157.75 Y90.496
G00 X157.946 Y90.601
G00 X158.327 Y90.798
G00 X158.526 Y90.898
G00 X158.94 Y91.097
G00 X159.142 Y91.19
G00 X159.552 Y91.371
G00 X159.757 Y91.458
G00 X160.156 Y91.62
G00 X160.364 Y91.701
G00 X160.794 Y91.861
G00 X161.004 Y91.935
G00 X161.418 Y92.075
G00 X161.63 Y92.143
G00 X162.061 Y92.274
G00 X162.275 Y92.336
G00 X162.692 Y92.449
G00 X162.908 Y92.504
G00 X163.36 Y92.612
G00 X163.578 Y92.661
G00 X163.997 Y92.748
G00 X164.216 Y92.79
G00 X164.526 Y92.846
G00 X164.685 Y92.872
G00 X164.905 Y92.907
G00 X165.217 Y92.953
G00 X165.401 Y92.977
G00 X165.705 Y93.014
G00 X166.018 Y93.05
G00 X170.15 Y93.471
G00 X170.367 Y93.491
G00 X170.589 Y93.511
G00 X171.034 Y93.542
G00 X171.257 Y93.555
G00 X171.725 Y93.574
G00 X171.948 Y93.579
G00 X172.371 Y93.583
G00 X172.594 Y93.582
G00 X173.039 Y93.574
G00 X173.262 Y93.566
G00 X173.709 Y93.543
G00 X173.931 Y93.528
G00 X174.376 Y93.493
G00 X174.598 Y93.471
G00 X175.043 Y93.421
G00 X175.264 Y93.393
G00 X175.71 Y93.33
G00 X175.931 Y93.295
G00 X176.353 Y93.222
G00 X176.572 Y93.18
G00 X177.022 Y93.088
G00 X177.239 Y93.04
G00 X177.681 Y92.935
G00 X177.897 Y92.88
G00 X178.088 Y92.829
G00 X178.089 Y92.836
G00 X178.162 Y93.254
G00 X178.204 Y93.473
G00 X178.297 Y93.923
G00 X178.345 Y94.14
G00 X178.417 Y94.447
G00 X178.474 Y94.67
G00 X178.556 Y94.984
G00 X178.641 Y95.295
G00 X179.535 Y98.422
G00 X178.653 Y100.038
G00 X178.526 Y100.276
G00 X178.405 Y100.508
G00 X178.289 Y100.735
G00 X175.608 Y106.097
G00 X173.523 Y108.779
G00 X172.054 Y110.247
G00 X171.91 Y110.393
G00 X171.755 Y110.553
G00 X171.537 Y110.781
G00 X171.43 Y110.898
G00 X171.28 Y111.062
G00 X170.998 Y111.381
G00 X170.853 Y111.55
G00 X170.65 Y111.792
G00 X170.549 Y111.915
G00 X170.396 Y112.106
G00 X170.241 Y112.301
G00 X168.426 Y114.636
G00 X166.295 Y116.271
G00 X166.115 Y116.412
G00 X165.94 Y116.55
G00 X165.598 Y116.831
G00 X165.427 Y116.974
G00 X165.093 Y117.264
G00 X164.927 Y117.413
G00 X164.695 Y117.626
G00 X164.542 Y117.771
G00 X164.405 Y117.902
G00 X162.683 Y118.887
G00 X162.49 Y118.999
G00 X162.298 Y119.113
G00 X161.923 Y119.342
G00 X161.735 Y119.461
G00 X161.357 Y119.709
G00 X161.173 Y119.834
G00 X160.808 Y120.089
G00 X160.627 Y120.22
G00 X160.266 Y120.488
G00 X160.089 Y120.625
G00 X159.744 Y120.9
G00 X159.73 Y120.911
G00 X159.711 Y120.916
G00 X159.287 Y121.026
G00 X159.073 Y121.086
G00 X158.77 Y121.174
G00 X158.585 Y121.23
G00 X158.34 Y121.308
G00 X158.113 Y121.381
G00 X151.878 Y123.46
G00 X151.781 Y123.447
G00 X151.56 Y123.422
G00 X151.116 Y123.38
G00 X150.894 Y123.362
G00 X150.446 Y123.332
G00 X150.223 Y123.321
G00 X149.758 Y123.305
G00 X149.5 Y123.3
G00 X149.23 Y123.298
G00 X148.275 Y123.298
G00 X148.152 Y123.269
G00 X147.73 Y123.174
G00 X147.512 Y123.129
G00 X147.087 Y123.047
G00 X146.867 Y123.008
G00 X146.423 Y122.936
G00 X146.202 Y122.904
G00 X145.889 Y122.861
G00 X145.696 Y122.839
G00 X145.414 Y122.808
G00 X145.13 Y122.779
G00 X143.196 Y122.603
G00 X143.088 Y122.541
G00 X142.89 Y122.431
G00 X142.695 Y122.323
G00 X142.308 Y122.117
G00 X142.11 Y122.016
G00 X141.699 Y121.813
G00 X141.497 Y121.717
G00 X141.098 Y121.535
G00 X140.894 Y121.446
G00 X140.478 Y121.271
G00 X140.271 Y121.189
G00 X139.862 Y121.031
G00 X139.653 Y120.954
G00 X139.234 Y120.808
G00 X139.022 Y120.737
G00 X138.599 Y120.603
G00 X138.385 Y120.539
G00 X137.958 Y120.418
G00 X137.743 Y120.36
G00 X137.298 Y120.249
G00 X137.08 Y120.198
G00 X136.906 Y120.16
G00 X134.546 Y119.07
G00 X131.058 Y116.358
G00 X130.875 Y116.218
G00 X130.697 Y116.083
G00 X130.423 Y115.882
G00 X130.304 Y115.797
G00 X130.168 Y115.7
G00 X125.653 Y112.54
G00 X120.301 Y107.188
G00 X115.792 Y101.928
G00 X115.792 Y101.786
G00 X115.974 Y100.876
G00 X116.017 Y100.653
G00 X116.058 Y100.434
G00 X116.129 Y100.007
G00 X116.163 Y99.787
G00 X116.227 Y99.322
G00 X116.254 Y99.101
G00 X116.299 Y98.677
G00 X116.319 Y98.455
G00 X116.353 Y98.009
G00 X116.367 Y97.786
G00 X116.387 Y97.34
G00 X116.394 Y97.118
G00 X116.401 Y96.672
G00 X116.401 Y96.449
G00 X116.394 Y96.003
G00 X116.387 Y95.781
G00 X116.367 Y95.334
G00 X116.353 Y95.111
G00 X116.319 Y94.668
G00 X116.299 Y94.446
G00 X116.251 Y93.999
G00 X116.224 Y93.777
G00 X116.194 Y93.56
G00 X116.365 Y93.565
G00 X116.541 Y93.568
G00 X116.701 Y93.569
G00 X119.89 Y93.584
G00 X120.112 Y93.583
G00 X120.335 Y93.581
G00 X120.78 Y93.569
G00 X121.003 Y93.56
G00 X121.449 Y93.535
G00 X121.672 Y93.519
G00 X122.116 Y93.48
G00 X122.338 Y93.457
G00 X122.785 Y93.405
G00 X123.006 Y93.375
G00 X123.427 Y93.313
G00 X123.647 Y93.277
G00 X124.094 Y93.197
G00 X124.313 Y93.154
G00 X124.762 Y93.059
G00 X124.979 Y93.01
G00 X125.421 Y92.902
G00 X125.636 Y92.846
G00 X126.038 Y92.735
G00 X126.252 Y92.673
G00 X126.696 Y92.536
G00 X126.908 Y92.467
G00 X127.315 Y92.328
G00 X127.525 Y92.252
G00 X127.967 Y92.086
G00 X128.174 Y92.004
G00 X128.553 Y91.848
G00 X128.758 Y91.76
G00 X129.186 Y91.569
G00 X129.387 Y91.475
G00 X129.8 Y91.274
G00 X129.999 Y91.174
G00 X130.371 Y90.979
G00 X130.566 Y90.873
G00 X130.957 Y90.654
G00 X131.15 Y90.542
G00 X131.421 Y90.38
G00 X131.634 Y90.247
G00 X131.916 Y90.069
G00 X132.194 Y89.888
G00 X134.021 Y88.67
G00 X134.214 Y88.539
G00 X134.398 Y88.412
G00 X134.715 Y88.186
G00 X134.863 Y88.078
G00 X135.016 Y87.966
G00 X137.453 Y86.138
G00 X137.626 Y86.005
G00 X137.803 Y85.869
G00 X138.159 Y85.584
G00 X138.331 Y85.443
G00 X138.67 Y85.154
G00 X138.838 Y85.007
G00 X139.166 Y84.711
G00 X139.329 Y84.559
G00 X139.636 Y84.265
G00 X139.794 Y84.109
G00 X140.016 Y83.885
G00 X140.125 Y83.771
G00 X140.279 Y83.609
G00 X140.578 Y83.285
G00 X140.726 Y83.119
G00 X141.017 Y82.783
G00 X141.161 Y82.612
G00 X141.438 Y82.272
G00 X141.577 Y82.097
G00 X141.85 Y81.74
G00 X141.983 Y81.561
G00 X142.243 Y81.2
G00 X142.37 Y81.017
G00 X142.623 Y80.642
G00 X142.744 Y80.456
G00 X142.975 Y80.09
G00 X143.091 Y79.9
G00 X143.324 Y79.504
G00 X143.434 Y79.311
G00 X143.645 Y78.926
G00 X143.749 Y78.729
G00 X143.953 Y78.329
G00 X144.052 Y78.129
G00 X144.247 Y77.714
G00 X144.339 Y77.511
G00 X144.506 Y77.127
G00 X144.592 Y76.921
G00 X144.66 Y76.75
G00 X144.731 Y76.923
G00 X144.817 Y77.129
G00 X144.993 Y77.531
G00 X145.085 Y77.734
G00 X145.272 Y78.131
G00 X145.37 Y78.331
G00 X145.579 Y78.74
G00 X145.683 Y78.936
G00 X145.899 Y79.329
G00 X146.01 Y79.523
G00 X146.223 Y79.885
G00 X146.339 Y80.075
G00 X146.589 Y80.473
G00 X146.711 Y80.66
G00 X146.954 Y81.019
G00 X147.081 Y81.201
G00 X147.341 Y81.563
G00 X147.474 Y81.742
G00 X147.747 Y82.099
G00 X147.886 Y82.274
G00 X148.163 Y82.614
G00 X148.307 Y82.784
G00 X148.608 Y83.131
G00 X148.757 Y83.297
G00 X149.056 Y83.622
G00 X149.21 Y83.784
G00 X149.519 Y84.099
G00 X149.677 Y84.256
G00 X149.996 Y84.562
G00 X150.159 Y84.713
G00 X150.392 Y84.925
G00 X150.566 Y85.078
G00 X150.81 Y85.289
G00 X151.059 Y85.5
G00 X154.238 Y88.125
G00 X163.578 Y76.817
G00 X163.752 Y76.956
G00 X163.93 Y77.09
G00 X164.112 Y77.219
G00 X164.298 Y77.342
G00 X164.488 Y77.459
G00 X164.681 Y77.57
G00 X164.877 Y77.676
G00 X165.076 Y77.775
G00 X165.279 Y77.868
G00 X165.484 Y77.955
G00 X165.691 Y78.036
G00 X165.902 Y78.111
G00 X166.114 Y78.179
G00 X166.328 Y78.241
G00 X166.544 Y78.296
G00 X166.762 Y78.344
G00 X166.98 Y78.386
G00 X167.201 Y78.421
G00 X167.505 Y78.459
G00 X171.637 Y78.88
G00 X171.859 Y78.899
G00 X172.081 Y78.911
G00 X172.304 Y78.917
G00 X172.527 Y78.916
G00 X172.75 Y78.908
G00 X172.972 Y78.893
G00 X173.194 Y78.872
G00 X173.415 Y78.844
G00 X173.635 Y78.809
G00 X173.854 Y78.768
G00 X174.072 Y78.72
G00 X174.288 Y78.665
G00 X174.502 Y78.604
G00 X174.714 Y78.536
G00 X174.924 Y78.462
G00 X175.132 Y78.381
G00 X175.338 Y78.294
G00 X175.54 Y78.202
G00 X175.74 Y78.102
G00 X176.019 Y77.951
G00 X180.283 Y75.514
G00 X180.475 Y75.4
G00 X180.663 Y75.281
G00 X180.848 Y75.156
G00 X181.028 Y75.026
G00 X181.205 Y74.89
G00 X181.377 Y74.749
G00 X181.545 Y74.602
G00 X181.709 Y74.451
G00 X181.868 Y74.294
G00 X182.022 Y74.133
G00 X182.171 Y73.968
G00 X182.315 Y73.798
G00 X182.453 Y73.623
G00 X182.587 Y73.444
G00 X182.714 Y73.262
G00 X182.837 Y73.076
G00 X182.953 Y72.886
G00 X183.064 Y72.692
G00 X183.169 Y72.495
G00 X183.267 Y72.296
G00 X183.36 Y72.093
G00 X183.447 Y71.888
G00 X183.527 Y71.68
G00 X183.6 Y71.469
G00 X183.668 Y71.257
G00 X183.729 Y71.043
G00 X183.754 Y70.943
G00 X184.76 Y69.265
G00 X184.872 Y69.072
G00 X184.978 Y68.876
G00 X185.078 Y68.677
G00 X185.171 Y68.475
G00 X185.259 Y68.27
G00 X185.34 Y68.062
G00 X185.415 Y67.852
G00 X185.484 Y67.64
G00 X185.546 Y67.426
G00 X185.602 Y67.211
G00 X185.65 Y66.993
G00 X185.693 Y66.774
G00 X185.728 Y66.554
G00 X185.757 Y66.333
G00 X185.779 Y66.112
G00 X185.795 Y65.889
G00 X185.803 Y65.667
G00 X185.806 Y65.492
G00 X185.806 Y64.823
G00 X186.517 Y60.117
G00 X186.547 Y59.896
G00 X186.57 Y59.675
G00 X186.587 Y59.452
G00 X186.597 Y59.23
G00 X186.6 Y59.007
G00 X186.596 Y58.784
G00 X186.585 Y58.562
G00 X186.568 Y58.34
G00 X186.544 Y58.118
G00 X186.513 Y57.897
G00 X186.476 Y57.678
G00 X186.432 Y57.459
G00 X186.381 Y57.242
G00 X186.337 Y57.077
G00 X184.955 Y52.051
G00 X184.368 Y49.701
G00 X184.311 Y49.486
G00 X184.247 Y49.273
G00 X184.177 Y49.061
G00 X184.1 Y48.852
G00 X184.017 Y48.645
G00 X183.927 Y48.441
G00 X183.832 Y48.239
G00 X183.731 Y48.041
G00 X183.623 Y47.846
G00 X183.51 Y47.654
G00 X183.391 Y47.465
G00 X183.266 Y47.281
G00 X183.135 Y47.1
G00 X183 Y46.924
G00 X182.859 Y46.751
G00 X182.712 Y46.583
G00 X182.561 Y46.419
G00 X182.405 Y46.26
G00 X182.244 Y46.106
G00 X182.078 Y45.957
G00 X181.908 Y45.813
G00 X181.734 Y45.674
G00 X181.555 Y45.541
G00 X181.366 Y45.408
G00 X178.76 Y43.644
G00 X178.574 Y43.521
G00 X178.384 Y43.405
G00 X178.191 Y43.294
G00 X177.994 Y43.19
G00 X177.794 Y43.091
G00 X177.591 Y42.999
G00 X177.386 Y42.912
G00 X177.178 Y42.832
G00 X176.968 Y42.759
G00 X176.755 Y42.691
G00 X176.541 Y42.631
G00 X176.324 Y42.576
G00 X176.107 Y42.529
G00 X175.888 Y42.488
G00 X175.634 Y42.449
G00 X171.464 Y41.884
G00 X171.243 Y41.857
G00 X171.021 Y41.837
G00 X170.798 Y41.824
G00 X170.575 Y41.818
G00 X170.352 Y41.818
G00 X170.13 Y41.825
G00 X169.937 Y41.837
G00 X165.956 Y42.132
G00 X165.734 Y42.152
G00 X165.513 Y42.179
G00 X165.293 Y42.212
G00 X165.073 Y42.252
G00 X164.855 Y42.298
G00 X164.639 Y42.352
G00 X164.424 Y42.411
G00 X164.212 Y42.478
G00 X164.001 Y42.55
G00 X163.771 Y42.638
G00 X161.733 Y43.455
G00 X161.527 Y43.541
G00 X161.324 Y43.633
G00 X161.124 Y43.731
G00 X160.927 Y43.836
G00 X160.734 Y43.946
G00 X160.544 Y44.062
G00 X160.357 Y44.184
G00 X160.174 Y44.311
G00 X159.995 Y44.445
G00 X159.821 Y44.583
G00 X159.65 Y44.726
G00 X159.484 Y44.875
G00 X159.323 Y45.029
G00 X159.166 Y45.188
G00 X159.015 Y45.35
G00 X158.868 Y45.518
G00 X158.726 Y45.69
G00 X158.59 Y45.867
G00 X158.459 Y46.047
G00 X158.334 Y46.232
G00 X158.214 Y46.42
G00 X158.1 Y46.611
G00 X157.992 Y46.806
G00 X157.89 Y47.004
G00 X157.795 Y47.205
G00 X157.72 Y47.373
G00 X155.892 Y51.637
G00 X155.808 Y51.843
G00 X155.729 Y52.052
G00 X155.657 Y52.263
G00 X155.592 Y52.476
G00 X155.533 Y52.691
G00 X155.48 Y52.907
G00 X155.434 Y53.126
G00 X155.395 Y53.345
G00 X155.363 Y53.565
G00 X155.337 Y53.787
G00 X155.318 Y54.009
G00 X155.305 Y54.231
G00 X155.299 Y54.526
G00 X155.299 Y58.913
G00 X155.277 Y58.963
G00 X155.193 Y59.169
G00 X155.115 Y59.378
G00 X155.043 Y59.589
G00 X154.978 Y59.803
G00 X154.92 Y60.017
G00 X154.868 Y60.234
G00 X154.822 Y60.453
G00 X154.783 Y60.672
G00 X154.752 Y60.892
G00 X154.726 Y61.114
G00 X154.708 Y61.336
G00 X154.696 Y61.559
G00 X154.691 Y61.781
G00 X154.692 Y62.004
G00 X154.701 Y62.227
G00 X154.716 Y62.449
G00 X154.738 Y62.671
G00 X154.767 Y62.892
G00 X154.802 Y63.112
G00 X154.844 Y63.331
G00 X154.893 Y63.548
G00 X154.948 Y63.764
G00 X155.01 Y63.978
G00 X155.078 Y64.19
G00 X155.153 Y64.4
G00 X155.234 Y64.608
G00 X155.322 Y64.813
G00 X155.415 Y65.015
G00 X155.515 Y65.215
G00 X155.621 Y65.411
G00 X155.732 Y65.604
G00 X155.85 Y65.793
G00 X155.972 Y65.979
G00 X156.101 Y66.161
G00 X156.235 Y66.339
G00 X156.347 Y66.479
;Nearing path end, moving to preshutoff position
G00 X157.878 Y70.304
M107 ;Pump off
G00 X158.261 Y71.262
G00 X158.347 Y71.467
G00 X158.439 Y71.67
G00 X158.537 Y71.87
G00 X158.642 Y72.067
G00 X158.752 Y72.261
G00 X158.868 Y72.451
G00 X158.99 Y72.638
G00 X159.117 Y72.821
G00 X159.25 Y72.999
G00 X159.388 Y73.174
G00 X159.532 Y73.345
G00 X159.68 Y73.511
G00 X159.834 Y73.672
G00 X159.992 Y73.829
G00 X160.155 Y73.981
G00 X160.4 Y74.192
G00 X163.578 Y76.817
G4 P250 ;Pause for 250 milliseconds
;Completed path #12/14 on color #1
;Starting fill path #13/14, segments: 281, length: 591, color #1
G00 X90.596 Y150.294
M106 ;Pump on
G4 P350 ;Pause for 350 milliseconds
G00 X98.904 Y156.386
G00 X103.064 Y160.027
G00 X103.233 Y160.172
G00 X103.403 Y160.316
G00 X103.747 Y160.599
G00 X103.921 Y160.738
G00 X104.27 Y161.008
G00 X104.449 Y161.142
G00 X104.824 Y161.414
G00 X105.006 Y161.542
G00 X105.354 Y161.778
G00 X105.54 Y161.901
G00 X105.931 Y162.15
G00 X106.121 Y162.267
G00 X106.505 Y162.495
G00 X106.698 Y162.606
G00 X107.092 Y162.824
G00 X107.289 Y162.929
G00 X107.661 Y163.121
G00 X107.861 Y163.22
G00 X108.144 Y163.357
G00 X108.341 Y163.448
G00 X108.611 Y163.571
G00 X108.885 Y163.691
G00 X117.238 Y167.271
G00 X129.237 Y172.67
G00 X129.445 Y172.763
G00 X129.65 Y172.851
G00 X130.04 Y173.012
G00 X130.247 Y173.094
G00 X130.541 Y173.208
G00 X130.696 Y173.265
G00 X130.906 Y173.34
G00 X131.312 Y173.48
G00 X131.524 Y173.549
G00 X131.942 Y173.679
G00 X132.155 Y173.742
G00 X132.604 Y173.867
G00 X132.819 Y173.923
G00 X133.24 Y174.026
G00 X133.457 Y174.076
G00 X133.885 Y174.167
G00 X134.103 Y174.21
G00 X134.546 Y174.291
G00 X134.766 Y174.328
G00 X135.078 Y174.376
G00 X135.281 Y174.404
G00 X135.562 Y174.441
G00 X135.835 Y174.474
G00 X141.072 Y175.055
G00 X147.839 Y175.96
G00 X148.067 Y175.989
G00 X148.288 Y176.015
G00 X148.732 Y176.06
G00 X148.953 Y176.079
G00 X149.378 Y176.11
G00 X149.601 Y176.123
G00 X150.069 Y176.143
G00 X150.291 Y176.149
G00 X150.715 Y176.153
G00 X150.938 Y176.153
G00 X151.406 Y176.144
G00 X151.628 Y176.136
G00 X152.052 Y176.115
G00 X152.274 Y176.101
G00 X152.743 Y176.063
G00 X152.964 Y176.042
G00 X153.328 Y176.002
G00 X153.492 Y175.982
G00 X153.668 Y175.96
G00 X159.222 Y175.218
G00 X160.805 Y175.218
G00 X161.028 Y175.216
G00 X161.251 Y175.213
G00 X161.697 Y175.199
G00 X161.919 Y175.189
G00 X162.363 Y175.162
G00 X162.586 Y175.145
G00 X163.034 Y175.104
G00 X163.255 Y175.08
G00 X163.7 Y175.026
G00 X163.921 Y174.995
G00 X164.345 Y174.93
G00 X164.564 Y174.893
G00 X164.875 Y174.838
G00 X165.033 Y174.807
G00 X165.251 Y174.763
G00 X165.653 Y174.676
G00 X165.87 Y174.626
G00 X166.316 Y174.516
G00 X166.532 Y174.459
G00 X166.974 Y174.334
G00 X167.188 Y174.271
G00 X167.591 Y174.144
G00 X167.803 Y174.075
G00 X168.249 Y173.919
G00 X168.458 Y173.843
G00 X168.734 Y173.739
G00 X168.975 Y173.644
G00 X172 Y172.434
G00 X172.185 Y172.401
G00 X172.343 Y172.37
G00 X172.562 Y172.326
G00 X172.964 Y172.239
G00 X173.181 Y172.189
G00 X173.627 Y172.079
G00 X173.842 Y172.022
G00 X174.284 Y171.898
G00 X174.498 Y171.834
G00 X174.901 Y171.708
G00 X175.113 Y171.638
G00 X175.559 Y171.483
G00 X175.768 Y171.406
G00 X176.17 Y171.253
G00 X176.377 Y171.17
G00 X176.775 Y171.004
G00 X176.979 Y170.916
G00 X177.267 Y170.787
G00 X177.452 Y170.7
G00 X177.705 Y170.58
G00 X177.955 Y170.458
G00 X178.996 Y169.938
G00 X181.165 Y169.214
G00 X181.358 Y169.149
G00 X181.569 Y169.075
G00 X181.865 Y168.968
G00 X182.019 Y168.91
G00 X182.227 Y168.83
G00 X182.615 Y168.674
G00 X182.82 Y168.588
G00 X183.252 Y168.398
G00 X183.454 Y168.305
G00 X183.841 Y168.122
G00 X184.041 Y168.023
G00 X184.44 Y167.819
G00 X184.637 Y167.714
G00 X185.039 Y167.492
G00 X185.232 Y167.382
G00 X185.389 Y167.289
G00 X185.122 Y167.491
G00 X184.946 Y167.628
G00 X184.791 Y167.752
G00 X173.918 Y173.001
G00 X173.794 Y173.023
G00 X173.636 Y173.055
G00 X173.417 Y173.099
G00 X173.015 Y173.185
G00 X172.798 Y173.235
G00 X172.352 Y173.346
G00 X172.137 Y173.403
G00 X171.735 Y173.515
G00 X171.559 Y173.567
G00 X171.393 Y173.617
G00 X166.419 Y175.147
G00 X166.335 Y175.154
G00 X165.887 Y175.195
G00 X165.665 Y175.218
G00 X165.221 Y175.273
G00 X165 Y175.303
G00 X164.576 Y175.368
G00 X164.356 Y175.405
G00 X164.046 Y175.46
G00 X163.888 Y175.492
G00 X163.67 Y175.536
G00 X163.268 Y175.622
G00 X163.051 Y175.672
G00 X162.744 Y175.747
G00 X162.535 Y175.801
G00 X162.26 Y175.875
G00 X161.994 Y175.95
G00 X159.178 Y176.766
G00 X156.554 Y176.908
G00 X151.058 Y176.908
G00 X150.835 Y176.91
G00 X150.612 Y176.913
G00 X150.166 Y176.927
G00 X149.944 Y176.937
G00 X149.5 Y176.964
G00 X149.277 Y176.981
G00 X148.963 Y177.008
G00 X148.797 Y177.025
G00 X148.555 Y177.052
G00 X148.329 Y177.078
G00 X144.815 Y177.517
G00 X143.399 Y177.517
G00 X143.253 Y177.482
G00 X143.036 Y177.432
G00 X142.586 Y177.338
G00 X142.368 Y177.295
G00 X141.92 Y177.215
G00 X141.7 Y177.179
G00 X141.28 Y177.116
G00 X141.059 Y177.087
G00 X140.611 Y177.035
G00 X140.39 Y177.012
G00 X139.945 Y176.973
G00 X139.723 Y176.957
G00 X139.254 Y176.931
G00 X139.031 Y176.922
G00 X138.664 Y176.912
G00 X138.476 Y176.91
G00 X138.264 Y176.908
G00 X138.158 Y176.908
G00 X131.908 Y175.569
G00 X131.686 Y175.523
G00 X131.467 Y175.48
G00 X131.024 Y175.399
G00 X130.804 Y175.363
G00 X130.38 Y175.299
G00 X130.16 Y175.268
G00 X129.715 Y175.215
G00 X129.493 Y175.191
G00 X129.045 Y175.151
G00 X128.823 Y175.134
G00 X128.542 Y175.118
G00 X128.164 Y174.992
G00 X127.963 Y174.926
G00 X127.75 Y174.859
G00 X127.304 Y174.725
G00 X127.09 Y174.664
G00 X126.662 Y174.55
G00 X126.445 Y174.496
G00 X126.024 Y174.397
G00 X125.806 Y174.349
G00 X125.365 Y174.26
G00 X125.146 Y174.219
G00 X124.695 Y174.141
G00 X124.542 Y174.118
G00 X114.139 Y169.595
G00 X113.934 Y169.507
G00 X113.728 Y169.421
G00 X113.366 Y169.276
G00 X113.092 Y169.171
G00 X110.773 Y168.301
G00 X106.727 Y165.5
G00 X106.303 Y165.076
G00 X106.157 Y164.932
G00 X105.997 Y164.777
G00 X105.769 Y164.559
G00 X105.652 Y164.452
G00 X105.488 Y164.302
G00 X105.169 Y164.02
G00 X105 Y163.875
G00 X104.647 Y163.58
G00 X104.473 Y163.441
G00 X104.125 Y163.169
G00 X103.948 Y163.034
G00 X103.585 Y162.767
G00 X103.403 Y162.638
G00 X103.036 Y162.386
G00 X102.85 Y162.262
G00 X102.481 Y162.024
G00 X102.292 Y161.906
G00 X101.906 Y161.673
G00 X101.713 Y161.561
G00 X101.34 Y161.351
G00 X101.144 Y161.245
G00 X100.823 Y161.076
G00 X100.585 Y160.955
G00 X99.985 Y160.654
G00 X99.863 Y160.516
G00 X99.576 Y160.2
G00 X99.423 Y160.037
G00 X99.159 Y159.762
G00 X98.992 Y159.593
G00 X96.875 Y157.476
G00 X96.869 Y157.466
G00 X96.744 Y157.281
G00 X96.497 Y156.926
;Nearing path end, moving to preshutoff position
G00 X96.46 Y156.874
M107 ;Pump off
G00 X96.367 Y156.745
G00 X96.093 Y156.376
G00 X95.958 Y156.2
G00 X95.682 Y155.85
G00 X95.541 Y155.677
G00 X95.256 Y155.339
G00 X95.11 Y155.17
G00 X94.888 Y154.921
G00 X94.795 Y154.818
G00 X94.684 Y154.697
G00 X90.596 Y150.294
G4 P250 ;Pause for 250 milliseconds
;Completed path #13/14 on color #1
;Starting fill path #14/14, segments: 610, length: 1306, color #1
G00 X192.78 Y84.832
M106 ;Pump on
G4 P350 ;Pause for 350 milliseconds
G00 X192.72 Y85.046
G00 X192.667 Y85.263
G00 X192.621 Y85.48
G00 X192.581 Y85.7
G00 X192.548 Y85.92
G00 X192.521 Y86.142
G00 X192.502 Y86.364
G00 X192.489 Y86.586
G00 X192.482 Y86.832
G00 X192.461 Y89.184
G00 X192.462 Y89.407
G00 X192.471 Y89.63
G00 X192.486 Y89.852
G00 X192.507 Y90.074
G00 X192.536 Y90.295
G00 X192.571 Y90.515
G00 X192.613 Y90.734
G00 X192.661 Y90.952
G00 X192.743 Y91.266
G00 X194.692 Y98.085
G00 X194.431 Y99.388
G00 X194.391 Y99.607
G00 X194.357 Y99.827
G00 X194.33 Y100.048
G00 X194.31 Y100.271
G00 X194.296 Y100.493
G00 X194.289 Y100.826
G00 X194.289 Y102.002
G00 X191.529 Y107.061
G00 X191.408 Y107.294
G00 X188.077 Y113.955
G00 X184.538 Y118.505
G00 X182.425 Y120.618
G00 X182.269 Y120.778
G00 X182.119 Y120.943
G00 X181.974 Y121.112
G00 X181.82 Y121.303
G00 X178.85 Y125.123
G00 X175.225 Y127.906
G00 X175.05 Y128.044
G00 X174.88 Y128.188
G00 X174.714 Y128.337
G00 X174.505 Y128.538
G00 X173.372 Y129.671
G00 X169.96 Y131.621
G00 X169.768 Y131.734
G00 X169.58 Y131.853
G00 X169.395 Y131.978
G00 X169.215 Y132.109
G00 X169.038 Y132.245
G00 X168.866 Y132.386
G00 X168.698 Y132.532
G00 X168.534 Y132.684
G00 X168.414 Y132.802
G00 X167.224 Y133.991
G00 X166.146 Y134.638
G00 X163.864 Y135.019
G00 X163.645 Y135.058
G00 X163.427 Y135.105
G00 X163.21 Y135.158
G00 X162.996 Y135.218
G00 X162.751 Y135.295
G00 X152.814 Y138.607
G00 X152.534 Y138.615
G00 X151.245 Y138.247
G00 X151.03 Y138.189
G00 X150.813 Y138.138
G00 X150.595 Y138.093
G00 X150.375 Y138.055
G00 X150.154 Y138.023
G00 X149.933 Y137.998
G00 X149.711 Y137.98
G00 X149.488 Y137.969
G00 X149.23 Y137.965
G00 X146.063 Y137.965
G00 X146.013 Y137.943
G00 X145.807 Y137.858
G00 X145.598 Y137.78
G00 X145.387 Y137.709
G00 X145.174 Y137.644
G00 X144.959 Y137.585
G00 X144.742 Y137.533
G00 X144.524 Y137.488
G00 X144.305 Y137.449
G00 X144.084 Y137.417
G00 X143.802 Y137.385
G00 X138.69 Y136.921
G00 X135.811 Y135.276
G00 X135.615 Y135.168
G00 X135.417 Y135.066
G00 X135.216 Y134.971
G00 X135.012 Y134.881
G00 X134.805 Y134.798
G00 X134.596 Y134.722
G00 X134.384 Y134.651
G00 X134.171 Y134.587
G00 X133.956 Y134.529
G00 X133.739 Y134.479
G00 X133.52 Y134.434
G00 X133.3 Y134.397
G00 X133.08 Y134.366
G00 X132.858 Y134.342
G00 X132.636 Y134.324
G00 X132.592 Y134.322
G00 X126.871 Y131.682
G00 X122.054 Y127.935
G00 X121.876 Y127.801
G00 X121.757 Y127.716
G00 X116.19 Y123.819
G00 X109.534 Y117.162
G00 X102.406 Y108.847
G00 X102.259 Y108.68
G00 X102.106 Y108.517
G00 X102.024 Y108.434
G00 X101.766 Y108.176
G00 X101.593 Y107.307
G00 X101.546 Y107.09
G00 X101.492 Y106.873
G00 X101.432 Y106.658
G00 X101.365 Y106.446
G00 X101.292 Y106.235
G00 X101.213 Y106.027
G00 X101.097 Y105.755
G00 X100.748 Y104.974
G00 X100.8 Y104.814
G00 X100.862 Y104.6
G00 X100.918 Y104.385
G00 X100.968 Y104.168
G00 X101.01 Y103.949
G00 X101.046 Y103.729
G00 X101.076 Y103.508
G00 X101.098 Y103.286
G00 X101.114 Y103.064
G00 X101.123 Y102.841
G00 X101.126 Y102.653
G00 X101.126 Y100.333
G00 X101.593 Y98
G00 X101.633 Y97.781
G00 X101.667 Y97.56
G00 X101.694 Y97.339
G00 X101.714 Y97.117
G00 X101.727 Y96.895
G00 X101.734 Y96.672
G00 X101.734 Y96.449
G00 X101.727 Y96.226
G00 X101.714 Y96.004
G00 X101.694 Y95.782
G00 X101.666 Y95.561
G00 X101.633 Y95.341
G00 X101.592 Y95.121
G00 X101.545 Y94.903
G00 X101.491 Y94.687
G00 X101.431 Y94.473
G00 X101.364 Y94.26
G00 X101.291 Y94.05
G00 X101.212 Y93.841
G00 X101.126 Y93.635
G00 X101.034 Y93.433
G00 X100.936 Y93.232
G00 X100.832 Y93.036
G00 X100.722 Y92.842
G00 X100.606 Y92.651
G00 X100.484 Y92.465
G00 X100.357 Y92.282
G00 X100.224 Y92.103
G00 X100.086 Y91.928
G00 X99.942 Y91.757
G00 X99.794 Y91.591
G00 X99.64 Y91.43
G00 X99.482 Y91.273
G00 X99.282 Y91.088
G00 X97.363 Y89.377
G00 X97.194 Y89.231
G00 X97.021 Y89.091
G00 X96.844 Y88.955
G00 X96.663 Y88.825
G00 X96.478 Y88.701
G00 X96.289 Y88.583
G00 X96.097 Y88.47
G00 X95.902 Y88.363
G00 X95.703 Y88.262
G00 X95.501 Y88.167
G00 X95.297 Y88.079
G00 X95.09 Y87.996
G00 X94.88 Y87.92
G00 X94.669 Y87.85
G00 X94.455 Y87.787
G00 X94.232 Y87.729
G00 X91.278 Y87.003
G00 X91.06 Y86.953
G00 X90.842 Y86.91
G00 X90.622 Y86.873
G00 X90.401 Y86.843
G00 X90.179 Y86.82
G00 X89.957 Y86.804
G00 X89.734 Y86.794
G00 X89.511 Y86.791
G00 X89.289 Y86.795
G00 X89.066 Y86.806
G00 X88.844 Y86.823
G00 X88.622 Y86.847
G00 X88.402 Y86.878
G00 X88.182 Y86.916
G00 X87.963 Y86.96
G00 X87.747 Y87.011
G00 X87.531 Y87.068
G00 X87.318 Y87.132
G00 X87.106 Y87.203
G00 X86.897 Y87.279
G00 X86.69 Y87.362
G00 X86.486 Y87.452
G00 X86.285 Y87.547
G00 X86.086 Y87.649
G00 X85.891 Y87.757
G00 X85.699 Y87.87
G00 X85.511 Y87.989
G00 X85.327 Y88.114
G00 X85.146 Y88.245
G00 X84.969 Y88.38
G00 X84.797 Y88.522
G00 X84.629 Y88.668
G00 X84.465 Y88.819
G00 X84.343 Y88.939
G00 X78.483 Y94.799
G00 X77.111 Y95.485
G00 X76.913 Y95.588
G00 X76.718 Y95.696
G00 X76.527 Y95.811
G00 X76.339 Y95.931
G00 X76.156 Y96.057
G00 X75.976 Y96.188
G00 X75.8 Y96.325
G00 X75.628 Y96.467
G00 X75.461 Y96.615
G00 X75.298 Y96.767
G00 X75.205 Y96.859
G00 X74.828 Y97.236
G00 X72.237 Y98.532
G00 X72.038 Y98.634
G00 X71.844 Y98.743
G00 X71.653 Y98.857
G00 X71.465 Y98.978
G00 X71.281 Y99.104
G00 X71.101 Y99.235
G00 X70.926 Y99.372
G00 X70.754 Y99.514
G00 X70.587 Y99.661
G00 X70.424 Y99.814
G00 X70.266 Y99.971
G00 X70.113 Y100.133
G00 X69.964 Y100.299
G00 X69.822 Y100.47
G00 X69.684 Y100.645
G00 X69.551 Y100.825
G00 X69.425 Y101.008
G00 X69.303 Y101.195
G00 X69.188 Y101.385
G00 X69.078 Y101.579
G00 X68.957 Y101.81
G00 X67.739 Y104.247
G00 X67.642 Y104.448
G00 X67.551 Y104.652
G00 X67.468 Y104.858
G00 X67.389 Y105.067
G00 X67.318 Y105.278
G00 X67.253 Y105.491
G00 X67.194 Y105.706
G00 X67.142 Y105.923
G00 X67.097 Y106.141
G00 X67.058 Y106.36
G00 X67.026 Y106.581
G00 X67 Y106.802
G00 X66.982 Y107.024
G00 X66.97 Y107.247
G00 X66.964 Y107.527
G00 X66.964 Y111.792
G00 X66.968 Y112.014
G00 X66.978 Y112.237
G00 X66.995 Y112.459
G00 X67.018 Y112.681
G00 X67.049 Y112.902
G00 X67.086 Y113.122
G00 X67.13 Y113.34
G00 X67.18 Y113.557
G00 X67.237 Y113.772
G00 X67.301 Y113.986
G00 X67.37 Y114.198
G00 X67.447 Y114.407
G00 X67.529 Y114.614
G00 X67.618 Y114.819
G00 X67.713 Y115.02
G00 X67.814 Y115.219
G00 X67.922 Y115.414
G00 X68.035 Y115.606
G00 X68.153 Y115.795
G00 X68.278 Y115.98
G00 X68.408 Y116.161
G00 X68.543 Y116.337
G00 X68.684 Y116.51
G00 X68.83 Y116.679
G00 X68.981 Y116.842
G00 X69.137 Y117.002
G00 X69.298 Y117.156
G00 X69.463 Y117.306
G00 X69.633 Y117.45
G00 X69.767 Y117.558
G00 X71.497 Y118.917
G00 X71.674 Y119.052
G00 X71.855 Y119.182
G00 X72.04 Y119.306
G00 X72.229 Y119.424
G00 X72.421 Y119.536
G00 X72.617 Y119.643
G00 X72.816 Y119.744
G00 X73.018 Y119.838
G00 X73.222 Y119.927
G00 X73.43 Y120.009
G00 X73.639 Y120.084
G00 X73.851 Y120.154
G00 X74.065 Y120.217
G00 X74.28 Y120.273
G00 X74.498 Y120.323
G00 X74.716 Y120.366
G00 X74.936 Y120.402
G00 X75.157 Y120.432
G00 X75.379 Y120.456
G00 X75.601 Y120.472
G00 X75.824 Y120.481
G00 X76.047 Y120.484
G00 X76.269 Y120.48
G00 X76.492 Y120.47
G00 X76.685 Y120.455
G00 X79.016 Y120.245
G00 X79.239 Y120.222
G00 X81.015 Y120.007
G00 X81.573 Y120.378
G00 X84.569 Y123.874
G00 X84.717 Y124.041
G00 X84.87 Y124.204
G00 X84.952 Y124.287
G00 X98.354 Y137.69
G00 X98.514 Y137.845
G00 X98.679 Y137.995
G00 X98.848 Y138.141
G00 X99.021 Y138.281
G00 X99.203 Y138.418
G00 X108.087 Y144.933
G00 X112.722 Y148.989
G00 X112.892 Y149.133
G00 X113.067 Y149.272
G00 X113.245 Y149.406
G00 X113.428 Y149.534
G00 X113.613 Y149.657
G00 X113.803 Y149.773
G00 X113.996 Y149.884
G00 X114.193 Y149.989
G00 X114.393 Y150.088
G00 X114.663 Y150.211
G00 X123.141 Y153.845
G00 X135.255 Y159.296
G00 X135.46 Y159.384
G00 X135.667 Y159.466
G00 X135.877 Y159.542
G00 X136.089 Y159.611
G00 X136.302 Y159.674
G00 X136.518 Y159.73
G00 X136.735 Y159.78
G00 X136.954 Y159.824
G00 X137.174 Y159.86
G00 X137.455 Y159.897
G00 X142.849 Y160.496
G00 X149.782 Y161.423
G00 X150.003 Y161.449
G00 X150.225 Y161.468
G00 X150.448 Y161.481
G00 X150.67 Y161.487
G00 X150.893 Y161.486
G00 X151.116 Y161.478
G00 X151.339 Y161.464
G00 X151.56 Y161.443
G00 X151.725 Y161.423
G00 X158.247 Y160.551
G00 X160.805 Y160.551
G00 X161.028 Y160.548
G00 X161.251 Y160.538
G00 X161.473 Y160.521
G00 X161.695 Y160.497
G00 X161.915 Y160.466
G00 X162.135 Y160.429
G00 X162.354 Y160.385
G00 X162.571 Y160.335
G00 X162.786 Y160.278
G00 X163 Y160.215
G00 X163.211 Y160.145
G00 X163.421 Y160.068
G00 X163.529 Y160.026
G00 X168.317 Y158.111
G00 X168.338 Y158.111
G00 X168.561 Y158.101
G00 X168.783 Y158.084
G00 X169.005 Y158.06
G00 X169.226 Y158.03
G00 X169.446 Y157.993
G00 X169.664 Y157.949
G00 X169.881 Y157.899
G00 X170.096 Y157.842
G00 X170.31 Y157.778
G00 X170.522 Y157.708
G00 X170.731 Y157.632
G00 X170.938 Y157.549
G00 X171.143 Y157.46
G00 X171.396 Y157.34
G00 X173.367 Y156.354
G00 X176.527 Y155.301
G00 X176.737 Y155.227
G00 X176.945 Y155.147
G00 X177.15 Y155.061
G00 X177.353 Y154.968
G00 X177.553 Y154.87
G00 X177.75 Y154.765
G00 X177.943 Y154.654
G00 X178.094 Y154.562
G00 X187.841 Y148.471
G00 X188.029 Y148.35
G00 X188.212 Y148.223
G00 X188.391 Y148.091
G00 X188.567 Y147.953
G00 X188.738 Y147.811
G00 X188.905 Y147.663
G00 X189.14 Y147.437
G00 X196.451 Y140.127
G00 X196.606 Y139.967
G00 X196.756 Y139.802
G00 X196.902 Y139.633
G00 X197.014 Y139.495
G00 X208.024 Y125.598
G00 X208.159 Y125.421
G00 X208.29 Y125.24
G00 X208.414 Y125.055
G00 X208.533 Y124.867
G00 X208.693 Y124.592
G00 X216.137 Y111.13
G00 X216.212 Y111.078
G00 X216.392 Y110.947
G00 X216.568 Y110.81
G00 X216.74 Y110.668
G00 X216.907 Y110.521
G00 X217.069 Y110.369
G00 X217.164 Y110.276
G00 X218.184 Y109.256
G00 X218.4 Y109.212
G00 X218.617 Y109.162
G00 X218.833 Y109.105
G00 X219.047 Y109.041
G00 X219.258 Y108.972
G00 X219.468 Y108.895
G00 X219.674 Y108.812
G00 X219.879 Y108.724
G00 X220.081 Y108.628
G00 X220.279 Y108.528
G00 X220.49 Y108.411
G00 X224.755 Y105.975
G00 X224.946 Y105.861
G00 X225.135 Y105.742
G00 X225.319 Y105.617
G00 X225.5 Y105.486
G00 X225.677 Y105.351
G00 X225.849 Y105.209
G00 X226.017 Y105.063
G00 X226.181 Y104.912
G00 X226.339 Y104.755
G00 X226.493 Y104.594
G00 X226.642 Y104.428
G00 X226.786 Y104.258
G00 X226.925 Y104.084
G00 X227.058 Y103.905
G00 X227.186 Y103.723
G00 X227.309 Y103.536
G00 X227.425 Y103.346
G00 X227.536 Y103.153
G00 X227.64 Y102.956
G00 X227.739 Y102.756
G00 X227.832 Y102.554
G00 X227.918 Y102.348
G00 X227.998 Y102.14
G00 X228.072 Y101.93
G00 X228.14 Y101.718
G00 X228.2 Y101.503
G00 X228.255 Y101.287
G00 X228.303 Y101.069
G00 X228.344 Y100.85
G00 X228.378 Y100.63
G00 X228.406 Y100.409
G00 X228.427 Y100.187
G00 X228.441 Y99.965
G00 X228.449 Y99.742
G00 X228.45 Y99.607
G00 X228.45 Y97.78
G00 X228.447 Y97.557
G00 X228.436 Y97.334
G00 X228.419 Y97.112
G00 X228.396 Y96.89
G00 X228.365 Y96.67
G00 X228.328 Y96.45
G00 X228.284 Y96.231
G00 X228.234 Y96.014
G00 X228.177 Y95.799
G00 X228.114 Y95.585
G00 X228.044 Y95.374
G00 X227.957 Y95.138
G00 X226.769 Y92.06
G00 X226.686 Y91.854
G00 X226.596 Y91.65
G00 X226.5 Y91.448
G00 X226.399 Y91.25
G00 X226.291 Y91.055
G00 X226.177 Y90.864
G00 X226.057 Y90.676
G00 X225.932 Y90.491
G00 X225.802 Y90.31
G00 X225.665 Y90.134
G00 X225.524 Y89.962
G00 X225.377 Y89.794
G00 X225.225 Y89.631
G00 X225.047 Y89.45
G00 X222.58 Y87.046
G00 X222.418 Y86.893
G00 X222.251 Y86.745
G00 X222.081 Y86.601
G00 X221.905 Y86.464
G00 X221.726 Y86.332
G00 X221.543 Y86.205
G00 X221.356 Y86.083
G00 X221.179 Y85.976
G00 X210.974 Y79.973
G00 X209.094 Y78.743
G00 X208.905 Y78.624
G00 X208.714 Y78.511
G00 X208.518 Y78.403
G00 X208.32 Y78.302
G00 X208.119 Y78.207
G00 X207.914 Y78.118
G00 X207.707 Y78.035
G00 X207.498 Y77.958
G00 X207.286 Y77.888
G00 X207.073 Y77.824
G00 X206.858 Y77.766
G00 X206.689 Y77.726
G00 X204.449 Y77.223
G00 X204.231 Y77.177
G00 X204.012 Y77.138
G00 X203.791 Y77.106
G00 X203.57 Y77.081
G00 X203.347 Y77.062
G00 X203.125 Y77.05
G00 X202.902 Y77.044
G00 X202.679 Y77.046
G00 X202.456 Y77.054
G00 X202.234 Y77.069
G00 X202.012 Y77.091
G00 X201.791 Y77.12
G00 X201.571 Y77.155
G00 X201.352 Y77.197
G00 X201.135 Y77.245
G00 X200.919 Y77.3
G00 X200.705 Y77.362
G00 X200.493 Y77.43
G00 X200.283 Y77.505
G00 X200.075 Y77.586
G00 X199.87 Y77.673
G00 X199.668 Y77.766
G00 X199.629 Y77.785
G00 X199.464 Y77.819
G00 X199.247 Y77.869
G00 X199.032 Y77.926
G00 X198.818 Y77.989
G00 X198.607 Y78.059
G00 X198.397 Y78.136
;Nearing path end, moving to preshutoff position
G00 X198.225 Y78.204
M107 ;Pump off
G00 X198.19 Y78.218
G00 X197.986 Y78.307
G00 X197.784 Y78.402
G00 X197.586 Y78.503
G00 X197.39 Y78.61
G00 X197.198 Y78.723
G00 X197.01 Y78.842
G00 X196.825 Y78.967
G00 X196.644 Y79.097
G00 X196.467 Y79.232
G00 X196.294 Y79.373
G00 X196.126 Y79.519
G00 X195.962 Y79.67
G00 X195.803 Y79.826
G00 X195.648 Y79.987
G00 X195.499 Y80.152
G00 X195.354 Y80.322
G00 X195.215 Y80.496
G00 X195.081 Y80.674
G00 X194.953 Y80.856
G00 X194.797 Y81.095
G00 X193.6 Y83.008
G00 X193.484 Y83.199
G00 X193.375 Y83.393
G00 X193.271 Y83.59
G00 X193.174 Y83.79
G00 X193.082 Y83.993
G00 X192.997 Y84.199
G00 X192.918 Y84.408
G00 X192.846 Y84.619
G00 X192.78 Y84.832
G4 P250 ;Pause for 250 milliseconds
;Completed path #14/14 on color #1
;PancakePainter Footer Start
G4 P1000 ;Pause for 1000 milliseconds
G00 X1 Y1 ;Help homing
G28 X0 Y0 ;Home All Axis
M84 ;Motors off
;PancakePainter Footer Complete
