;PancakePainter v1.4.0 GCODE header start
;Originally generated @ Wed Dec 04 2019 16:08:40 GMT-0600 (Central Standard Time)
;Settings used to generate this file:
;----------------------------------------
;botSpeed: 4620
;flattenResolution: 2
;lineEndPreShutoff: 25
;startWait: 350
;endWait: 250
;shadeChangeWait: 15
;useLineFill: false
;useShortest: true
;shapeFillWidth: 11
;fillSpacing: 10
;fillAngle: 23
;fillGroupThreshold: 27
;useColorSpeed: false
;botColorSpeed: 6600,5280,5280,3300
;----------------------------------------
W1 X42 Y210 L485 T0 ;Define Workspace of this file
G21 ;Set units to MM
G1 F4620 ;Set Speed
M107 ;Pump off
G4 P1000 ;Pause for 1000 milliseconds
M84 ;Motors off
G00 X1 Y1 ;Help homing
G28 X0 Y0 ;Home All Axis
;PancakePainter header complete
;Starting fill path #1/4, segments: 74, length: 705, color #4
G00 X109.216 Y46.464
M106 ;Pump on
G4 P350 ;Pause for 350 milliseconds
G00 X106.185 Y46.037
G00 X103.274 Y46.067
G00 X98.806 Y46.863
G00 X94.599 Y48.145
G00 X90.847 Y49.963
G00 X87.375 Y52.496
G00 X84.043 Y56.026
G00 X81.467 Y60.095
G00 X79.709 Y64.603
G00 X78.81 Y69.276
G00 X78.753 Y73.985
G00 X79.516 Y78.608
G00 X81.071 Y83.022
G00 X83.384 Y87.092
G00 X86.431 Y90.718
G00 X90.27 Y93.852
G00 X93.377 Y95.635
G00 X96.632 Y96.905
G00 X102.449 Y97.989
G00 X108.301 Y97.84
G00 X112.962 Y96.747
G00 X117.279 Y94.791
G00 X121.161 Y92.067
G00 X124.515 Y88.671
G00 X127.225 Y84.733
G00 X129.198 Y80.382
G00 X130.347 Y75.749
G00 X130.606 Y70.892
G00 X130.034 Y66.564
G00 X128.733 Y62.411
G00 X126.767 Y58.541
G00 X124.196 Y55.042
G00 X121.097 Y52.007
G00 X117.551 Y49.524
G00 X113.633 Y47.671
G00 X109.216 Y46.464
G00 X106.247 Y60.857
G00 X105.231 Y60.714
G00 X104.646 Y60.72
G00 X102.242 Y61.148
G00 X99.966 Y61.842
G00 X98.425 Y62.588
G00 X97.113 Y63.546
G00 X95.679 Y65.065
G00 X94.616 Y66.744
G00 X93.858 Y68.687
G00 X93.459 Y70.762
G00 X93.433 Y72.871
G00 X93.776 Y74.949
G00 X94.469 Y76.914
G00 X95.473 Y78.682
G00 X96.773 Y80.227
G00 X98.612 Y81.73
G00 X99.726 Y82.369
G00 X100.678 Y82.74
G00 X103.618 Y83.288
G00 X106.421 Y83.216
G00 X108.217 Y82.795
G00 X109.977 Y81.998
G00 X111.656 Y80.82
G00 X113.169 Y79.288
G00 X114.406 Y77.491
G00 X115.285 Y75.55
G00 X115.776 Y73.571
G00 X115.889 Y71.467
G00 X115.661 Y69.74
G00 X115.104 Y67.963
G00 X114.236 Y66.256
;Nearing path end, moving to preshutoff position
G00 X113.576 Y65.357
M107 ;Pump off
G00 X113.083 Y64.687
G00 X111.698 Y63.33
G00 X110.157 Y62.251
G00 X108.527 Y61.48
G00 X106.247 Y60.857
G4 P250 ;Pause for 250 milliseconds
;Completed path #1/4 on color #4
;Starting fill path #2/4, segments: 74, length: 705, color #4
G00 X193.362 Y47.051
M106 ;Pump on
G4 P350 ;Pause for 350 milliseconds
G00 X190.328 Y46.623
G00 X187.419 Y46.652
G00 X182.949 Y47.449
G00 X178.74 Y48.731
G00 X174.989 Y50.549
G00 X171.517 Y53.081
G00 X168.184 Y56.613
G00 X165.607 Y60.684
G00 X163.851 Y65.186
G00 X162.951 Y69.862
G00 X162.894 Y74.569
G00 X163.658 Y79.195
G00 X165.212 Y83.606
G00 X167.526 Y87.679
G00 X170.571 Y91.302
G00 X174.412 Y94.439
G00 X177.517 Y96.22
G00 X180.774 Y97.491
G00 X186.592 Y98.575
G00 X192.442 Y98.426
G00 X197.103 Y97.333
G00 X201.42 Y95.377
G00 X205.305 Y92.651
G00 X208.656 Y89.258
G00 X211.367 Y85.319
G00 X213.34 Y80.966
G00 X214.488 Y76.335
G00 X214.748 Y71.479
G00 X214.177 Y67.151
G00 X212.876 Y62.999
G00 X210.908 Y59.128
G00 X208.335 Y55.626
G00 X205.237 Y52.591
G00 X201.691 Y50.109
G00 X197.775 Y48.257
G00 X193.362 Y47.051
G00 X190.391 Y61.443
G00 X189.373 Y61.299
G00 X188.79 Y61.305
G00 X186.385 Y61.734
G00 X184.108 Y62.428
G00 X182.567 Y63.174
G00 X181.253 Y64.132
G00 X179.821 Y65.651
G00 X178.755 Y67.334
G00 X178.001 Y69.268
G00 X177.6 Y71.348
G00 X177.575 Y73.456
G00 X177.918 Y75.536
G00 X178.609 Y77.497
G00 X179.616 Y79.269
G00 X180.913 Y80.812
G00 X182.755 Y82.317
G00 X183.867 Y82.955
G00 X184.817 Y83.325
G00 X187.762 Y83.874
G00 X190.563 Y83.802
G00 X192.357 Y83.382
G00 X194.117 Y82.585
G00 X195.8 Y81.404
G00 X197.309 Y79.876
G00 X198.546 Y78.078
G00 X199.428 Y76.133
G00 X199.918 Y74.158
G00 X200.03 Y72.053
G00 X199.803 Y70.327
G00 X199.246 Y68.552
G00 X198.378 Y66.843
;Nearing path end, moving to preshutoff position
G00 X197.719 Y65.946
M107 ;Pump off
G00 X197.222 Y65.27
G00 X195.838 Y63.915
G00 X194.298 Y62.837
G00 X192.667 Y62.065
G00 X190.391 Y61.443
G4 P250 ;Pause for 250 milliseconds
;Completed path #2/4 on color #4
;Starting fill path #3/4, segments: 166, length: 1051, color #4, too small to fill, outline only
G00 X112.704 Y161.628
M106 ;Pump on
G4 P350 ;Pause for 350 milliseconds
G00 X112.73 Y161.649
G00 X119.966 Y167.355
G00 X119.989 Y167.374
G00 X120.012 Y167.387
G00 X128.259 Y171.757
G00 X128.305 Y171.773
G00 X137.428 Y174.588
G00 X137.444 Y174.594
G00 X137.487 Y174.6
G00 X147.474 Y175.647
G00 X147.503 Y175.65
G00 X147.516 Y175.647
G00 X157.553 Y174.862
G00 X157.577 Y174.859
G00 X166.112 Y172.626
G00 X166.151 Y172.614
G00 X166.175 Y172.604
G00 X174.188 Y168.852
G00 X182.271 Y163.186
G00 X182.302 Y163.155
G00 X189.323 Y156.096
G00 X189.344 Y156.068
G00 X194.979 Y147.87
G00 X194.99 Y147.853
G00 X195.003 Y147.83
G00 X198.896 Y138.748
G00 X200.636 Y129.888
G00 X201.823 Y121.714
G00 X201.835 Y121.65
G00 X201.851 Y121.591
G00 X201.873 Y121.529
G00 X201.9 Y121.473
G00 X201.932 Y121.417
G00 X201.967 Y121.366
G00 X202.006 Y121.315
G00 X202.048 Y121.269
G00 X202.096 Y121.229
G00 X202.145 Y121.189
G00 X202.2 Y121.156
G00 X202.255 Y121.126
G00 X202.315 Y121.102
G00 X202.374 Y121.082
G00 X202.434 Y121.065
G00 X202.496 Y121.056
G00 X202.561 Y121.05
G00 X202.635 Y121.051
G00 X207.548 Y121.341
G00 X207.61 Y121.347
G00 X207.674 Y121.359
G00 X207.733 Y121.375
G00 X207.792 Y121.397
G00 X207.851 Y121.424
G00 X207.907 Y121.454
G00 X207.958 Y121.488
G00 X208.009 Y121.528
G00 X208.055 Y121.572
G00 X208.098 Y121.617
G00 X208.135 Y121.669
G00 X208.17 Y121.722
G00 X208.2 Y121.776
G00 X208.225 Y121.836
G00 X208.245 Y121.896
G00 X208.259 Y121.955
G00 X208.271 Y122.018
G00 X208.274 Y122.082
G00 X208.276 Y122.144
G00 X208.272 Y122.201
G00 X207.016 Y133.293
G00 X207.004 Y133.355
G00 X206.985 Y133.434
G00 X203.475 Y144.744
G00 X203.453 Y144.806
G00 X203.418 Y144.882
G00 X197.793 Y155.308
G00 X197.761 Y155.365
G00 X197.724 Y155.415
G00 X197.703 Y155.441
G00 X190.039 Y164.559
G00 X189.996 Y164.605
G00 X189.926 Y164.668
G00 X181.294 Y171.49
G00 X181.245 Y171.528
G00 X181.172 Y171.57
G00 X171.536 Y176.56
G00 X171.479 Y176.587
G00 X171.406 Y176.612
G00 X161.11 Y179.735
G00 X161.048 Y179.751
G00 X160.975 Y179.763
G00 X150.317 Y181.009
G00 X150.253 Y181.015
G00 X150.178 Y181.014
G00 X139.466 Y180.361
G00 X139.405 Y180.354
G00 X139.33 Y180.34
G00 X128.882 Y177.773
G00 X128.82 Y177.754
G00 X128.746 Y177.724
G00 X118.905 Y173.234
G00 X118.848 Y173.207
G00 X118.775 Y173.159
G00 X109.819 Y166.721
G00 X109.768 Y166.681
G00 X109.722 Y166.639
G00 X109.697 Y166.612
G00 X100.849 Y156.859
G00 X100.808 Y156.809
G00 X100.771 Y156.76
G00 X100.751 Y156.726
G00 X94.154 Y145.331
G00 X94.124 Y145.277
G00 X94.099 Y145.217
G00 X94.085 Y145.17
G00 X90.259 Y132.681
G00 X90.242 Y132.621
G00 X90.226 Y132.512
G00 X89.312 Y120.259
G00 X89.311 Y120.197
G00 X89.314 Y120.133
G00 X89.321 Y120.071
G00 X89.335 Y120.009
G00 X89.354 Y119.948
G00 X89.376 Y119.889
G00 X89.405 Y119.833
G00 X89.437 Y119.779
G00 X89.474 Y119.728
G00 X89.514 Y119.68
G00 X89.559 Y119.635
G00 X89.606 Y119.594
G00 X89.658 Y119.557
G00 X89.713 Y119.524
G00 X89.768 Y119.497
G00 X89.827 Y119.472
G00 X89.887 Y119.453
G00 X89.949 Y119.441
G00 X90.011 Y119.432
G00 X90.076 Y119.428
G00 X90.132 Y119.429
G00 X94.494 Y119.703
G00 X94.558 Y119.709
G00 X94.62 Y119.721
G00 X94.679 Y119.738
G00 X94.74 Y119.759
G00 X94.797 Y119.786
G00 X94.853 Y119.818
G00 X94.904 Y119.853
G00 X94.954 Y119.892
G00 X95 Y119.935
G00 X95.04 Y119.982
G00 X95.081 Y120.034
G00 X95.113 Y120.086
G00 X95.143 Y120.141
G00 X95.168 Y120.201
G00 X95.187 Y120.26
G00 X95.204 Y120.32
G00 X95.213 Y120.382
G00 X95.218 Y120.424
G00 X95.801 Y129.189
G00 X95.805 Y129.214
G00 X95.803 Y129.214
G00 X97.971 Y138.301
G00 X97.981 Y138.335
G00 X101.593 Y146.905
G00 X106.54 Y154.742
;Nearing path end, moving to preshutoff position
G00 X106.822 Y155.057
M107 ;Pump off
G00 X112.704 Y161.628
G4 P250 ;Pause for 250 milliseconds
;Completed path #3/4 on color #4
;Switching Color to: Light
G4 P1000 ;Pause for 1000 milliseconds
G00 X1 Y1 ;Help homing
G28 X0 Y0 ;Home All Axis
M84 ;Motors off
M142 ;Bottle change
G4 P15000 ;Pause for 15000 milliseconds
;Starting fill path #4/4, segments: 252, length: 6481, color #1
G00 X180.691 Y16.023
M106 ;Pump on
G4 P350 ;Pause for 350 milliseconds
G00 X165.065 Y11.752
G00 X153.768 Y10.158
G00 X142.531 Y10.274
G00 X126.815 Y13.075
G00 X112.024 Y17.58
G00 X98.344 Y24.211
G00 X85.564 Y33.531
G00 X73.48 Y46.336
G00 X64.086 Y61.177
G00 X57.714 Y77.513
G00 X54.465 Y94.398
G00 X54.26 Y111.398
G00 X57.012 Y128.073
G00 X62.628 Y144.013
G00 X71.012 Y158.768
G00 X82.071 Y171.922
G00 X95.802 Y183.137
G00 X107.3 Y189.733
G00 X119.569 Y194.522
G00 X140.224 Y198.37
G00 X161.152 Y197.836
G00 X178.277 Y193.822
G00 X194.031 Y186.685
G00 X208.111 Y176.805
G00 X220.199 Y164.564
G00 X229.959 Y150.381
G00 X237.079 Y134.672
G00 X241.251 Y117.849
G00 X242.192 Y100.256
G00 X240.101 Y84.419
G00 X235.378 Y69.345
G00 X228.264 Y55.345
G00 X218.988 Y42.722
G00 X207.796 Y31.759
G00 X194.953 Y22.768
G00 X180.691 Y16.023
G00 X175.585 Y29.832
G00 X162.096 Y26.145
G00 X152.813 Y24.836
G00 X143.902 Y24.927
G00 X130.251 Y27.36
G00 X117.392 Y31.277
G00 X105.923 Y36.836
G00 X95.3 Y44.582
G00 X85.116 Y55.375
G00 X77.235 Y67.826
G00 X71.863 Y81.597
G00 X69.114 Y95.883
G00 X68.94 Y110.284
G00 X71.273 Y124.414
G00 X76.027 Y137.906
G00 X83.1 Y150.355
G00 X92.413 Y161.433
G00 X104.145 Y171.016
G00 X113.649 Y176.467
G00 X123.615 Y180.357
G00 X141.392 Y183.669
G00 X159.272 Y183.213
G00 X173.532 Y179.87
G00 X186.73 Y173.891
G00 X198.605 Y165.559
G00 X208.853 Y155.181
G00 X217.139 Y143.141
G00 X223.167 Y129.84
G00 X226.68 Y115.672
G00 X227.475 Y100.829
G00 X225.727 Y87.596
G00 X221.748 Y74.897
G00 X215.735 Y63.062
G00 X207.874 Y52.365
G00 X198.397 Y43.082
G00 X187.559 Y35.495
G00 X175.585 Y29.832
G00 X170.476 Y43.64
G00 X159.128 Y40.538
G00 X151.858 Y39.512
G00 X145.273 Y39.58
G00 X133.686 Y41.645
G00 X122.759 Y44.974
G00 X113.503 Y49.46
G00 X105.037 Y55.634
G00 X96.753 Y64.413
G00 X90.383 Y74.475
G00 X86.012 Y85.681
G00 X83.763 Y97.368
G00 X83.621 Y109.169
G00 X85.534 Y120.755
G00 X89.424 Y131.798
G00 X95.189 Y141.944
G00 X102.754 Y150.942
G00 X112.489 Y158.894
G00 X119.998 Y163.201
G00 X127.661 Y166.192
G00 X142.56 Y168.968
G00 X157.392 Y168.59
G00 X168.786 Y165.919
G00 X179.429 Y161.097
G00 X189.098 Y154.313
G00 X197.507 Y145.798
G00 X204.318 Y135.899
G00 X209.254 Y125.008
G00 X212.11 Y113.495
G00 X212.757 Y101.402
G00 X211.353 Y90.773
G00 X208.119 Y80.45
G00 X203.205 Y70.78
G00 X196.76 Y62.009
G00 X188.998 Y54.405
G00 X180.164 Y48.222
G00 X170.476 Y43.64
G00 X165.368 Y57.448
G00 X156.161 Y54.931
G00 X150.904 Y54.19
G00 X146.644 Y54.233
G00 X137.123 Y55.93
G00 X128.126 Y58.671
G00 X121.083 Y62.084
G00 X114.774 Y66.685
G00 X108.389 Y73.452
G00 X103.533 Y81.123
G00 X100.161 Y89.766
G00 X98.413 Y98.854
G00 X98.302 Y108.054
G00 X99.794 Y117.095
G00 X102.823 Y125.691
G00 X107.277 Y133.531
G00 X113.097 Y140.454
G00 X120.831 Y146.771
G00 X126.349 Y149.936
G00 X131.707 Y152.027
G00 X143.729 Y154.268
G00 X155.512 Y153.967
G00 X164.04 Y151.967
G00 X172.129 Y148.303
G00 X179.592 Y143.066
G00 X186.16 Y136.416
G00 X191.499 Y128.657
G00 X195.342 Y120.177
G00 X197.539 Y111.317
G00 X198.039 Y101.974
G00 X196.98 Y93.949
G00 X194.49 Y86.004
G00 X190.675 Y78.496
G00 X185.646 Y71.652
G00 X179.599 Y65.729
G00 X172.77 Y60.949
G00 X165.368 Y57.448
G00 X160.259 Y71.255
G00 X153.193 Y69.324
G00 X149.95 Y68.866
G00 X148.014 Y68.886
G00 X140.56 Y70.215
G00 X133.494 Y72.367
G00 X128.661 Y74.71
G00 X124.511 Y77.737
G00 X120.024 Y82.491
G00 X116.682 Y87.771
G00 X114.311 Y93.849
G00 X113.062 Y100.34
G00 X112.982 Y106.939
G00 X114.055 Y113.437
G00 X116.22 Y119.583
G00 X119.366 Y125.119
G00 X123.439 Y129.964
G00 X129.175 Y134.649
G00 X132.698 Y136.67
G00 X135.753 Y137.863
G00 X144.898 Y139.567
G00 X153.631 Y139.344
G00 X159.295 Y138.016
G00 X164.828 Y135.509
G00 X170.085 Y131.821
G00 X174.814 Y127.032
G00 X178.678 Y121.417
G00 X181.43 Y115.344
G00 X182.968 Y109.141
G00 X183.322 Y102.547
G00 X182.606 Y97.126
G00 X180.861 Y91.556
G00 X178.145 Y86.212
G00 X174.532 Y81.296
G00 X170.2 Y77.052
G00 X165.377 Y73.676
G00 X160.259 Y71.255
G00 X155.151 Y85.063
G00 X150.224 Y83.717
G00 X149.201 Y83.572
G00 X143.996 Y84.5
G00 X138.861 Y86.065
G00 X136.241 Y87.334
G00 X134.247 Y88.788
G00 X131.661 Y91.529
G00 X129.831 Y94.419
G00 X128.46 Y97.935
G00 X127.711 Y101.826
G00 X127.663 Y105.823
G00 X128.316 Y109.779
G00 X129.618 Y113.475
G00 X131.455 Y116.708
G00 X133.78 Y119.474
G00 X137.52 Y122.528
G00 X139.046 Y123.404
G00 X139.799 Y123.698
G00 X146.067 Y124.866
G00 X151.751 Y124.721
G00 X154.55 Y124.065
G00 X157.527 Y122.715
G00 X160.579 Y120.574
G00 X163.467 Y117.65
G00 X165.858 Y114.175
G00 X167.518 Y110.512
G00 X168.398 Y106.964
G00 X168.604 Y103.119
G00 X168.232 Y100.302
G00 X167.231 Y97.109
G00 X165.615 Y93.929
G00 X163.419 Y90.939
G00 X160.801 Y88.375
G00 X157.984 Y86.404
G00 X155.151 Y85.063
G00 X150.042 Y98.871
G00 X148.822 Y98.538
G00 X147.432 Y98.785
G00 X144.227 Y99.762
G00 X143.913 Y99.914
G00 X143.297 Y100.566
G00 X142.98 Y101.068
G00 X142.609 Y102.018
G00 X142.36 Y103.312
G00 X142.343 Y104.708
G00 X142.576 Y106.119
G00 X143.016 Y107.368
G00 X143.545 Y108.298
G00 X144.121 Y108.983
G00 X145.075 Y109.762
G00 X147.235 Y110.165
G00 X149.837 Y110.098
G00 X150.225 Y109.922
G00 X151.075 Y109.326
G00 X152.12 Y108.268
G00 X153.037 Y106.934
;Nearing path end, moving to preshutoff position
G00 X153.436 Y106.055
M107 ;Pump off
G00 X153.606 Y105.68
G00 X153.827 Y104.788
G00 X153.886 Y103.692
G00 X153.858 Y103.478
G00 X153.601 Y102.66
G00 X153.086 Y101.645
G00 X152.305 Y100.583
G00 X151.401 Y99.697
G00 X150.592 Y99.131
G00 X150.042 Y98.871
G4 P250 ;Pause for 250 milliseconds
;Completed path #4/4 on color #1
;PancakePainter Footer Start
G4 P1000 ;Pause for 1000 milliseconds
G00 X1 Y1 ;Help homing
G28 X0 Y0 ;Home All Axis
M84 ;Motors off
;PancakePainter Footer Complete
