;PancakePainter v1.4.0 GCODE header start
;Originally generated @ Wed Dec 04 2019 15:31:06 GMT-0600 (Central Standard Time)
;Settings used to generate this file:
;----------------------------------------
;botSpeed: 4620
;flattenResolution: 2
;lineEndPreShutoff: 25
;startWait: 350
;endWait: 250
;shadeChangeWait: 30
;useLineFill: false
;useShortest: true
;shapeFillWidth: 7
;fillSpacing: 6
;fillAngle: 23
;fillGroupThreshold: 27
;useColorSpeed: false
;botColorSpeed: 6600,5280,5280,3300
;----------------------------------------
W1 X42 Y210 L485 T0 ;Define Workspace of this file
G21 ;Set units to MM
G1 F4620 ;Set Speed
M107 ;Pump off
G4 P1000 ;Pause for 1000 milliseconds
M84 ;Motors off
G00 X1 Y1 ;Help homing
G28 X0 Y0 ;Home All Axis
;PancakePainter header complete
;Starting fill path #1/33, segments: 179, length: 601, color #4
G00 X114.916 Y54.621
M106 ;Pump on
G4 P350 ;Pause for 350 milliseconds
G00 X109.582 Y54.331
G00 X106.917 Y54.299
G00 X105.24 Y54.569
G00 X105.032 Y54.598
G00 X104.855 Y54.614
G00 X104.677 Y54.625
G00 X104.587 Y54.626
G00 X102.625 Y56.868
G00 X97.713 Y64.236
G00 X97.593 Y64.408
G00 X97.485 Y64.549
G00 X97.371 Y64.686
G00 X97.253 Y64.819
G00 X97.13 Y64.947
G00 X96.52 Y65.557
G00 X95.946 Y66.513
G00 X95.943 Y66.569
G00 X95.927 Y66.746
G00 X95.903 Y66.922
G00 X95.873 Y67.097
G00 X95.836 Y67.271
G00 X95.793 Y67.444
G00 X95.743 Y67.615
G00 X95.687 Y67.783
G00 X95.624 Y67.95
G00 X95.555 Y68.113
G00 X95.48 Y68.274
G00 X95.398 Y68.433
G00 X91.968 Y74.803
G00 X91.384 Y76.264
G00 X91.384 Y76.382
G00 X91.38 Y76.557
G00 X91.37 Y76.735
G00 X91.353 Y76.912
G00 X91.33 Y77.088
G00 X91.3 Y77.263
G00 X91.263 Y77.437
G00 X91.219 Y77.61
G00 X91.169 Y77.78
G00 X91.113 Y77.949
G00 X91.05 Y78.115
G00 X90.925 Y78.427
G00 X91.399 Y79.375
G00 X91.457 Y79.496
G00 X91.529 Y79.659
G00 X91.594 Y79.824
G00 X92.918 Y83.354
G00 X98.184 Y91.013
G00 X98.299 Y91.189
G00 X98.39 Y91.341
G00 X101.961 Y97.591
G00 X105.445 Y97.155
G00 X105.668 Y97.133
G00 X105.846 Y97.123
G00 X106.024 Y97.119
G00 X106.957 Y97.119
G00 X107.012 Y97.091
G00 X107.173 Y97.015
G00 X107.337 Y96.946
G00 X107.503 Y96.883
G00 X107.672 Y96.826
G00 X107.842 Y96.776
G00 X108.015 Y96.733
G00 X108.189 Y96.696
G00 X108.364 Y96.665
G00 X108.54 Y96.642
G00 X108.717 Y96.625
G00 X108.895 Y96.614
G00 X109.072 Y96.611
G00 X112.8 Y96.611
G00 X116.071 Y95.384
G00 X116.31 Y95.302
G00 X116.426 Y95.268
G00 X117.196 Y94.371
G00 X118.628 Y91.546
G00 X118.7 Y91.41
G00 X118.789 Y91.256
G00 X124.795 Y81.246
G00 X126.238 Y78.359
G00 X126.309 Y78.223
G00 X126.397 Y78.069
G00 X126.49 Y77.918
G00 X126.589 Y77.77
G00 X129.757 Y73.244
G00 X130.05 Y72.365
G00 X130.093 Y72.241
G00 X130.157 Y72.075
G00 X130.228 Y71.912
G00 X130.304 Y71.752
G00 X130.387 Y71.594
G00 X130.475 Y71.44
G00 X131.344 Y69.991
G00 X131.348 Y69.931
G00 X131.365 Y69.754
G00 X131.388 Y69.578
G00 X131.418 Y69.403
G00 X131.455 Y69.229
G00 X131.499 Y69.057
G00 X131.549 Y68.886
G00 X131.605 Y68.717
G00 X131.668 Y68.551
G00 X132.017 Y67.68
G00 X127.56 Y55.646
G00 X127.485 Y55.428
G00 X127.435 Y55.257
G00 X127.391 Y55.085
G00 X127.285 Y54.628
G00 X115.17 Y54.628
G00 X114.916 Y54.621
G00 X114.409 Y63.942
G00 X109.313 Y63.665
G00 X105.48 Y69.414
G00 X105.365 Y69.583
G00 X105.245 Y69.755
G00 X105.157 Y69.878
G00 X105.007 Y70.08
G00 X104.899 Y70.221
G00 X104.687 Y70.489
G00 X104.584 Y70.614
G00 X104.541 Y70.74
G00 X104.419 Y71.084
G00 X104.356 Y71.251
G00 X104.23 Y71.567
G00 X104.161 Y71.73
G00 X104.015 Y72.059
G00 X103.94 Y72.22
G00 X103.776 Y72.555
G00 X103.694 Y72.714
G00 X103.618 Y72.858
G00 X100.868 Y77.966
G00 X101.258 Y79.006
G00 X105.876 Y85.724
G00 X105.993 Y85.897
G00 X106.108 Y86.073
G00 X106.18 Y86.185
G00 X106.312 Y86.399
G00 X106.403 Y86.552
G00 X106.495 Y86.71
G00 X106.915 Y87.445
G00 X107.121 Y87.413
G00 X107.297 Y87.389
G00 X107.65 Y87.349
G00 X107.827 Y87.332
G00 X108.184 Y87.305
G00 X108.361 Y87.294
G00 X108.717 Y87.281
G00 X108.895 Y87.277
G00 X109.072 Y87.276
G00 X110.327 Y87.276
G00 X110.379 Y87.176
G00 X110.451 Y87.039
G00 X110.598 Y86.773
G00 X110.687 Y86.618
G00 X110.784 Y86.453
G00 X116.605 Y76.751
G00 X117.888 Y74.184
G00 X117.96 Y74.045
G00 X118.03 Y73.909
G00 X118.187 Y73.621
G00 X118.275 Y73.466
G00 X118.458 Y73.156
G00 X118.552 Y73.005
G00 X118.734 Y72.723
G00 X118.833 Y72.575
G00 X118.941 Y72.416
G00 X121.347 Y68.979
G00 X121.383 Y68.881
G00 X121.447 Y68.715
G00 X121.586 Y68.376
G00 X121.656 Y68.213
G00 X121.805 Y67.887
G00 X121.881 Y67.727
G00 X121.995 Y67.499
;Nearing path end, moving to preshutoff position
G00 X121.569 Y66.349
M107 ;Pump off
G00 X120.686 Y63.963
G00 X115.17 Y63.963
G00 X114.908 Y63.96
G00 X114.655 Y63.952
G00 X114.409 Y63.942
G4 P250 ;Pause for 250 milliseconds
;Completed path #1/33 on color #4
;Starting fill path #2/33, segments: 44, length: 127, color #4
G00 X143.569 Y32.575
M106 ;Pump on
G4 P350 ;Pause for 350 milliseconds
G00 X143.411 Y32.657
G00 X143.257 Y32.746
G00 X143.106 Y32.84
G00 X142.959 Y32.94
G00 X142.816 Y33.045
G00 X142.677 Y33.156
G00 X142.542 Y33.272
G00 X142.355 Y33.449
G00 X141.952 Y33.853
G00 X138.171 Y35.533
G00 X138.01 Y35.608
G00 X137.852 Y35.69
G00 X137.697 Y35.777
G00 X137.546 Y35.87
G00 X137.398 Y35.969
G00 X137.254 Y36.073
G00 X137.114 Y36.183
G00 X137.026 Y36.258
G00 X136.977 Y36.268
G00 X136.805 Y36.312
G00 X136.634 Y36.362
G00 X136.465 Y36.419
G00 X136.299 Y36.481
G00 X136.135 Y36.551
G00 X135.947 Y36.639
G00 X130.836 Y39.195
G00 X124.13 Y39.195
G00 X131.914 Y35.134
G00 X134.229 Y34.748
G00 X134.404 Y34.716
G00 X134.577 Y34.676
G00 X134.749 Y34.631
G00 X134.919 Y34.579
G00 X135.087 Y34.52
G00 X135.252 Y34.455
G00 X135.415 Y34.383
G00 X135.549 Y34.319
G00 X136.954 Y33.617
;Nearing path end, moving to preshutoff position
G00 X137.659 Y33.499
M107 ;Pump off
G00 X139.31 Y33.224
G00 X139.485 Y33.191
G00 X139.612 Y33.163
G00 X144.862 Y31.928
G00 X143.569 Y32.575
G4 P250 ;Pause for 250 milliseconds
;Completed path #2/33 on color #4
;Starting fill path #3/33, segments: 53, length: 160, color #4
G00 X89.363 Y105.785
M106 ;Pump on
G4 P350 ;Pause for 350 milliseconds
G00 X91.411 Y109.061
G00 X91.702 Y110.81
G00 X91.702 Y112.457
G00 X91.705 Y112.635
G00 X91.716 Y112.815
G00 X92.21 Y119.24
G00 X92.21 Y124.144
G00 X92.213 Y124.321
G00 X92.224 Y124.499
G00 X92.241 Y124.676
G00 X92.264 Y124.852
G00 X92.295 Y125.027
G00 X92.332 Y125.201
G00 X92.375 Y125.373
G00 X92.426 Y125.544
G00 X92.482 Y125.713
G00 X92.545 Y125.879
G00 X92.614 Y126.043
G00 X92.69 Y126.204
G00 X92.718 Y126.259
G00 X92.718 Y129.932
G00 X91.167 Y125.278
G00 X89.859 Y120.919
G00 X89.859 Y119.571
G00 X89.856 Y119.393
G00 X89.846 Y119.215
G00 X89.829 Y119.038
G00 X89.805 Y118.862
G00 X89.775 Y118.687
G00 X89.738 Y118.513
G00 X89.694 Y118.341
G00 X89.644 Y118.17
G00 X89.587 Y118.001
G00 X89.525 Y117.837
G00 X88.843 Y116.131
G00 X88.843 Y114.998
G00 X88.84 Y114.82
G00 X88.829 Y114.642
G00 X88.813 Y114.465
G00 X88.789 Y114.289
G00 X88.758 Y114.114
G00 X88.721 Y113.94
G00 X88.678 Y113.768
G00 X88.628 Y113.597
G00 X88.571 Y113.428
G00 X88.509 Y113.264
G00 X87.827 Y111.558
;Nearing path end, moving to preshutoff position
G00 X87.827 Y107.842
M107 ;Pump off
G00 X87.827 Y106.868
G00 X87.823 Y106.69
G00 X87.811 Y106.48
G00 X87.493 Y102.669
G00 X89.363 Y105.785
G4 P250 ;Pause for 250 milliseconds
;Completed path #3/33 on color #4
;Starting fill path #4/33, segments: 22, length: 138, color #4
G00 X175.817 Y32.582
M106 ;Pump on
G4 P350 ;Pause for 350 milliseconds
G00 X175.989 Y32.63
G00 X176.162 Y32.672
G00 X176.336 Y32.706
G00 X176.512 Y32.734
G00 X176.688 Y32.755
G00 X176.865 Y32.77
G00 X177.043 Y32.778
G00 X177.159 Y32.78
G00 X177.837 Y32.78
G00 X180.921 Y33.936
G00 X191.411 Y38.931
G00 X191.573 Y39.005
G00 X191.738 Y39.072
G00 X191.905 Y39.133
G00 X192.074 Y39.187
G00 X192.103 Y39.195
G00 X185.882 Y39.195
G00 X180.703 Y36.606
;Nearing path end, moving to preshutoff position
G00 X171.687 Y32.278
M107 ;Pump off
G00 X169.555 Y31.255
G00 X171.393 Y31.255
G00 X175.817 Y32.582
G4 P250 ;Pause for 250 milliseconds
;Completed path #4/33 on color #4
;Starting fill path #5/33, segments: 342, length: 889, color #4
G00 X160.061 Y95.782
M106 ;Pump on
G4 P350 ;Pause for 350 milliseconds
G00 X160.157 Y95.944
G00 X160.352 Y96.266
G00 X160.45 Y96.425
G00 X160.545 Y96.575
G00 X160.636 Y96.716
G00 X160.821 Y96.996
G00 X160.915 Y97.134
G00 X161.015 Y97.281
G00 X161.121 Y97.432
G00 X161.337 Y97.734
G00 X161.446 Y97.883
G00 X161.552 Y98.026
G00 X161.654 Y98.159
G00 X161.863 Y98.429
G00 X161.97 Y98.566
G00 X162.082 Y98.704
G00 X162.148 Y98.785
G00 X164.093 Y102.35
G00 X162.045 Y105.886
G00 X155.093 Y105.886
G00 X155.037 Y105.798
G00 X154.899 Y105.588
G00 X154.771 Y105.4
G00 X154.662 Y105.243
G00 X154.532 Y104.965
G00 X154.455 Y104.805
G00 X154.377 Y104.646
G00 X154.307 Y104.506
G00 X154.155 Y104.208
G00 X154.073 Y104.051
G00 X153.989 Y103.894
G00 X153.895 Y103.724
G00 X153.711 Y103.397
G00 X153.621 Y103.24
G00 X153.531 Y103.087
G00 X153.439 Y102.934
G00 X153.255 Y102.635
G00 X153.164 Y102.489
G00 X153.124 Y102.427
G00 X153.137 Y102.397
G00 X153.21 Y102.291
G00 X153.398 Y102.014
G00 X153.49 Y101.875
G00 X153.587 Y101.726
G00 X153.683 Y101.575
G00 X153.873 Y101.27
G00 X153.967 Y101.115
G00 X154.059 Y100.962
G00 X154.15 Y100.805
G00 X154.327 Y100.494
G00 X154.413 Y100.341
G00 X154.498 Y100.185
G00 X154.577 Y100.036
G00 X154.74 Y99.725
G00 X154.822 Y99.564
G00 X154.902 Y99.405
G00 X154.981 Y99.241
G00 X155.134 Y98.918
G00 X155.208 Y98.758
G00 X155.281 Y98.596
G00 X155.352 Y98.434
G00 X155.494 Y98.103
G00 X155.564 Y97.935
G00 X155.631 Y97.77
G00 X155.68 Y97.646
G00 X155.772 Y97.411
G00 X155.793 Y97.354
G00 X156.792 Y95.655
G00 X159.987 Y95.655
G00 X160.061 Y95.782
G00 X168.138 Y91.103
G00 X168.333 Y91.424
G00 X168.428 Y91.574
G00 X168.613 Y91.854
G00 X168.714 Y92.001
G00 X168.929 Y92.302
G00 X169.035 Y92.445
G00 X169.244 Y92.715
G00 X169.356 Y92.853
G00 X169.516 Y93.047
G00 X169.599 Y93.143
G00 X169.716 Y93.277
G00 X169.872 Y93.451
G00 X174.784 Y102.456
G00 X173.622 Y104.522
G00 X168.156 Y113.963
G00 X167.397 Y115.228
G00 X167.315 Y115.226
G00 X167.156 Y115.223
G00 X166.997 Y115.222
G00 X150.416 Y115.222
G00 X149.674 Y115.147
G00 X149.64 Y115.088
G00 X149.55 Y114.935
G00 X149.367 Y114.637
G00 X149.271 Y114.487
G00 X149.133 Y114.277
G00 X149.034 Y114.134
G00 X148.885 Y113.924
G00 X148.729 Y113.71
G00 X148.531 Y113.446
G00 X148.472 Y113.297
G00 X148.33 Y112.959
G00 X148.258 Y112.797
G00 X148.106 Y112.472
G00 X148.028 Y112.313
G00 X147.876 Y112.015
G00 X147.792 Y111.859
G00 X147.608 Y111.532
G00 X147.518 Y111.379
G00 X147.334 Y111.08
G00 X147.238 Y110.93
G00 X147.1 Y110.72
G00 X147.001 Y110.577
G00 X146.853 Y110.367
G00 X146.697 Y110.153
G00 X146.499 Y109.889
G00 X146.44 Y109.74
G00 X146.297 Y109.402
G00 X146.225 Y109.24
G00 X146.074 Y108.916
G00 X145.996 Y108.756
G00 X145.843 Y108.459
G00 X145.759 Y108.302
G00 X145.576 Y107.975
G00 X145.485 Y107.822
G00 X145.302 Y107.523
G00 X145.206 Y107.373
G00 X145.068 Y107.163
G00 X144.969 Y107.021
G00 X144.82 Y106.811
G00 X144.664 Y106.596
G00 X144.466 Y106.332
G00 X144.407 Y106.183
G00 X144.265 Y105.846
G00 X144.193 Y105.683
G00 X144.041 Y105.359
G00 X143.963 Y105.199
G00 X143.811 Y104.902
G00 X143.727 Y104.745
G00 X143.543 Y104.418
G00 X143.453 Y104.265
G00 X143.269 Y103.966
G00 X143.174 Y103.817
G00 X143.035 Y103.607
G00 X142.936 Y103.464
G00 X142.788 Y103.254
G00 X142.632 Y103.04
G00 X142.434 Y102.776
G00 X142.375 Y102.627
G00 X142.361 Y102.593
G00 X142.401 Y102.517
G00 X142.48 Y102.357
G00 X142.633 Y102.034
G00 X142.706 Y101.872
G00 X142.82 Y101.609
G00 X142.906 Y101.398
G00 X142.951 Y101.287
G00 X143.007 Y101.216
G00 X143.115 Y101.075
G00 X143.265 Y100.873
G00 X143.34 Y100.768
G00 X143.442 Y100.622
G00 X143.63 Y100.344
G00 X143.727 Y100.195
G00 X143.917 Y99.89
G00 X144.009 Y99.737
G00 X144.186 Y99.426
G00 X144.271 Y99.27
G00 X144.433 Y98.96
G00 X144.512 Y98.801
G00 X144.665 Y98.477
G00 X144.738 Y98.315
G00 X144.852 Y98.052
G00 X144.939 Y97.841
G00 X144.983 Y97.73
G00 X145.04 Y97.659
G00 X145.148 Y97.518
G00 X145.298 Y97.316
G00 X145.373 Y97.211
G00 X145.475 Y97.065
G00 X145.663 Y96.788
G00 X145.759 Y96.638
G00 X145.95 Y96.333
G00 X146.041 Y96.18
G00 X146.218 Y95.87
G00 X146.303 Y95.714
G00 X146.465 Y95.403
G00 X146.545 Y95.244
G00 X146.698 Y94.921
G00 X146.771 Y94.758
G00 X146.913 Y94.428
G00 X146.979 Y94.263
G00 X147.07 Y94.029
G00 X147.118 Y93.899
G00 X147.188 Y93.703
G00 X147.254 Y93.511
G00 X147.296 Y93.388
G00 X151.453 Y86.32
G00 X165.476 Y86.32
G00 X167.967 Y90.804
G00 X168.049 Y90.949
G00 X168.138 Y91.103
G00 X176.216 Y86.424
G00 X176.312 Y86.574
G00 X176.412 Y86.721
G00 X176.519 Y86.863
G00 X176.63 Y87.002
G00 X176.747 Y87.136
G00 X176.907 Y87.304
G00 X177.448 Y87.846
G00 X183.223 Y98.433
G00 X183.311 Y98.587
G00 X183.363 Y98.672
G00 X185.206 Y101.622
G00 X185.207 Y101.634
G00 X185.224 Y101.811
G00 X185.248 Y101.987
G00 X185.278 Y102.163
G00 X185.333 Y102.411
G00 X185.391 Y102.641
G00 X181.736 Y109.138
G00 X176.192 Y118.715
G00 X173.317 Y123.506
G00 X172.598 Y124.405
G00 X170.903 Y124.687
G00 X167.155 Y124.56
G00 X166.997 Y124.557
G00 X149.952 Y124.557
G00 X145.104 Y124.072
G00 X144.927 Y124.058
G00 X144.749 Y124.05
G00 X144.64 Y124.049
G00 X144.089 Y124.049
G00 X143.442 Y123.079
G00 X143.293 Y122.867
G00 X142.223 Y121.44
G00 X141.954 Y120.635
G00 X141.895 Y120.468
G00 X141.829 Y120.302
G00 X141.757 Y120.14
G00 X141.679 Y119.98
G00 X141.595 Y119.823
G00 X141.505 Y119.67
G00 X141.409 Y119.52
G00 X141.261 Y119.31
G00 X140.19 Y117.883
G00 X139.922 Y117.079
G00 X139.863 Y116.911
G00 X139.797 Y116.746
G00 X139.725 Y116.583
G00 X139.647 Y116.423
G00 X139.563 Y116.267
G00 X139.472 Y116.113
G00 X139.377 Y115.964
G00 X139.228 Y115.754
G00 X138.158 Y114.326
G00 X137.89 Y113.522
G00 X137.83 Y113.354
G00 X137.765 Y113.189
G00 X137.692 Y113.026
G00 X137.614 Y112.867
G00 X137.53 Y112.71
G00 X137.44 Y112.557
G00 X137.344 Y112.407
G00 X137.196 Y112.197
G00 X136.125 Y110.77
G00 X135.857 Y109.965
G00 X135.798 Y109.797
G00 X135.732 Y109.632
G00 X135.66 Y109.469
G00 X135.582 Y109.31
G00 X135.498 Y109.153
G00 X135.408 Y109
G00 X135.312 Y108.85
G00 X135.163 Y108.64
G00 X134.093 Y107.213
G00 X133.825 Y106.408
G00 X133.765 Y106.241
G00 X133.7 Y106.075
G00 X133.628 Y105.913
G00 X133.549 Y105.753
G00 X133.465 Y105.596
G00 X133.375 Y105.443
G00 X133.279 Y105.294
G00 X133.131 Y105.084
G00 X132.061 Y103.656
G00 X131.792 Y102.852
G00 X131.733 Y102.684
G00 X131.686 Y102.565
G00 X132.047 Y101.842
G00 X132.124 Y101.681
G00 X132.206 Y101.488
G00 X132.866 Y99.838
G00 X133.205 Y99.498
G00 X133.329 Y99.37
G00 X133.447 Y99.238
G00 X133.56 Y99.1
G00 X133.668 Y98.959
G00 X133.771 Y98.814
G00 X133.867 Y98.664
G00 X133.959 Y98.512
G00 X134.044 Y98.356
G00 X134.123 Y98.197
G00 X134.196 Y98.034
G00 X134.239 Y97.931
G00 X134.899 Y96.281
G00 X135.238 Y95.942
G00 X135.361 Y95.813
G00 X135.479 Y95.681
G00 X135.593 Y95.544
G00 X135.701 Y95.402
G00 X135.803 Y95.257
G00 X135.9 Y95.108
G00 X135.991 Y94.955
G00 X136.076 Y94.799
G00 X136.155 Y94.64
G00 X136.228 Y94.478
G00 X136.271 Y94.375
G00 X136.931 Y92.724
G00 X137.27 Y92.385
G00 X137.394 Y92.257
G00 X137.512 Y92.124
G00 X137.625 Y91.987
G00 X137.733 Y91.846
G00 X137.835 Y91.7
G00 X137.932 Y91.551
G00 X138.023 Y91.398
G00 X138.108 Y91.242
G00 X138.188 Y91.083
G00 X138.261 Y90.921
G00 X138.328 Y90.756
G00 X138.398 Y90.56
G00 X138.75 Y89.503
G00 X143.558 Y81.329
G00 X146.232 Y76.985
G00 X168.909 Y76.985
G00 X171.031 Y77.095
G00 X171.046 Y77.124
;Nearing path end, moving to preshutoff position
G00 X171.93 Y78.714
M107 ;Pump off
G00 X176.127 Y86.27
G00 X176.216 Y86.424
G4 P250 ;Pause for 250 milliseconds
;Completed path #5/33 on color #4
;Starting fill path #6/33, segments: 50, length: 159, color #4
G00 X102.657 Y145.67
M106 ;Pump on
G4 P350 ;Pause for 350 milliseconds
G00 X103.231 Y146.244
G00 X103.36 Y146.367
G00 X103.492 Y146.486
G00 X103.629 Y146.599
G00 X103.771 Y146.707
G00 X103.916 Y146.809
G00 X104.065 Y146.906
G00 X104.218 Y146.997
G00 X104.445 Y147.118
G00 X106.815 Y148.304
G00 X107.296 Y148.785
G00 X107.424 Y148.908
G00 X107.557 Y149.026
G00 X107.694 Y149.139
G00 X107.835 Y149.247
G00 X107.981 Y149.35
G00 X108.13 Y149.446
G00 X108.283 Y149.538
G00 X108.509 Y149.659
G00 X112.132 Y151.47
G00 X114.286 Y153.194
G00 X114.427 Y153.302
G00 X114.613 Y153.432
G00 X117.809 Y155.563
G00 X117.891 Y155.695
G00 X118.908 Y157.219
G00 X119.057 Y157.43
G00 X121.802 Y161.09
G00 X122.86 Y163.419
G00 X122.646 Y163.312
G00 X117.846 Y159.952
G00 X117.699 Y159.853
G00 X117.548 Y159.759
G00 X117.393 Y159.672
G00 X117.257 Y159.601
G00 X114.887 Y158.416
G00 X108.308 Y151.837
G00 X108.18 Y151.714
G00 X108.047 Y151.596
G00 X107.91 Y151.483
G00 X107.769 Y151.375
G00 X107.597 Y151.254
;Nearing path end, moving to preshutoff position
G00 X107.532 Y151.211
M107 ;Pump off
G00 X106.636 Y150.613
G00 X104.529 Y148.085
G00 X104.412 Y147.951
G00 X104.243 Y147.772
G00 X102.537 Y146.066
G00 X102.037 Y145.315
G00 X102.657 Y145.67
G4 P250 ;Pause for 250 milliseconds
;Completed path #6/33 on color #4
;Starting fill path #7/33, segments: 122, length: 595, color #4
G00 X206.732 Y64.122
M106 ;Pump on
G4 P350 ;Pause for 350 milliseconds
G00 X211.871 Y69.401
G00 X211.949 Y69.499
G00 X211.969 Y69.572
G00 X212.019 Y69.742
G00 X212.126 Y70.08
G00 X212.182 Y70.249
G00 X212.297 Y70.572
G00 X212.36 Y70.739
G00 X212.452 Y70.973
G00 X212.502 Y71.094
G00 X212.572 Y71.258
G00 X212.723 Y71.596
G00 X212.812 Y71.784
G00 X212.904 Y71.974
G00 X215.82 Y77.805
G00 X214.713 Y79.744
G00 X212.232 Y84.21
G00 X210.362 Y87.482
G00 X208.651 Y87.101
G00 X208.476 Y87.064
G00 X208.302 Y87.029
G00 X207.963 Y86.967
G00 X207.787 Y86.938
G00 X207.431 Y86.887
G00 X207.255 Y86.865
G00 X206.882 Y86.826
G00 X206.704 Y86.811
G00 X206.366 Y86.789
G00 X206.188 Y86.78
G00 X206.133 Y86.779
G00 X206.03 Y86.559
G00 X205.952 Y86.399
G00 X205.806 Y86.115
G00 X205.734 Y85.979
G00 X205.659 Y85.841
G00 X203.75 Y82.405
G00 X203.653 Y82.115
G00 X203.599 Y81.956
G00 X203.54 Y81.789
G00 X203.413 Y81.452
G00 X203.348 Y81.286
G00 X203.205 Y80.949
G00 X203.133 Y80.786
G00 X202.982 Y80.462
G00 X202.903 Y80.302
G00 X202.751 Y80.005
G00 X202.667 Y79.848
G00 X202.516 Y79.576
G00 X202.416 Y79.405
G00 X194.873 Y66.676
G00 X196.229 Y63.963
G00 X206.527 Y63.963
G00 X206.732 Y64.122
G00 X212.97 Y57.148
G00 X218.877 Y63.215
G00 X220.459 Y65.193
G00 X220.763 Y65.8
G00 X220.764 Y65.889
G00 X220.775 Y66.067
G00 X220.792 Y66.244
G00 X220.815 Y66.42
G00 X220.846 Y66.595
G00 X220.883 Y66.769
G00 X220.926 Y66.941
G00 X220.977 Y67.112
G00 X221.033 Y67.281
G00 X221.096 Y67.447
G00 X221.165 Y67.611
G00 X221.254 Y67.799
G00 X225.039 Y75.37
G00 X225.425 Y77.297
G00 X225.463 Y77.471
G00 X225.508 Y77.643
G00 X225.574 Y77.858
G00 X225.93 Y78.926
G00 X222.873 Y84.277
G00 X220.36 Y88.801
G00 X216.34 Y95.837
G00 X215.429 Y97.294
G00 X214.321 Y97.155
G00 X214.145 Y97.137
G00 X213.967 Y97.125
G00 X213.742 Y97.119
G00 X210.696 Y97.119
G00 X206.625 Y96.214
G00 X206.451 Y96.179
G00 X206.276 Y96.15
G00 X206.099 Y96.128
G00 X205.922 Y96.113
G00 X205.744 Y96.105
G00 X205.613 Y96.103
G00 X203.725 Y96.103
G00 X200.913 Y95.299
G00 X200.112 Y94.298
G00 X200.053 Y94.226
G00 X198.075 Y91.853
G00 X197.846 Y91.165
G00 X197.787 Y90.997
G00 X197.721 Y90.832
G00 X197.649 Y90.67
G00 X197.571 Y90.51
G00 X197.498 Y90.374
G00 X195.168 Y86.18
G00 X194.797 Y85.068
G00 X194.738 Y84.9
G00 X194.673 Y84.735
G00 X194.6 Y84.572
G00 X194.522 Y84.413
G00 X194.438 Y84.256
G00 X194.385 Y84.164
G00 X186.279 Y70.485
G00 X185.119 Y68.452
G00 X184.959 Y67.134
G00 X186.087 Y63.374
G00 X187.939 Y59.669
G00 X188.016 Y59.509
G00 X188.098 Y59.315
G00 X189.973 Y54.628
;Nearing path end, moving to preshutoff position
G00 X204.982 Y54.628
M107 ;Pump off
G00 X209.53 Y54.628
G00 X210.16 Y54.963
G00 X212.97 Y57.148
G4 P250 ;Pause for 250 milliseconds
;Completed path #7/33 on color #4
;Starting fill path #8/33, segments: 11, length: 43, color #4, too small to fill, outline only
G00 X216.791 Y52.501
M106 ;Pump on
G4 P350 ;Pause for 350 milliseconds
G00 X217.299 Y53.517
G00 X216.283 Y53.517
G00 X215.775 Y53.009
G00 X215.267 Y53.009
G00 X213.742 Y51.485
;Nearing path end, moving to preshutoff position
G00 X213.404 Y51.259
M107 ;Pump off
G00 X212.218 Y50.468
G00 X211.202 Y49.96
G00 X211.71 Y49.96
G00 X212.218 Y49.96
G00 X214.879 Y51.231
G00 X216.791 Y52.501
G4 P250 ;Pause for 250 milliseconds
;Completed path #8/33 on color #4
;Starting fill path #9/33, segments: 16, length: 42, color #4, too small to fill, outline only
G00 X217.807 Y54.025
M106 ;Pump on
G4 P350 ;Pause for 350 milliseconds
G00 X218.315 Y54.533
G00 X217.807 Y55.041
G00 X218.315 Y55.549
G00 X218.823 Y55.041
G00 X219.332 Y55.549
G00 X218.823 Y56.058
G00 X219.332 Y56.566
;Nearing path end, moving to preshutoff position
G00 X219.657 Y56.566
M107 ;Pump off
G00 X219.84 Y56.566
G00 X219.84 Y56.058
G00 X219.84 Y57.074
G00 X220.348 Y57.074
G00 X220.348 Y57.582
G00 X220.856 Y57.582
G00 X220.856 Y58.09
G00 X218.918 Y55.575
G00 X217.807 Y54.025
G4 P250 ;Pause for 250 milliseconds
;Completed path #9/33 on color #4
;Starting fill path #10/33, segments: 114, length: 593, color #4
G00 X172.12 Y153.585
M106 ;Pump on
G4 P350 ;Pause for 350 milliseconds
G00 X169.105 Y158.792
G00 X169.016 Y158.949
G00 X168.93 Y159.105
G00 X168.802 Y159.345
G00 X168.699 Y159.546
G00 X166.884 Y163.175
G00 X165.46 Y163.492
G00 X163.948 Y163.492
G00 X163.77 Y163.493
G00 X163.592 Y163.497
G00 X163.237 Y163.51
G00 X163.059 Y163.52
G00 X162.702 Y163.548
G00 X162.526 Y163.565
G00 X162.173 Y163.605
G00 X161.996 Y163.629
G00 X161.917 Y163.641
G00 X161.745 Y163.617
G00 X161.408 Y163.576
G00 X161.231 Y163.557
G00 X160.938 Y163.531
G00 X160.705 Y163.516
G00 X152.067 Y163.008
G00 X151.893 Y162.999
G00 X151.716 Y162.992
G00 X151.44 Y162.985
G00 X151.245 Y162.983
G00 X150.246 Y162.983
G00 X148.527 Y159.546
G00 X148.443 Y159.383
G00 X148.361 Y159.226
G00 X148.196 Y158.926
G00 X148.107 Y158.769
G00 X148.01 Y158.604
G00 X145.221 Y153.955
G00 X145.307 Y153.852
G00 X145.419 Y153.714
G00 X145.629 Y153.445
G00 X145.735 Y153.302
G00 X145.945 Y153.011
G00 X146.04 Y152.875
G00 X146.129 Y152.743
G00 X147.393 Y150.848
G00 X147.9 Y150.341
G00 X169.28 Y150.341
G00 X172.12 Y153.585
G00 X180.558 Y149.05
G00 X183.161 Y153.153
G00 X182.773 Y153.816
G00 X177.184 Y163.469
G00 X177.098 Y163.625
G00 X177.049 Y163.721
G00 X174.339 Y169.14
G00 X173.858 Y169.621
G00 X173.735 Y169.749
G00 X173.573 Y169.934
G00 X172.142 Y171.651
G00 X170.802 Y171.874
G00 X170.557 Y171.922
G00 X166.486 Y172.827
G00 X163.948 Y172.827
G00 X163.77 Y172.83
G00 X163.593 Y172.84
G00 X163.416 Y172.857
G00 X163.239 Y172.881
G00 X163.064 Y172.911
G00 X162.89 Y172.948
G00 X162.718 Y172.992
G00 X162.472 Y173.067
G00 X162.124 Y173.183
G00 X160.798 Y172.918
G00 X160.624 Y172.886
G00 X160.447 Y172.861
G00 X160.271 Y172.843
G00 X160.157 Y172.835
G00 X151.519 Y172.327
G00 X151.342 Y172.32
G00 X151.245 Y172.319
G00 X147.266 Y172.319
G00 X146.219 Y171.795
G00 X146.059 Y171.719
G00 X145.895 Y171.649
G00 X145.73 Y171.585
G00 X145.561 Y171.527
G00 X145.391 Y171.476
G00 X145.219 Y171.431
G00 X145.047 Y171.393
G00 X144.532 Y171.29
G00 X144.069 Y170.52
G00 X143.975 Y170.37
G00 X143.875 Y170.223
G00 X143.801 Y170.121
G00 X142.529 Y168.425
G00 X140.177 Y163.721
G00 X140.094 Y163.563
G00 X140.005 Y163.406
G00 X136.98 Y158.366
G00 X133.872 Y152.926
G00 X133.925 Y152.713
G00 X133.965 Y152.54
G00 X133.98 Y152.463
G00 X137.932 Y148.116
G00 X138.049 Y147.982
G00 X138.161 Y147.844
G00 X138.267 Y147.701
G00 X138.361 Y147.565
G00 X140.137 Y144.902
G00 X144.033 Y141.006
G00 X169.503 Y141.006
G00 X172.61 Y141.072
G00 X173.751 Y141.229
;Nearing path end, moving to preshutoff position
G00 X174.758 Y142.403
M107 ;Pump off
G00 X175.679 Y143.478
G00 X180.558 Y149.05
G4 P250 ;Pause for 250 milliseconds
;Completed path #10/33 on color #4
;Starting fill path #11/33, segments: 47, length: 158, color #4
G00 X230.399 Y101.787
M106 ;Pump on
G4 P350 ;Pause for 350 milliseconds
G00 X229.923 Y107.497
G00 X229.912 Y107.674
G00 X229.907 Y107.884
G00 X229.907 Y109.851
G00 X229.03 Y113.357
G00 X228.99 Y113.531
G00 X228.957 Y113.705
G00 X228.931 Y113.881
G00 X228.911 Y114.058
G00 X228.898 Y114.235
G00 X228.891 Y114.49
G00 X228.891 Y116.319
G00 X226.634 Y123.54
G00 X224.687 Y128.083
G00 X225.002 Y123.993
G00 X225.012 Y123.816
G00 X225.016 Y123.635
G00 X225.016 Y119.571
G00 X225.013 Y119.423
G00 X224.903 Y115.945
G00 X225.456 Y112.743
G00 X225.482 Y112.567
G00 X225.503 Y112.39
G00 X225.516 Y112.213
G00 X225.524 Y111.949
G00 X225.524 Y109.685
;Nearing path end, moving to preshutoff position
G00 X226.269 Y108.443
M107 ;Pump off
G00 X227.907 Y105.713
G00 X227.995 Y105.558
G00 X228.078 Y105.401
G00 X228.155 Y105.241
G00 X228.238 Y105.045
G00 X228.899 Y103.394
G00 X229.238 Y103.055
G00 X229.361 Y102.927
G00 X229.479 Y102.794
G00 X229.592 Y102.657
G00 X229.7 Y102.516
G00 X229.803 Y102.37
G00 X229.9 Y102.221
G00 X229.991 Y102.068
G00 X230.076 Y101.913
G00 X230.155 Y101.753
G00 X230.228 Y101.591
G00 X230.271 Y101.488
G00 X230.356 Y101.274
G00 X230.399 Y101.787
G4 P250 ;Pause for 250 milliseconds
;Completed path #11/33 on color #4
;Starting fill path #12/33, segments: 16, length: 143, color #4
G00 X201.738 Y158.509
M106 ;Pump on
G4 P350 ;Pause for 350 milliseconds
G00 X195.046 Y162.333
G00 X198.516 Y156.26
G00 X199.776 Y155.315
G00 X199.916 Y155.206
G00 X200.052 Y155.091
G00 X200.183 Y154.972
G00 X200.276 Y154.882
G00 X200.757 Y154.401
G00 X203.127 Y153.216
G00 X203.285 Y153.133
G00 X203.439 Y153.045
G00 X203.562 Y152.968
G00 X213.547 Y146.555
G00 X213.923 Y146.324
;Nearing path end, moving to preshutoff position
G00 X207.975 Y152.271
M107 ;Pump off
G00 X201.738 Y158.509
G4 P250 ;Pause for 250 milliseconds
;Completed path #12/33 on color #4
;Switching Color to: Light
G4 P1000 ;Pause for 1000 milliseconds
G00 X1 Y1 ;Help homing
G28 X0 Y0 ;Home All Axis
M84 ;Motors off
M142 ;Bottle change
G4 P30000 ;Pause for 30000 milliseconds
;Starting stroke path #13/33, segments: 5, length: 160, color #1
G00 X104.873 Y45.448
M106 ;Pump on
G4 P350 ;Pause for 350 milliseconds
G00 X109.007 Y47.377
G00 X113.744 Y47.42
G00 X132.142 Y47.462
G00 X137.497 Y49.006
G00 X142.654 Y51.698
;Nearing path end, moving to preshutoff position
G00 X150.276 Y55.457
M107 ;Pump off
G00 X152.841 Y56.721
G00 X158.754 Y55.962
G4 P250 ;Pause for 250 milliseconds
;Completed path #13/33 on color #1
;Starting stroke path #14/33, segments: 5, length: 129, color #1
G00 X81.875 Y83.231
M106 ;Pump on
G4 P350 ;Pause for 350 milliseconds
G00 X85.996 Y85.659
G00 X96.538 Y103.595
G00 X101.259 Y107.884
;Nearing path end, moving to preshutoff position
G00 X104.894 Y111.162
M107 ;Pump off
G00 X111.444 Y117.071
G4 P250 ;Pause for 250 milliseconds
;Completed path #14/33 on color #1
;Starting stroke path #15/33, segments: 15, length: 450, color #1
G00 X158.426 Y22.122
M106 ;Pump on
G4 P350 ;Pause for 350 milliseconds
G00 X158.815 Y45.12
G00 X158.437 Y50.065
G00 X158.998 Y54.94
G00 X161.7 Y56.531
G00 X164.997 Y57.461
G00 X175.496 Y67.789
G00 X178.754 Y74.032
G00 X189.961 Y93.416
G00 X194.844 Y103.929
G00 X200.714 Y111.814
G00 X202.899 Y114.895
G00 X205.736 Y116.863
G00 X208.364 Y114.827
G00 X214.278 Y109.514
G00 X220.199 Y104.243
G00 X225.346 Y95.072
;Nearing path end, moving to preshutoff position
G00 X229.174 Y88.928
M107 ;Pump off
G00 X230.859 Y86.223
G00 X235.633 Y83.231
G4 P250 ;Pause for 250 milliseconds
;Completed path #15/33 on color #1
;Starting stroke path #16/33, segments: 8, length: 258, color #1
G00 X152.841 Y56.947
M106 ;Pump on
G4 P350 ;Pause for 350 milliseconds
G00 X141.182 Y68.775
G00 X137.155 Y76.66
G00 X124.614 Y98.344
G00 X122.367 Y103.929
G00 X115.019 Y113.785
G00 X112.259 Y117.728
G00 X113.062 Y121.702
;Nearing path end, moving to preshutoff position
G00 X115.535 Y125.155
M107 ;Pump off
G00 X115.604 Y125.252
G00 X121.957 Y131.198
G4 P250 ;Pause for 250 milliseconds
;Completed path #16/33 on color #1
;Starting stroke path #17/33, segments: 5, length: 142, color #1
G00 X164.997 Y56.947
M106 ;Pump on
G4 P350 ;Pause for 350 milliseconds
G00 X169.782 Y53.762
G00 X175.182 Y51.649
G00 X184.709 Y47.548
G00 X193.908 Y47.42
G00 X203.596 Y47.86
;Nearing path end, moving to preshutoff position
G00 X203.963 Y47.823
M107 ;Pump off
G00 X208.51 Y47.361
G00 X212.307 Y45.448
G4 P250 ;Pause for 250 milliseconds
;Completed path #17/33 on color #1
;Starting stroke path #18/33, segments: 3, length: 84, color #1
G00 X113.415 Y122.984
M106 ;Pump on
G4 P350 ;Pause for 350 milliseconds
G00 X100.274 Y135.957
;Nearing path end, moving to preshutoff position
G00 X98.145 Y137.129
M107 ;Pump off
G00 X90.417 Y141.383
G4 P250 ;Pause for 250 milliseconds
;Completed path #18/33 on color #1
;Starting stroke path #19/33, segments: 47, length: 1801, color #1
G00 X121.957 Y131.198
M106 ;Pump on
G4 P350 ;Pause for 350 milliseconds
G00 X123.506 Y139.083
G00 X125.542 Y150.217
G00 X129.593 Y160.767
G00 X133.369 Y166.798
G00 X136.08 Y173.251
G00 X136.514 Y176.812
G00 X133.591 Y177.582
G00 X130.171 Y176.808
G00 X121.206 Y173.046
G00 X112.993 Y167.801
G00 X101.329 Y158.187
G00 X91.982 Y146.311
G00 X90.508 Y142.102
G00 X87.887 Y139.394
G00 X82.053 Y125.613
G00 X79.302 Y113.128
G00 X78.674 Y105.9
G00 X74.976 Y101.629
G00 X78.531 Y97.687
G00 X79.383 Y93.043
G00 X79.669 Y88.159
G00 X81.8 Y82.245
G00 X83.17 Y74.689
G00 X89.948 Y60.152
G00 X99.812 Y47.552
G00 X104.407 Y45.263
G00 X106.426 Y41.208
G00 X112.43 Y36.266
G00 X123.121 Y30.091
G00 X134.454 Y25.65
G00 X146.218 Y22.95
G00 X158.2 Y21.999
G00 X170.191 Y22.804
G00 X181.977 Y25.373
G00 X193.349 Y29.714
G00 X204.093 Y35.834
G00 X210.763 Y41.238
G00 X212.82 Y45.42
G00 X216.249 Y46.854
G00 X220.376 Y50.705
G00 X227.848 Y61.142
G00 X233.368 Y72.717
G00 X235.682 Y82.574
G00 X237.781 Y88.487
G00 X238.968 Y97.358
G00 X240.763 Y99.629
G00 X242.136 Y101.958
G00 X240.548 Y104.668
G00 X238.691 Y107.543
G00 X235.071 Y126.27
G00 X229.35 Y139.67
G00 X227.071 Y141.781
G00 X224.877 Y146.968
G00 X216.278 Y157.427
G00 X206.077 Y166.327
G00 X197.893 Y171.782
G00 X188.98 Y175.983
G00 X185.443 Y177.257
G00 X181.76 Y177.691
G00 X180.415 Y176.139
G00 X181.004 Y173.173
G00 X182.43 Y170.041
G00 X183.596 Y167.995
G00 X190.926 Y154.524
G00 X193.473 Y141.383
G00 X194.759 Y136.433
G00 X195.085 Y133.649
G00 X194.41 Y131.865
G00 X191.593 Y131.519
G00 X188.652 Y131.983
G00 X175.51 Y133.169
G00 X148.638 Y133.417
;Nearing path end, moving to preshutoff position
G00 X130.748 Y131.929
M107 ;Pump off
G00 X121.957 Y131.198
G4 P250 ;Pause for 250 milliseconds
;Completed path #19/33 on color #1
;Starting stroke path #20/33, segments: 3, length: 52, color #1
G00 X205.408 Y117.399
M106 ;Pump on
G4 P350 ;Pause for 350 milliseconds
G00 X203.785 Y122.861
;Nearing path end, moving to preshutoff position
G00 X201.096 Y125.582
M107 ;Pump off
G00 X194.894 Y131.855
G4 P250 ;Pause for 250 milliseconds
;Completed path #20/33 on color #1
;Starting stroke path #21/33, segments: 5, length: 136, color #1
G00 X136.413 Y177.851
M106 ;Pump on
G4 P350 ;Pause for 350 milliseconds
G00 X140.5 Y179.851
G00 X144.894 Y180.691
G00 X153.826 Y182.171
G00 X156.242 Y184.078
G00 X158.754 Y185.527
G00 X161.649 Y183.817
G00 X164.668 Y181.855
;Nearing path end, moving to preshutoff position
G00 X172.517 Y180.927
M107 ;Pump off
G00 X173.069 Y180.862
G00 X180.767 Y177.851
G4 P250 ;Pause for 250 milliseconds
;Completed path #21/33 on color #1
;Starting stroke path #22/33, segments: 3, length: 83, color #1
G00 X204.093 Y123.313
M106 ;Pump on
G4 P350 ;Pause for 350 milliseconds
G00 X216.907 Y135.985
;Nearing path end, moving to preshutoff position
G00 X219.026 Y137.145
M107 ;Pump off
G00 X226.763 Y141.383
G4 P250 ;Pause for 250 milliseconds
;Completed path #22/33 on color #1
;Starting fill path #23/33, segments: 8, length: 9, color #1
G00 X104.483 Y44.308
M106 ;Pump on
G4 P350 ;Pause for 350 milliseconds
;Very short path, early shutoff without move
M107 ;Pump off
G00 X104.48 Y44.449
G00 X104.483 Y44.627
G00 X104.493 Y44.805
G00 X104.509 Y44.982
G00 X104.52 Y45.064
G00 X103.547 Y45.21
G00 X104.483 Y44.308
G4 P250 ;Pause for 250 milliseconds
;Completed path #23/33 on color #1
;Starting fill path #24/33, segments: 9, length: 11, color #1
G00 X81.874 Y81.59
M106 ;Pump on
G4 P350 ;Pause for 350 milliseconds
;Very short path, early shutoff without move
M107 ;Pump off
G00 X82.41 Y82.734
G00 X82.28 Y82.777
G00 X82.114 Y82.84
G00 X81.95 Y82.909
G00 X81.789 Y82.985
G00 X81.631 Y83.066
G00 X81.525 Y83.127
G00 X81.874 Y81.59
G4 P250 ;Pause for 250 milliseconds
;Completed path #24/33 on color #1
;Starting fill path #25/33, segments: 4, length: 0, color #1
G00 X158.238 Y22.292
M106 ;Pump on
G4 P350 ;Pause for 350 milliseconds
;Very short path, early shutoff without move
M107 ;Pump off
G00 X158.194 Y22.265
G00 X158.267 Y22.264
G00 X158.238 Y22.292
G4 P250 ;Pause for 250 milliseconds
;Completed path #25/33 on color #1
;Starting fill path #26/33, segments: 161, length: 576, color #1
G00 X101.069 Y107.388
M106 ;Pump on
G4 P350 ;Pause for 350 milliseconds
G00 X103.396 Y107.542
G00 X103.573 Y107.55
G00 X103.703 Y107.552
G00 X103.726 Y107.552
G00 X103.904 Y107.549
G00 X104.082 Y107.538
G00 X104.32 Y107.514
G00 X104.346 Y107.511
G00 X104.523 Y107.484
G00 X104.662 Y107.459
G00 X108.84 Y106.63
G00 X114.415 Y106.08
G00 X114.592 Y106.06
G00 X114.767 Y106.032
G00 X114.931 Y106
G00 X114.977 Y105.991
G00 X115.15 Y105.95
G00 X115.284 Y105.914
G00 X120.675 Y104.377
G00 X120.845 Y104.325
G00 X121.013 Y104.266
G00 X121.179 Y104.201
G00 X121.342 Y104.13
G00 X121.502 Y104.053
G00 X121.659 Y103.97
G00 X121.813 Y103.881
G00 X121.963 Y103.785
G00 X121.967 Y103.783
G00 X121.982 Y103.845
G00 X122.027 Y103.998
G00 X122.03 Y104.008
G00 X122.086 Y104.177
G00 X122.148 Y104.343
G00 X122.217 Y104.507
G00 X122.269 Y104.622
G00 X123.797 Y107.848
G00 X123.882 Y108.019
G00 X123.918 Y108.088
G00 X124.002 Y108.24
G00 X128.884 Y116.762
G00 X128.884 Y116.762
G00 X135.243 Y127.881
G00 X135.334 Y128.034
G00 X135.39 Y128.12
G00 X135.439 Y128.196
G00 X135.526 Y128.324
G00 X138.006 Y131.852
G00 X138.111 Y131.995
G00 X138.222 Y132.135
G00 X138.337 Y132.27
G00 X138.458 Y132.4
G00 X138.584 Y132.526
G00 X138.714 Y132.647
G00 X138.849 Y132.763
G00 X138.859 Y132.771
G00 X138.733 Y132.857
G00 X138.59 Y132.964
G00 X138.452 Y133.075
G00 X138.318 Y133.192
G00 X138.188 Y133.313
G00 X138.012 Y133.495
G00 X135.551 Y136.169
G00 X135.42 Y136.317
G00 X135.404 Y136.337
G00 X135.339 Y136.416
G00 X128.027 Y145.465
G00 X126.291 Y147.358
G00 X126.173 Y147.491
G00 X126.042 Y147.653
G00 X126.029 Y147.669
G00 X125.923 Y147.811
G00 X125.822 Y147.958
G00 X125.727 Y148.108
G00 X125.638 Y148.262
G00 X125.554 Y148.419
G00 X125.45 Y148.639
G00 X125.154 Y149.308
G00 X125.149 Y149.304
G00 X125.116 Y149.277
G00 X124.967 Y149.163
G00 X118.912 Y144.681
G00 X118.763 Y144.575
G00 X118.701 Y144.533
G00 X118.552 Y144.436
G00 X118.455 Y144.377
G00 X111.883 Y140.476
G00 X104.737 Y135.922
G00 X104.585 Y135.829
G00 X104.43 Y135.743
G00 X104.272 Y135.662
G00 X104.111 Y135.587
G00 X103.946 Y135.518
G00 X103.78 Y135.456
G00 X103.611 Y135.4
G00 X103.57 Y135.388
G00 X103.568 Y135.388
G00 X103.558 Y135.385
G00 X103.44 Y135.351
G00 X103.416 Y135.345
G00 X103.397 Y135.339
G00 X103.316 Y135.319
G00 X103.268 Y135.308
G00 X103.256 Y135.305
G00 X103.224 Y135.297
G00 X103.049 Y135.262
G00 X102.918 Y135.24
G00 X101.967 Y135.096
G00 X102.604 Y133.073
G00 X102.654 Y132.902
G00 X102.697 Y132.729
G00 X102.734 Y132.556
G00 X102.764 Y132.381
G00 X102.794 Y132.15
G00 X102.798 Y132.117
G00 X102.813 Y131.94
G00 X102.821 Y131.762
G00 X102.822 Y131.638
G00 X102.822 Y131.599
G00 X102.821 Y131.49
G00 X102.749 Y128.369
G00 X102.741 Y128.192
G00 X102.727 Y128.014
G00 X102.713 Y127.892
G00 X102.015 Y122.368
G00 X102.037 Y115.222
G00 X102.034 Y115.044
G00 X102.03 Y114.954
G00 X102.027 Y114.892
G00 X102.014 Y114.715
G00 X101.995 Y114.547
G00 X101.069 Y107.388
G00 X111.37 Y115.76
G00 X115.33 Y115.371
G00 X115.498 Y115.353
G00 X115.675 Y115.332
G00 X116.034 Y115.283
G00 X116.209 Y115.255
G00 X116.547 Y115.196
G00 X116.711 Y115.165
G00 X116.878 Y115.13
G00 X116.924 Y115.121
G00 X117.111 Y115.079
G00 X117.155 Y115.068
G00 X120.781 Y121.397
G00 X126.87 Y132.044
G00 X123.335 Y136.418
G00 X123.332 Y136.417
G00 X123.22 Y136.349
G00 X116.774 Y132.524
G00 X112.114 Y129.554
G00 X112.081 Y128.152
G00 X112.076 Y127.978
G00 X112.068 Y127.8
G00 X112.045 Y127.428
G00 X112.031 Y127.251
G00 X112.005 Y126.984
G00 X111.991 Y126.862
G00 X111.974 Y126.721
;Nearing path end, moving to preshutoff position
G00 X111.701 Y124.56
M107 ;Pump off
G00 X111.352 Y121.796
G00 X111.37 Y115.76
G4 P250 ;Pause for 250 milliseconds
;Completed path #26/33 on color #1
;Starting fill path #27/33, segments: 150, length: 571, color #1
G00 X170.663 Y52.796
M106 ;Pump on
G4 P350 ;Pause for 350 milliseconds
G00 X166.58 Y50.459
G00 X161.422 Y48.262
G00 X161.236 Y48.181
G00 X161.057 Y48.1
G00 X160.726 Y47.942
G00 X160.566 Y47.862
G00 X160.406 Y47.78
G00 X160.344 Y47.748
G00 X160.148 Y47.643
G00 X159.915 Y47.512
G00 X159.76 Y47.423
G00 X159.535 Y47.289
G00 X159.435 Y47.227
G00 X159.178 Y47.063
G00 X159.03 Y46.964
G00 X158.89 Y46.87
G00 X158.745 Y46.77
G00 X158.67 Y46.806
G00 X152.903 Y49.482
G00 X146.841 Y52.814
G00 X148.475 Y57.327
G00 X148.527 Y57.472
G00 X148.747 Y58.113
G00 X150.462 Y58.064
G00 X150.594 Y58.06
G00 X150.73 Y58.058
G00 X150.869 Y58.057
G00 X166.922 Y58.057
G00 X167.13 Y58.06
G00 X167.328 Y58.064
G00 X167.513 Y58.07
G00 X167.585 Y58.073
G00 X167.72 Y58.08
G00 X167.863 Y58.088
G00 X168.016 Y58.098
G00 X168.334 Y58.121
G00 X168.371 Y58.012
G00 X168.5 Y57.658
G00 X168.564 Y57.492
G00 X168.687 Y57.189
G00 X168.756 Y57.026
G00 X168.835 Y56.848
G00 X170.663 Y52.796
G00 X182.87 Y48.266
G00 X177.099 Y45.694
G00 X176.929 Y45.614
G00 X176.896 Y45.597
G00 X176.803 Y45.55
G00 X176.647 Y45.465
G00 X170.743 Y42.085
G00 X165.08 Y39.673
G00 X164.901 Y39.592
G00 X164.741 Y39.513
G00 X164.679 Y39.48
G00 X164.586 Y39.43
G00 X164.432 Y39.341
G00 X164.416 Y39.331
G00 X164.332 Y39.279
G00 X164.183 Y39.181
G00 X159.144 Y35.711
G00 X159.025 Y35.627
G00 X158.884 Y35.519
G00 X158.867 Y35.505
G00 X158.747 Y35.406
G00 X158.614 Y35.289
G00 X158.539 Y35.217
G00 X158.464 Y35.295
G00 X158.441 Y35.318
G00 X158.358 Y35.399
G00 X158.227 Y35.519
G00 X155.868 Y37.599
G00 X155.868 Y37.598
G00 X155.786 Y37.67
G00 X155.648 Y37.782
G00 X155.506 Y37.889
G00 X155.36 Y37.99
G00 X155.21 Y38.086
G00 X155.056 Y38.176
G00 X154.9 Y38.26
G00 X154.74 Y38.338
G00 X148.687 Y41.147
G00 X141.586 Y45.051
G00 X141.393 Y45.151
G00 X141.232 Y45.226
G00 X135.138 Y47.933
G00 X135.153 Y47.967
G00 X135.217 Y48.133
G00 X139.698 Y60.506
G00 X141.895 Y66.9
G00 X141.941 Y67.039
G00 X141.99 Y67.21
G00 X142.033 Y67.382
G00 X142.039 Y67.412
G00 X142.071 Y67.563
G00 X142.101 Y67.738
G00 X142.125 Y67.914
G00 X142.135 Y68.018
G00 X142.186 Y67.994
G00 X142.35 Y67.924
G00 X142.517 Y67.862
G00 X142.685 Y67.806
G00 X142.856 Y67.756
G00 X143.029 Y67.712
G00 X143.042 Y67.709
G00 X143.249 Y67.667
G00 X143.425 Y67.638
G00 X143.601 Y67.616
G00 X143.778 Y67.601
G00 X143.956 Y67.592
G00 X150.733 Y67.395
G00 X150.869 Y67.393
G00 X166.922 Y67.393
G00 X167.119 Y67.397
G00 X167.191 Y67.4
G00 X167.335 Y67.408
G00 X174.435 Y67.928
G00 X174.667 Y67.951
G00 X174.843 Y67.976
G00 X175.018 Y68.007
G00 X175.046 Y68.014
G00 X175.055 Y68.015
G00 X175.228 Y68.054
G00 X175.4 Y68.1
G00 X175.478 Y68.123
G00 X175.478 Y68.118
G00 X175.481 Y67.966
G00 X175.49 Y67.788
G00 X175.506 Y67.611
G00 X175.528 Y67.435
G00 X175.558 Y67.26
G00 X175.567 Y67.207
G00 X175.601 Y67.046
G00 X175.643 Y66.873
G00 X177.079 Y61.439
G00 X177.107 Y61.335
G00 X177.152 Y61.186
G00 X177.21 Y61.018
G00 X177.274 Y60.852
G00 X177.343 Y60.688
;Nearing path end, moving to preshutoff position
G00 X179.327 Y56.292
M107 ;Pump off
G00 X179.628 Y55.626
G00 X180.772 Y52.04
G00 X180.844 Y51.832
G00 X180.863 Y51.779
G00 X180.914 Y51.65
G00 X180.984 Y51.486
G00 X181.06 Y51.325
G00 X181.142 Y51.168
G00 X181.23 Y51.013
G00 X182.87 Y48.266
G4 P250 ;Pause for 250 milliseconds
;Completed path #27/33 on color #1
;Starting fill path #28/33, segments: 7, length: 3, color #1
G00 X90.159 Y141.3
M106 ;Pump on
G4 P350 ;Pause for 350 milliseconds
;Very short path, early shutoff without move
M107 ;Pump off
G00 X90.149 Y141.438
G00 X90.143 Y141.616
G00 X90.143 Y141.656
G00 X89.916 Y141.233
G00 X89.999 Y141.258
G00 X90.159 Y141.3
G4 P250 ;Pause for 250 milliseconds
;Completed path #28/33 on color #1
;Starting fill path #29/33, segments: 13, length: 15, color #1
G00 X214.592 Y45.378
M106 ;Pump on
G4 P350 ;Pause for 350 milliseconds
;Very short path, early shutoff without move
M107 ;Pump off
G00 X212.96 Y45.258
G00 X212.968 Y45.212
G00 X212.993 Y45.036
G00 X213.012 Y44.859
G00 X213.024 Y44.682
G00 X213.029 Y44.463
G00 X213.029 Y44.46
G00 X213.026 Y44.282
G00 X213.015 Y44.104
G00 X212.999 Y43.927
G00 X212.977 Y43.763
G00 X214.592 Y45.378
G4 P250 ;Pause for 250 milliseconds
;Completed path #29/33 on color #1
;Starting fill path #30/33, segments: 137, length: 566, color #1
G00 X202.848 Y105.613
M106 ;Pump on
G4 P350 ;Pause for 350 milliseconds
G00 X197.486 Y104.572
G00 X197.279 Y104.526
G00 X197.107 Y104.481
G00 X196.937 Y104.43
G00 X196.906 Y104.419
G00 X196.888 Y104.413
G00 X196.72 Y104.355
G00 X196.555 Y104.29
G00 X196.392 Y104.218
G00 X196.232 Y104.14
G00 X196.075 Y104.057
G00 X195.921 Y103.968
G00 X195.771 Y103.872
G00 X195.661 Y103.796
G00 X195.641 Y103.872
G00 X195.59 Y104.042
G00 X195.532 Y104.21
G00 X195.468 Y104.376
G00 X195.398 Y104.54
G00 X195.322 Y104.7
G00 X193.025 Y109.299
G00 X192.955 Y109.434
G00 X192.867 Y109.589
G00 X187.047 Y119.438
G00 X182.058 Y128.243
G00 X182.004 Y128.335
G00 X181.922 Y128.468
G00 X181.824 Y128.616
G00 X181.72 Y128.76
G00 X179.206 Y132.108
G00 X179.14 Y132.194
G00 X179.028 Y132.331
G00 X178.91 Y132.465
G00 X178.787 Y132.593
G00 X178.659 Y132.717
G00 X178.548 Y132.818
G00 X178.565 Y132.826
G00 X178.722 Y132.91
G00 X178.875 Y133
G00 X179.025 Y133.095
G00 X179.171 Y133.197
G00 X179.313 Y133.303
G00 X179.452 Y133.415
G00 X179.585 Y133.532
G00 X179.715 Y133.655
G00 X179.839 Y133.782
G00 X184.991 Y139.245
G00 X185.052 Y139.311
G00 X185.081 Y139.344
G00 X185.169 Y139.443
G00 X185.282 Y139.58
G00 X185.39 Y139.721
G00 X189.808 Y145.752
G00 X191.357 Y147.598
G00 X191.475 Y147.745
G00 X191.581 Y147.888
G00 X191.614 Y147.934
G00 X191.672 Y148.017
G00 X191.77 Y148.166
G00 X191.861 Y148.318
G00 X191.947 Y148.474
G00 X192.026 Y148.633
G00 X192.1 Y148.795
G00 X192.282 Y149.216
G00 X192.403 Y149.096
G00 X192.533 Y148.975
G00 X192.668 Y148.859
G00 X192.807 Y148.749
G00 X192.951 Y148.644
G00 X193.098 Y148.544
G00 X203.858 Y141.572
G00 X211.758 Y136.625
G00 X211.949 Y136.512
G00 X212.031 Y136.466
G00 X212.232 Y136.359
G00 X215.481 Y134.737
G00 X215.667 Y134.648
G00 X215.831 Y134.579
G00 X215.908 Y134.55
G00 X215.727 Y134.154
G00 X215.658 Y133.996
G00 X215.593 Y133.83
G00 X215.535 Y133.662
G00 X215.483 Y133.492
G00 X215.437 Y133.32
G00 X215.399 Y133.147
G00 X215.366 Y132.972
G00 X215.341 Y132.796
G00 X215.322 Y132.619
G00 X215.31 Y132.442
G00 X215.306 Y132.373
G00 X215.301 Y132.215
G00 X215.302 Y132.038
G00 X215.496 Y123.535
G00 X215.591 Y115.977
G00 X215.594 Y115.857
G00 X215.604 Y115.68
G00 X215.618 Y115.529
G00 X215.618 Y115.529
G00 X216.387 Y108.051
G00 X216.416 Y107.821
G00 X216.446 Y107.645
G00 X216.483 Y107.471
G00 X216.495 Y107.425
G00 X203.187 Y105.669
G00 X203.035 Y105.646
G00 X202.975 Y105.636
G00 X202.848 Y105.613
G00 X201.068 Y114.777
G00 X200.688 Y114.703
G00 X195.13 Y124.109
G00 X190.783 Y131.781
G00 X191.783 Y132.841
G00 X191.948 Y133.019
G00 X192.099 Y133.188
G00 X192.187 Y133.287
G00 X192.371 Y133.504
G00 X192.484 Y133.641
G00 X192.696 Y133.908
G00 X192.804 Y134.049
G00 X192.921 Y134.204
G00 X194.576 Y136.463
G00 X198.782 Y133.738
G00 X198.904 Y133.66
G00 X206.029 Y129.198
G00 X206.162 Y123.37
;Nearing path end, moving to preshutoff position
G00 X206.216 Y119.064
M107 ;Pump off
G00 X206.256 Y115.86
G00 X206.261 Y115.621
G00 X206.267 Y115.491
G00 X201.966 Y114.923
G00 X201.812 Y114.902
G00 X201.66 Y114.879
G00 X201.509 Y114.855
G00 X201.449 Y114.846
G00 X201.206 Y114.803
G00 X201.068 Y114.777
G4 P250 ;Pause for 250 milliseconds
;Completed path #30/33 on color #1
;Starting fill path #31/33, segments: 13, length: 13, color #1
G00 X135.869 Y177.751
M106 ;Pump on
G4 P350 ;Pause for 350 milliseconds
;Very short path, early shutoff without move
M107 ;Pump off
G00 X135.988 Y177.69
G00 X136.143 Y177.603
G00 X136.295 Y177.51
G00 X136.443 Y177.411
G00 X136.587 Y177.307
G00 X136.727 Y177.197
G00 X136.863 Y177.083
G00 X136.952 Y177.001
G00 X137.561 Y178.011
G00 X137.656 Y178.161
G00 X137.682 Y178.198
G00 X135.869 Y177.751
G4 P250 ;Pause for 250 milliseconds
;Completed path #31/33 on color #1
;Starting fill path #32/33, segments: 11, length: 12, color #1
G00 X234.989 Y83.028
M106 ;Pump on
G4 P350 ;Pause for 350 milliseconds
;Very short path, early shutoff without move
M107 ;Pump off
G00 X235.531 Y81.71
G00 X235.999 Y83.463
G00 X235.977 Y83.45
G00 X235.821 Y83.365
G00 X235.662 Y83.286
G00 X235.5 Y83.213
G00 X235.335 Y83.146
G00 X235.168 Y83.085
G00 X234.999 Y83.03
G00 X234.989 Y83.028
G4 P250 ;Pause for 250 milliseconds
;Completed path #32/33 on color #1
;Starting fill path #33/33, segments: 10, length: 12, color #1
G00 X179.634 Y178.217
M106 ;Pump on
G4 P350 ;Pause for 350 milliseconds
;Very short path, early shutoff without move
M107 ;Pump off
G00 X180.455 Y177.198
G00 X180.55 Y177.274
G00 X180.692 Y177.38
G00 X180.839 Y177.48
G00 X180.99 Y177.575
G00 X181.144 Y177.664
G00 X181.301 Y177.747
G00 X181.33 Y177.76
G00 X179.634 Y178.217
G4 P250 ;Pause for 250 milliseconds
;Completed path #33/33 on color #1
;PancakePainter Footer Start
G4 P1000 ;Pause for 1000 milliseconds
G00 X1 Y1 ;Help homing
G28 X0 Y0 ;Home All Axis
M84 ;Motors off
;PancakePainter Footer Complete
