;PancakePainter v1.4.0 GCODE header start
;Originally generated @ Sat Nov 30 2019 01:16:22 GMT-0600 (Central Standard Time)
;Settings used to generate this file:
;----------------------------------------
;botSpeed: 4620
;flattenResolution: 2
;lineEndPreShutoff: 25
;startWait: 350
;endWait: 250
;shadeChangeWait: 15
;useLineFill: false
;useShortest: true
;shapeFillWidth: 2.2
;fillSpacing: 10
;fillAngle: 23
;fillGroupThreshold: 27
;useColorSpeed: false
;botColorSpeed: 6600,5280,5280,3300
;----------------------------------------
W1 X42 Y210 L485 T0 ;Define Workspace of this file
G21 ;Set units to MM
G1 F4620 ;Set Speed
M107 ;Pump off
G4 P1000 ;Pause for 1000 milliseconds
M84 ;Motors off
G00 X1 Y1 ;Help homing
G28 X0 Y0 ;Home All Axis
;PancakePainter header complete
;Starting stroke path #1/5, segments: 5, length: 648, color #3
G00 X203.465 Y68.664
M106 ;Pump on
G4 P350 ;Pause for 350 milliseconds
G00 X204.432 Y124.409
G00 X262.755 Y123.442
G00 X261.788 Y67.375
;Nearing path end, moving to preshutoff position
G00 X212.283 Y68.469
M107 ;Pump off
G00 X203.465 Y68.664
G4 P250 ;Pause for 250 milliseconds
;Completed path #1/5 on color #3
;Starting fill path #2/5, segments: 344, length: 2983, color #3
G00 X238.149 Y70.746
M106 ;Pump on
G4 P350 ;Pause for 350 milliseconds
G00 X232.678 Y70.501
G00 X224.149 Y70.501
G00 X219.659 Y71
G00 X219.596 Y71.006
G00 X219.497 Y71.009
G00 X206.231 Y71.009
G00 X206.231 Y98.415
G00 X206.926 Y104.329
G00 X206.935 Y104.448
G00 X206.936 Y104.547
G00 X206.739 Y110.717
G00 X206.739 Y121.828
G00 X207.333 Y122.026
G00 X209.262 Y121.928
G00 X209.336 Y121.925
G00 X210.795 Y121.925
G00 X216.316 Y121.424
G00 X216.449 Y121.417
G00 X241.252 Y121.417
G00 X245.224 Y120.921
G00 X245.306 Y120.913
G00 X245.406 Y120.909
G00 X260.196 Y120.909
G00 X260.196 Y114.328
G00 X259.697 Y109.838
G00 X259.691 Y109.775
G00 X259.688 Y109.676
G00 X259.688 Y80.771
G00 X259.184 Y73.711
G00 X259.18 Y73.606
G00 X259.18 Y69.943
G00 X255.848 Y69.948
G00 X247.955 Y69.993
G00 X243.48 Y69.993
G00 X238.427 Y70.732
G00 X238.348 Y70.741
G00 X238.249 Y70.747
G00 X238.149 Y70.746
G00 X238.018 Y73.676
G00 X232.607 Y73.434
G00 X224.311 Y73.434
G00 X219.983 Y73.915
G00 X219.866 Y73.927
G00 X219.696 Y73.937
G00 X219.596 Y73.941
G00 X219.497 Y73.942
G00 X209.164 Y73.942
G00 X209.164 Y98.242
G00 X209.839 Y103.987
G00 X209.851 Y104.103
G00 X209.86 Y104.221
G00 X209.865 Y104.297
G00 X209.869 Y104.438
G00 X209.869 Y104.537
G00 X209.868 Y104.641
G00 X209.672 Y110.768
G00 X209.672 Y118.992
G00 X210.66 Y118.992
G00 X216.05 Y118.502
G00 X216.182 Y118.493
G00 X216.314 Y118.487
G00 X216.449 Y118.484
G00 X241.067 Y118.484
G00 X244.86 Y118.01
G00 X244.936 Y118.002
G00 X245.018 Y117.994
G00 X245.207 Y117.981
G00 X245.306 Y117.978
G00 X245.406 Y117.976
G00 X257.263 Y117.976
G00 X257.263 Y114.49
G00 X256.782 Y110.161
G00 X256.77 Y110.045
G00 X256.76 Y109.875
G00 X256.756 Y109.775
G00 X256.755 Y109.676
G00 X256.755 Y80.876
G00 X256.258 Y73.92
G00 X256.252 Y73.815
G00 X256.248 Y73.711
G00 X256.247 Y73.606
G00 X256.247 Y72.881
G00 X255.864 Y72.882
G00 X247.971 Y72.926
G00 X243.694 Y72.926
G00 X238.852 Y73.634
G00 X238.777 Y73.645
G00 X238.698 Y73.654
G00 X238.518 Y73.67
G00 X238.419 Y73.676
G00 X238.209 Y73.681
G00 X238.109 Y73.679
G00 X238.018 Y73.676
G00 X237.931 Y76.609
G00 X232.537 Y76.368
G00 X224.473 Y76.368
G00 X220.306 Y76.831
G00 X220.156 Y76.846
G00 X220.047 Y76.855
G00 X219.877 Y76.865
G00 X219.796 Y76.869
G00 X219.696 Y76.872
G00 X219.547 Y76.875
G00 X212.098 Y76.876
G00 X212.098 Y98.07
G00 X212.753 Y103.645
G00 X212.77 Y103.814
G00 X212.785 Y103.995
G00 X212.792 Y104.113
G00 X212.797 Y104.219
G00 X212.801 Y104.36
G00 X212.802 Y104.527
G00 X212.801 Y104.679
G00 X212.606 Y110.819
G00 X212.606 Y115.87
G00 X215.785 Y115.581
G00 X215.985 Y115.566
G00 X216.18 Y115.557
G00 X216.382 Y115.552
G00 X240.882 Y115.551
G00 X244.497 Y115.099
G00 X244.622 Y115.085
G00 X244.73 Y115.075
G00 X244.824 Y115.067
G00 X245.012 Y115.054
G00 X245.107 Y115.05
G00 X245.207 Y115.046
G00 X245.356 Y115.043
G00 X254.329 Y115.043
G00 X254.329 Y114.652
G00 X253.866 Y110.485
G00 X253.851 Y110.334
G00 X253.842 Y110.226
G00 X253.832 Y110.055
G00 X253.828 Y109.974
G00 X253.825 Y109.875
G00 X253.822 Y109.726
G00 X253.821 Y80.98
G00 X253.453 Y75.829
G00 X247.988 Y75.86
G00 X243.908 Y75.86
G00 X239.277 Y76.537
G00 X239.172 Y76.552
G00 X239.048 Y76.567
G00 X238.957 Y76.576
G00 X238.777 Y76.592
G00 X238.688 Y76.599
G00 X238.589 Y76.604
G00 X238.485 Y76.608
G00 X238.276 Y76.613
G00 X238.17 Y76.614
G00 X238.07 Y76.612
G00 X237.931 Y76.609
G00 X237.852 Y79.541
G00 X232.466 Y79.301
G00 X224.635 Y79.301
G00 X220.63 Y79.746
G00 X220.451 Y79.764
G00 X220.284 Y79.778
G00 X220.057 Y79.793
G00 X219.93 Y79.799
G00 X219.796 Y79.804
G00 X219.607 Y79.808
G00 X215.031 Y79.809
G00 X215.031 Y97.897
G00 X215.666 Y103.302
G00 X215.688 Y103.516
G00 X215.708 Y103.755
G00 X215.72 Y103.928
G00 X215.728 Y104.089
G00 X215.733 Y104.283
G00 X215.736 Y104.504
G00 X215.734 Y104.705
G00 X215.539 Y110.869
G00 X215.539 Y112.658
G00 X215.777 Y112.64
G00 X216.037 Y112.627
G00 X216.304 Y112.619
G00 X216.382 Y112.618
G00 X240.697 Y112.618
G00 X244.133 Y112.188
G00 X244.299 Y112.169
G00 X244.446 Y112.155
G00 X244.581 Y112.143
G00 X244.818 Y112.127
G00 X244.961 Y112.12
G00 X245.107 Y112.115
G00 X245.296 Y112.11
G00 X251.096 Y112.11
G00 X250.951 Y110.809
G00 X250.933 Y110.629
G00 X250.918 Y110.463
G00 X250.904 Y110.236
G00 X250.898 Y110.109
G00 X250.893 Y109.974
G00 X250.889 Y109.785
G00 X250.888 Y81.085
G00 X250.723 Y78.778
G00 X248.004 Y78.793
G00 X244.122 Y78.793
G00 X239.701 Y79.439
G00 X239.575 Y79.457
G00 X239.407 Y79.478
G00 X239.261 Y79.494
G00 X239.036 Y79.514
G00 X238.9 Y79.524
G00 X238.759 Y79.533
G00 X238.6 Y79.54
G00 X238.342 Y79.546
G00 X238.188 Y79.547
G00 X238.03 Y79.546
G00 X237.852 Y79.541
G00 X237.774 Y82.473
G00 X232.397 Y82.234
G00 X224.798 Y82.234
G00 X220.954 Y82.661
G00 X220.748 Y82.683
G00 X220.533 Y82.701
G00 X220.245 Y82.721
G00 X220.071 Y82.729
G00 X219.899 Y82.735
G00 X219.675 Y82.741
G00 X217.964 Y82.741
G00 X217.964 Y97.725
G00 X218.579 Y102.96
G00 X218.606 Y103.211
G00 X218.632 Y103.51
G00 X218.647 Y103.734
G00 X218.658 Y103.946
G00 X218.665 Y104.201
G00 X218.669 Y104.472
G00 X218.667 Y104.725
G00 X218.666 Y104.798
G00 X218.511 Y109.685
G00 X240.512 Y109.684
G00 X243.769 Y109.277
G00 X243.972 Y109.254
G00 X244.158 Y109.236
G00 X244.331 Y109.221
G00 X244.622 Y109.201
G00 X244.801 Y109.19
G00 X245.006 Y109.183
G00 X245.228 Y109.178
G00 X247.956 Y109.177
G00 X247.955 Y81.726
G00 X244.335 Y81.726
G00 X240.126 Y82.342
G00 X239.979 Y82.363
G00 X239.771 Y82.389
G00 X239.578 Y82.41
G00 X239.3 Y82.436
G00 X239.12 Y82.45
G00 X238.934 Y82.461
G00 X238.725 Y82.471
G00 X238.412 Y82.478
G00 X238.214 Y82.48
G00 X238.005 Y82.479
G00 X237.774 Y82.473
G00 X237.701 Y85.406
G00 X232.327 Y85.168
G00 X224.96 Y85.168
G00 X221.278 Y85.577
G00 X221.05 Y85.6
G00 X220.898 Y85.614
G00 X220.898 Y97.553
G00 X221.493 Y102.617
G00 X221.523 Y102.901
G00 X221.554 Y103.261
G00 X221.573 Y103.534
G00 X221.587 Y103.797
G00 X221.597 Y104.111
G00 X221.602 Y104.436
G00 X221.601 Y104.741
G00 X221.599 Y104.852
G00 X221.539 Y106.752
G00 X240.327 Y106.751
G00 X243.405 Y106.366
G00 X243.645 Y106.339
G00 X243.865 Y106.317
G00 X244.075 Y106.298
G00 X244.42 Y106.274
G00 X244.635 Y106.262
G00 X244.899 Y106.251
G00 X245.023 Y106.248
G00 X245.021 Y84.66
G00 X244.549 Y84.66
G00 X240.55 Y85.244
G00 X240.387 Y85.267
G00 X240.137 Y85.299
G00 X239.905 Y85.326
G00 X239.566 Y85.357
G00 X239.346 Y85.374
G00 X239.116 Y85.389
G00 X238.858 Y85.401
G00 X238.484 Y85.411
G00 X238.244 Y85.414
G00 X237.986 Y85.412
G00 X237.701 Y85.406
G00 X237.635 Y88.339
G00 X232.258 Y88.101
G00 X225.122 Y88.101
G00 X223.831 Y88.244
G00 X223.831 Y97.38
G00 X224.406 Y102.275
G00 X224.44 Y102.588
G00 X224.477 Y103.007
G00 X224.5 Y103.332
G00 X224.517 Y103.642
G00 X224.523 Y103.818
G00 X240.143 Y103.818
G00 X242.089 Y103.574
G00 X242.088 Y87.984
G00 X240.974 Y88.147
G00 X240.798 Y88.172
G00 X240.509 Y88.209
G00 X240.236 Y88.24
G00 X239.838 Y88.278
G00 X239.575 Y88.299
G00 X239.302 Y88.317
G00 X238.996 Y88.331
G00 X238.562 Y88.343
G00 X238.277 Y88.347
G00 X237.971 Y88.346
G00 X237.635 Y88.339
G00 X237.573 Y91.271
G00 X232.19 Y91.034
G00 X226.764 Y91.034
G00 X226.764 Y97.208
G00 X227.196 Y100.885
G00 X239.156 Y100.884
G00 X239.155 Y91.261
G00 X239.139 Y91.261
G00 X238.642 Y91.276
G00 X238.316 Y91.28
G00 X237.958 Y91.279
G00 X237.573 Y91.271
G00 X236.222 Y94.148
G00 X232.123 Y93.967
G00 X229.698 Y93.967
G00 X229.698 Y97.036
G00 X229.805 Y97.952
;Nearing path end, moving to preshutoff position
G00 X231.206 Y97.952
M107 ;Pump off
G00 X236.222 Y97.951
G00 X236.222 Y94.148
G4 P250 ;Pause for 250 milliseconds
;Completed path #2/5 on color #3
;Switching Color to: Light
G4 P1000 ;Pause for 1000 milliseconds
G00 X1 Y1 ;Help homing
G28 X0 Y0 ;Home All Axis
M84 ;Motors off
M142 ;Bottle change
G4 P15000 ;Pause for 15000 milliseconds
;Starting stroke path #3/5, segments: 5, length: 1055, color #1
G00 X184.454 Y57.064
M106 ;Pump on
G4 P350 ;Pause for 350 milliseconds
G00 X185.743 Y143.098
G00 X285.955 Y141.165
G00 X283.055 Y53.842
;Nearing path end, moving to preshutoff position
G00 X193.269 Y56.776
M107 ;Pump off
G00 X184.454 Y57.064
G4 P250 ;Pause for 250 milliseconds
;Completed path #3/5 on color #1
;Starting fill path #4/5, segments: 12, length: 9, color #1
G00 X271.88 Y66.558
M106 ;Pump on
G4 P350 ;Pause for 350 milliseconds
;Very short path, early shutoff without move
M107 ;Pump off
G00 X271.822 Y66.453
G00 X271.748 Y66.321
G00 X271.677 Y66.2
G00 X271.555 Y65.999
G00 X271.478 Y65.877
G00 X271.355 Y65.689
G00 X271.276 Y65.573
G00 X271.236 Y65.515
G00 X271.179 Y65.436
G00 X271.88 Y65.436
G00 X271.88 Y66.558
G4 P250 ;Pause for 250 milliseconds
;Completed path #4/5 on color #1
;Starting fill path #5/5, segments: 1024, length: 4719, color #1
G00 X264.725 Y124.261
M106 ;Pump on
G4 P350 ;Pause for 350 milliseconds
G00 X264.687 Y124.353
G00 X264.643 Y124.443
G00 X264.593 Y124.529
G00 X264.538 Y124.612
G00 X264.477 Y124.69
G00 X264.41 Y124.765
G00 X264.339 Y124.834
G00 X264.263 Y124.899
G00 X264.183 Y124.959
G00 X264.099 Y125.013
G00 X264.012 Y125.061
G00 X263.922 Y125.103
G00 X263.829 Y125.138
G00 X263.734 Y125.168
G00 X263.637 Y125.191
G00 X261.097 Y125.699
G00 X261.03 Y125.71
G00 X260.931 Y125.722
G00 X254.835 Y126.23
G00 X254.713 Y126.235
G00 X230.375 Y126.235
G00 X222.805 Y126.74
G00 X222.708 Y126.743
G00 X210.046 Y126.743
G00 X206.638 Y126.932
G00 X206.536 Y126.934
G00 X206.436 Y126.929
G00 X206.337 Y126.918
G00 X206.239 Y126.9
G00 X203.085 Y126.2
G00 X202.998 Y126.178
G00 X202.903 Y126.147
G00 X202.811 Y126.11
G00 X202.721 Y126.067
G00 X202.634 Y126.018
G00 X202.551 Y125.963
G00 X202.472 Y125.902
G00 X202.397 Y125.836
G00 X202.327 Y125.765
G00 X202.262 Y125.69
G00 X202.202 Y125.611
G00 X202.148 Y125.527
G00 X202.099 Y125.44
G00 X202.056 Y125.35
G00 X202.02 Y125.257
G00 X201.99 Y125.162
G00 X201.966 Y125.065
G00 X201.95 Y124.967
G00 X201.939 Y124.868
G00 X201.936 Y124.768
G00 X201.936 Y121.449
G00 X201.503 Y120.152
G00 X201.482 Y120.082
G00 X201.458 Y119.985
G00 X201.441 Y119.887
G00 X201.431 Y119.788
G00 X201.428 Y119.688
G00 X201.428 Y91.329
G00 X200.931 Y87.357
G00 X200.923 Y87.274
G00 X200.92 Y87.175
G00 X200.92 Y70.41
G00 X200.922 Y70.337
G00 X200.93 Y70.238
G00 X200.945 Y70.139
G00 X200.967 Y70.042
G00 X200.995 Y69.947
G00 X202.011 Y66.898
G00 X202.061 Y66.77
G00 X202.104 Y66.68
G00 X202.153 Y66.594
G00 X202.209 Y66.511
G00 X202.269 Y66.431
G00 X202.335 Y66.357
G00 X202.406 Y66.286
G00 X202.481 Y66.221
G00 X202.56 Y66.161
G00 X202.644 Y66.107
G00 X202.731 Y66.058
G00 X202.821 Y66.016
G00 X202.914 Y65.979
G00 X203.009 Y65.949
G00 X203.106 Y65.926
G00 X203.204 Y65.909
G00 X203.303 Y65.899
G00 X203.403 Y65.895
G00 X212.529 Y65.895
G00 X234.867 Y65.388
G00 X245.965 Y65.387
G00 X250.517 Y64.69
G00 X250.601 Y64.68
G00 X250.7 Y64.674
G00 X250.8 Y64.674
G00 X255.79 Y64.881
G00 X255.936 Y64.894
G00 X256.034 Y64.911
G00 X256.131 Y64.935
G00 X256.226 Y64.966
G00 X256.318 Y65.003
G00 X260.742 Y66.943
G00 X260.798 Y66.969
G00 X260.886 Y67.016
G00 X260.97 Y67.068
G00 X261.051 Y67.127
G00 X261.128 Y67.19
G00 X261.2 Y67.259
G00 X261.267 Y67.333
G00 X263.956 Y70.473
G00 X264.042 Y70.584
G00 X264.096 Y70.668
G00 X264.145 Y70.755
G00 X264.188 Y70.845
G00 X264.224 Y70.938
G00 X264.254 Y71.032
G00 X264.278 Y71.129
G00 X264.295 Y71.227
G00 X264.305 Y71.327
G00 X264.308 Y71.426
G00 X264.308 Y80.571
G00 X264.307 Y80.625
G00 X264.147 Y84.951
G00 X264.797 Y88.973
G00 X264.812 Y89.107
G00 X264.816 Y89.207
G00 X264.816 Y118.005
G00 X265.403 Y120.677
G00 X265.426 Y120.818
G00 X265.435 Y120.918
G00 X265.437 Y121.017
G00 X265.432 Y121.117
G00 X265.42 Y121.216
G00 X265.401 Y121.314
G00 X264.78 Y124.074
G00 X264.756 Y124.166
G00 X264.725 Y124.261
G00 X267.442 Y125.365
G00 X267.405 Y125.458
G00 X267.319 Y125.649
G00 X267.275 Y125.738
G00 X267.185 Y125.908
G00 X267.135 Y125.994
G00 X267.028 Y126.165
G00 X266.973 Y126.248
G00 X266.855 Y126.41
G00 X266.794 Y126.488
G00 X266.667 Y126.642
G00 X266.601 Y126.716
G00 X266.465 Y126.859
G00 X266.393 Y126.928
G00 X266.243 Y127.067
G00 X266.167 Y127.131
G00 X266.017 Y127.251
G00 X265.937 Y127.31
G00 X265.767 Y127.428
G00 X265.683 Y127.482
G00 X265.514 Y127.582
G00 X265.426 Y127.631
G00 X265.252 Y127.719
G00 X265.162 Y127.761
G00 X264.969 Y127.843
G00 X264.875 Y127.879
G00 X264.697 Y127.94
G00 X264.601 Y127.97
G00 X264.41 Y128.022
G00 X264.313 Y128.045
G00 X264.212 Y128.067
G00 X261.672 Y128.575
G00 X261.596 Y128.589
G00 X261.529 Y128.601
G00 X261.379 Y128.623
G00 X261.28 Y128.635
G00 X261.175 Y128.645
G00 X255.078 Y129.153
G00 X254.957 Y129.161
G00 X254.835 Y129.166
G00 X254.713 Y129.168
G00 X230.473 Y129.168
G00 X223 Y129.667
G00 X222.907 Y129.671
G00 X222.81 Y129.675
G00 X222.708 Y129.677
G00 X210.129 Y129.677
G00 X206.8 Y129.861
G00 X206.696 Y129.865
G00 X206.594 Y129.867
G00 X206.396 Y129.864
G00 X206.296 Y129.86
G00 X206.097 Y129.843
G00 X205.998 Y129.832
G00 X205.8 Y129.802
G00 X205.702 Y129.784
G00 X205.604 Y129.764
G00 X202.45 Y129.064
G00 X202.366 Y129.044
G00 X202.279 Y129.022
G00 X202.091 Y128.968
G00 X201.997 Y128.937
G00 X201.807 Y128.868
G00 X201.714 Y128.831
G00 X201.535 Y128.752
G00 X201.445 Y128.708
G00 X201.275 Y128.619
G00 X201.189 Y128.57
G00 X201.009 Y128.46
G00 X200.926 Y128.405
G00 X200.769 Y128.292
G00 X200.69 Y128.232
G00 X200.537 Y128.106
G00 X200.462 Y128.041
G00 X200.313 Y127.9
G00 X200.243 Y127.83
G00 X200.113 Y127.69
G00 X200.048 Y127.615
G00 X199.918 Y127.455
G00 X199.859 Y127.376
G00 X199.74 Y127.206
G00 X199.686 Y127.122
G00 X199.589 Y126.961
G00 X199.54 Y126.874
G00 X199.448 Y126.696
G00 X199.405 Y126.606
G00 X199.324 Y126.417
G00 X199.287 Y126.324
G00 X199.224 Y126.146
G00 X199.194 Y126.051
G00 X199.138 Y125.85
G00 X199.115 Y125.753
G00 X199.076 Y125.564
G00 X199.059 Y125.466
G00 X199.031 Y125.266
G00 X199.021 Y125.167
G00 X199.008 Y124.968
G00 X199.004 Y124.868
G00 X199.003 Y124.768
G00 X199.003 Y121.926
G00 X198.721 Y121.079
G00 X198.681 Y120.952
G00 X198.63 Y120.77
G00 X198.607 Y120.673
G00 X198.568 Y120.484
G00 X198.551 Y120.386
G00 X198.523 Y120.186
G00 X198.513 Y120.086
G00 X198.5 Y119.887
G00 X198.496 Y119.788
G00 X198.495 Y119.688
G00 X198.495 Y91.514
G00 X198.02 Y87.72
G00 X198.012 Y87.645
G00 X198.004 Y87.563
G00 X197.992 Y87.374
G00 X197.988 Y87.274
G00 X197.987 Y87.175
G00 X197.987 Y70.41
G00 X197.988 Y70.329
G00 X197.99 Y70.255
G00 X197.998 Y70.098
G00 X198.006 Y69.998
G00 X198.031 Y69.789
G00 X198.046 Y69.691
G00 X198.082 Y69.501
G00 X198.104 Y69.404
G00 X198.156 Y69.205
G00 X198.184 Y69.109
G00 X198.213 Y69.019
G00 X199.229 Y65.971
G00 X199.274 Y65.844
G00 X199.324 Y65.715
G00 X199.361 Y65.623
G00 X199.42 Y65.494
G00 X199.463 Y65.405
G00 X199.552 Y65.235
G00 X199.601 Y65.148
G00 X199.711 Y64.969
G00 X199.766 Y64.886
G00 X199.879 Y64.729
G00 X199.939 Y64.649
G00 X200.065 Y64.496
G00 X200.13 Y64.421
G00 X200.271 Y64.272
G00 X200.341 Y64.202
G00 X200.481 Y64.072
G00 X200.556 Y64.007
G00 X200.716 Y63.878
G00 X200.796 Y63.818
G00 X200.966 Y63.699
G00 X201.049 Y63.645
G00 X201.21 Y63.548
G00 X201.297 Y63.499
G00 X201.475 Y63.407
G00 X201.565 Y63.364
G00 X201.754 Y63.283
G00 X201.847 Y63.247
G00 X202.025 Y63.184
G00 X202.12 Y63.154
G00 X202.321 Y63.097
G00 X202.418 Y63.074
G00 X202.607 Y63.035
G00 X202.705 Y63.018
G00 X202.905 Y62.991
G00 X203.005 Y62.981
G00 X203.204 Y62.967
G00 X203.303 Y62.964
G00 X203.403 Y62.962
G00 X212.492 Y62.962
G00 X234.8 Y62.455
G00 X245.739 Y62.454
G00 X250.073 Y61.79
G00 X250.163 Y61.778
G00 X250.247 Y61.768
G00 X250.422 Y61.752
G00 X250.521 Y61.746
G00 X250.72 Y61.74
G00 X250.82 Y61.741
G00 X250.921 Y61.743
G00 X255.911 Y61.95
G00 X256.06 Y61.959
G00 X256.207 Y61.973
G00 X256.306 Y61.984
G00 X256.446 Y62.005
G00 X256.544 Y62.022
G00 X256.741 Y62.064
G00 X256.838 Y62.089
G00 X257.028 Y62.143
G00 X257.123 Y62.173
G00 X257.313 Y62.242
G00 X257.406 Y62.279
G00 X257.496 Y62.316
G00 X261.92 Y64.257
G00 X262.031 Y64.307
G00 X262.173 Y64.378
G00 X262.261 Y64.424
G00 X262.439 Y64.527
G00 X262.523 Y64.58
G00 X262.689 Y64.691
G00 X262.769 Y64.749
G00 X262.922 Y64.867
G00 X262.999 Y64.931
G00 X263.152 Y65.067
G00 X263.224 Y65.136
G00 X263.362 Y65.277
G00 X263.43 Y65.35
G00 X263.496 Y65.425
G00 X266.184 Y68.565
G00 X266.271 Y68.671
G00 X266.357 Y68.783
G00 X266.425 Y68.873
G00 X266.504 Y68.989
G00 X266.558 Y69.073
G00 X266.656 Y69.234
G00 X266.704 Y69.321
G00 X266.796 Y69.499
G00 X266.839 Y69.589
G00 X266.92 Y69.778
G00 X266.957 Y69.87
G00 X267.02 Y70.049
G00 X267.05 Y70.144
G00 X267.106 Y70.345
G00 X267.129 Y70.441
G00 X267.168 Y70.631
G00 X267.185 Y70.729
G00 X267.213 Y70.929
G00 X267.223 Y71.028
G00 X267.236 Y71.227
G00 X267.24 Y71.327
G00 X267.241 Y71.426
G00 X267.241 Y80.571
G00 X267.24 Y80.68
G00 X267.089 Y84.77
G00 X267.693 Y88.505
G00 X267.711 Y88.635
G00 X267.726 Y88.77
G00 X267.736 Y88.867
G00 X267.744 Y89.008
G00 X267.747 Y89.107
G00 X267.749 Y89.207
G00 X267.749 Y117.686
G00 X268.268 Y120.048
G00 X268.296 Y120.191
G00 X268.319 Y120.333
G00 X268.334 Y120.429
G00 X268.349 Y120.569
G00 X268.358 Y120.668
G00 X268.368 Y120.868
G00 X268.37 Y120.968
G00 X268.366 Y121.168
G00 X268.361 Y121.267
G00 X268.344 Y121.465
G00 X268.332 Y121.564
G00 X268.302 Y121.764
G00 X268.283 Y121.862
G00 X268.263 Y121.958
G00 X267.642 Y124.718
G00 X267.62 Y124.808
G00 X267.596 Y124.9
G00 X267.539 Y125.094
G00 X267.508 Y125.188
G00 X267.442 Y125.365
G00 X282.711 Y131.373
G00 X282.711 Y121.284
G00 X282.211 Y116.278
G00 X282.203 Y116.132
G00 X282.203 Y101.502
G00 X281.71 Y98.051
G00 X281.699 Y97.943
G00 X281.695 Y97.843
G00 X281.695 Y90.303
G00 X281.196 Y85.813
G00 X281.191 Y85.75
G00 X281.187 Y85.651
G00 X281.187 Y75.062
G00 X280.688 Y70.572
G00 X280.683 Y70.51
G00 X280.679 Y70.41
G00 X280.679 Y59.748
G00 X279.196 Y57.894
G00 X276.715 Y56.636
G00 X266.542 Y56.636
G00 X264.145 Y57.116
G00 X264.056 Y57.131
G00 X263.957 Y57.141
G00 X263.857 Y57.144
G00 X251.228 Y57.144
G00 X246.223 Y57.645
G00 X246.132 Y57.651
G00 X246.032 Y57.652
G00 X240.207 Y57.475
G00 X234.566 Y58.15
G00 X234.492 Y58.157
G00 X234.392 Y58.161
G00 X230.328 Y58.161
G00 X224.719 Y58
G00 X219.329 Y58.658
G00 X219.251 Y58.665
G00 X219.151 Y58.669
G00 X208.563 Y58.669
G00 X204.073 Y59.167
G00 X204.01 Y59.173
G00 X203.911 Y59.177
G00 X199.339 Y59.177
G00 X193.469 Y58.999
G00 X187.828 Y59.674
G00 X187.754 Y59.681
G00 X187.654 Y59.685
G00 X187.089 Y59.685
G00 X187.089 Y70.41
G00 X187.597 Y106.967
G00 X187.597 Y123.133
G00 X188.294 Y127.685
G00 X188.304 Y127.768
G00 X188.31 Y127.868
G00 X188.309 Y127.968
G00 X188.105 Y132.924
G00 X188.105 Y140.574
G00 X189.126 Y140.574
G00 X196.186 Y140.07
G00 X196.29 Y140.066
G00 X222.054 Y140.066
G00 X224.452 Y139.587
G00 X224.541 Y139.572
G00 X224.64 Y139.562
G00 X224.74 Y139.558
G00 X248.561 Y139.558
G00 X255.109 Y139.055
G00 X255.221 Y139.05
G00 X269.416 Y139.05
G00 X280.555 Y138.544
G00 X280.622 Y138.542
G00 X283.219 Y138.542
G00 X283.219 Y135.527
G00 X282.723 Y131.554
G00 X282.715 Y131.472
G00 X282.711 Y131.373
G00 X279.778 Y131.373
G00 X279.778 Y121.43
G00 X279.292 Y116.57
G00 X279.281 Y116.428
G00 X279.274 Y116.282
G00 X279.27 Y116.132
G00 X279.27 Y101.711
G00 X278.806 Y98.465
G00 X278.794 Y98.362
G00 X278.782 Y98.255
G00 X278.775 Y98.183
G00 X278.767 Y98.042
G00 X278.764 Y97.943
G00 X278.762 Y97.843
G00 X278.762 Y90.465
G00 X278.281 Y86.136
G00 X278.27 Y86.02
G00 X278.259 Y85.85
G00 X278.256 Y85.75
G00 X278.254 Y85.651
G00 X278.254 Y75.224
G00 X277.773 Y70.896
G00 X277.762 Y70.78
G00 X277.751 Y70.609
G00 X277.748 Y70.51
G00 X277.746 Y70.41
G00 X277.746 Y60.777
G00 X277.303 Y60.223
G00 X276.014 Y59.57
G00 X266.833 Y59.57
G00 X264.72 Y59.992
G00 X264.631 Y60.009
G00 X264.542 Y60.024
G00 X264.355 Y60.049
G00 X264.256 Y60.059
G00 X264.056 Y60.073
G00 X263.957 Y60.076
G00 X263.857 Y60.078
G00 X251.375 Y60.078
G00 X246.515 Y60.564
G00 X246.43 Y60.571
G00 X246.339 Y60.578
G00 X246.142 Y60.585
G00 X246.042 Y60.585
G00 X245.943 Y60.584
G00 X240.338 Y60.414
G00 X234.915 Y61.063
G00 X234.77 Y61.077
G00 X234.591 Y61.089
G00 X234.492 Y61.092
G00 X234.392 Y61.094
G00 X230.328 Y61.094
G00 X230.244 Y61.093
G00 X224.856 Y60.939
G00 X219.684 Y61.57
G00 X219.608 Y61.578
G00 X219.53 Y61.585
G00 X219.351 Y61.597
G00 X219.251 Y61.6
G00 X219.151 Y61.602
G00 X208.725 Y61.602
G00 X204.396 Y62.083
G00 X204.28 Y62.094
G00 X204.11 Y62.105
G00 X204.01 Y62.108
G00 X203.911 Y62.11
G00 X199.339 Y62.11
G00 X199.25 Y62.108
G00 X193.6 Y61.938
G00 X190.022 Y62.366
G00 X190.022 Y70.37
G00 X190.53 Y106.927
G00 X190.53 Y122.908
G00 X191.194 Y127.241
G00 X191.206 Y127.33
G00 X191.216 Y127.413
G00 X191.232 Y127.589
G00 X191.238 Y127.688
G00 X191.243 Y127.888
G00 X191.243 Y127.988
G00 X191.24 Y128.088
G00 X191.038 Y132.988
G00 X191.038 Y137.497
G00 X195.977 Y137.144
G00 X196.082 Y137.138
G00 X196.186 Y137.135
G00 X196.29 Y137.133
G00 X221.763 Y137.133
G00 X223.877 Y136.71
G00 X223.966 Y136.694
G00 X224.055 Y136.679
G00 X224.242 Y136.654
G00 X224.341 Y136.643
G00 X224.541 Y136.63
G00 X224.64 Y136.627
G00 X224.74 Y136.625
G00 X248.447 Y136.625
G00 X254.884 Y136.13
G00 X254.994 Y136.123
G00 X255.106 Y136.119
G00 X255.221 Y136.117
G00 X269.35 Y136.117
G00 X280.275 Y135.62
G00 X279.812 Y131.918
G00 X279.804 Y131.843
G00 X279.796 Y131.76
G00 X279.783 Y131.572
G00 X279.78 Y131.472
G00 X279.778 Y131.373
G00 X276.845 Y131.422
G00 X276.845 Y121.576
G00 X276.373 Y116.862
G00 X276.356 Y116.651
G00 X276.352 Y116.577
G00 X276.344 Y116.431
G00 X276.341 Y116.355
G00 X276.337 Y116.205
G00 X276.337 Y116.132
G00 X276.337 Y101.92
G00 X275.903 Y98.88
G00 X275.883 Y98.726
G00 X275.865 Y98.567
G00 X275.855 Y98.46
G00 X275.847 Y98.352
G00 X275.839 Y98.211
G00 X275.832 Y98.042
G00 X275.829 Y97.893
G00 X275.829 Y90.627
G00 X275.366 Y86.46
G00 X275.35 Y86.31
G00 X275.342 Y86.201
G00 X275.331 Y86.03
G00 X275.327 Y85.95
G00 X275.324 Y85.85
G00 X275.321 Y85.701
G00 X275.321 Y75.386
G00 X274.858 Y71.22
G00 X274.842 Y71.069
G00 X274.834 Y70.96
G00 X274.823 Y70.79
G00 X274.819 Y70.709
G00 X274.816 Y70.609
G00 X274.813 Y70.46
G00 X274.813 Y62.503
G00 X267.124 Y62.503
G00 X265.296 Y62.869
G00 X265.166 Y62.893
G00 X265.128 Y62.9
G00 X265.176 Y62.943
G00 X265.248 Y63.012
G00 X265.318 Y63.082
G00 X265.457 Y63.222
G00 X265.524 Y63.294
G00 X265.592 Y63.367
G00 X265.691 Y63.478
G00 X268.413 Y66.657
G00 X268.458 Y66.711
G00 X268.544 Y66.818
G00 X268.673 Y66.981
G00 X268.774 Y67.115
G00 X268.851 Y67.223
G00 X268.93 Y67.339
G00 X269.02 Y67.478
G00 X269.069 Y67.556
G00 X269.166 Y67.717
G00 X269.215 Y67.8
G00 X269.263 Y67.887
G00 X269.31 Y67.973
G00 X269.402 Y68.152
G00 X269.448 Y68.243
G00 X269.49 Y68.333
G00 X269.533 Y68.428
G00 X269.614 Y68.617
G00 X269.653 Y68.71
G00 X269.689 Y68.803
G00 X269.723 Y68.894
G00 X269.786 Y69.072
G00 X269.815 Y69.16
G00 X269.845 Y69.255
G00 X269.875 Y69.353
G00 X269.931 Y69.554
G00 X269.958 Y69.657
G00 X269.981 Y69.754
G00 X270.003 Y69.85
G00 X270.042 Y70.04
G00 X270.059 Y70.132
G00 X270.076 Y70.23
G00 X270.091 Y70.33
G00 X270.119 Y70.53
G00 X270.131 Y70.63
G00 X270.141 Y70.729
G00 X270.149 Y70.829
G00 X270.163 Y71.028
G00 X270.168 Y71.128
G00 X270.171 Y71.227
G00 X270.174 Y71.376
G00 X270.175 Y80.571
G00 X270.173 Y80.716
G00 X270.171 Y80.788
G00 X270.031 Y84.588
G00 X270.588 Y88.037
G00 X270.616 Y88.228
G00 X270.64 Y88.432
G00 X270.655 Y88.582
G00 X270.664 Y88.698
G00 X270.673 Y88.839
G00 X270.679 Y89.008
G00 X270.682 Y89.157
G00 X270.682 Y117.367
G00 X271.133 Y119.419
G00 X271.148 Y119.491
G00 X271.176 Y119.634
G00 X271.189 Y119.706
G00 X271.212 Y119.847
G00 X271.234 Y119.99
G00 X271.25 Y120.112
G00 X271.266 Y120.252
G00 X271.281 Y120.419
G00 X271.287 Y120.519
G00 X271.297 Y120.718
G00 X271.301 Y120.818
G00 X271.303 Y120.918
G00 X271.303 Y121.017
G00 X271.299 Y121.217
G00 X271.296 Y121.318
G00 X271.291 Y121.417
G00 X271.284 Y121.517
G00 X271.267 Y121.715
G00 X271.257 Y121.812
G00 X271.245 Y121.912
G00 X271.232 Y122.009
G00 X271.201 Y122.21
G00 X271.183 Y122.313
G00 X271.165 Y122.41
G00 X271.134 Y122.558
G00 X270.504 Y125.362
G00 X270.471 Y125.497
G00 X270.437 Y125.633
G00 X270.41 Y125.73
G00 X270.353 Y125.924
G00 X270.322 Y126.021
G00 X270.291 Y126.116
G00 X270.26 Y126.204
G00 X270.194 Y126.381
G00 X270.16 Y126.47
G00 X270.122 Y126.563
G00 X270.079 Y126.663
G00 X269.993 Y126.854
G00 X269.95 Y126.945
G00 X269.906 Y127.034
G00 X269.865 Y127.116
G00 X269.774 Y127.285
G00 X269.726 Y127.373
G00 X269.676 Y127.459
G00 X269.625 Y127.544
G00 X269.518 Y127.716
G00 X269.463 Y127.802
G00 X269.407 Y127.885
G00 X269.347 Y127.971
G00 X269.23 Y128.132
G00 X269.173 Y128.208
G00 X269.112 Y128.286
G00 X269.052 Y128.362
G00 X268.924 Y128.515
G00 X268.857 Y128.593
G00 X268.791 Y128.668
G00 X268.722 Y128.742
G00 X268.586 Y128.885
G00 X268.519 Y128.953
G00 X268.447 Y129.023
G00 X268.376 Y129.091
G00 X268.225 Y129.229
G00 X268.146 Y129.299
G00 X268.07 Y129.364
G00 X267.994 Y129.426
G00 X267.845 Y129.545
G00 X267.771 Y129.602
G00 X267.691 Y129.662
G00 X267.61 Y129.72
G00 X267.439 Y129.838
G00 X267.35 Y129.898
G00 X267.266 Y129.952
G00 X267.179 Y130.005
G00 X267.01 Y130.105
G00 X266.928 Y130.152
G00 X266.841 Y130.2
G00 X266.754 Y130.246
G00 X266.58 Y130.335
G00 X266.491 Y130.378
G00 X266.401 Y130.42
G00 X266.308 Y130.462
G00 X266.115 Y130.544
G00 X266.015 Y130.584
G00 X265.922 Y130.619
G00 X265.832 Y130.652
G00 X265.653 Y130.714
G00 X265.564 Y130.743
G00 X265.469 Y130.772
G00 X265.373 Y130.8
G00 X265.182 Y130.852
G00 X265.086 Y130.876
G00 X264.989 Y130.899
G00 X264.837 Y130.933
G00 X262.248 Y131.452
G00 X262.132 Y131.474
G00 X262.028 Y131.491
G00 X261.956 Y131.503
G00 X261.806 Y131.525
G00 X261.728 Y131.536
G00 X261.629 Y131.547
G00 X261.465 Y131.564
G00 X255.322 Y132.076
G00 X255.145 Y132.089
G00 X254.957 Y132.097
G00 X254.77 Y132.101
G00 X230.572 Y132.102
G00 X223.195 Y132.594
G00 X223.056 Y132.601
G00 X222.911 Y132.606
G00 X222.756 Y132.609
G00 X210.212 Y132.61
G00 X206.963 Y132.79
G00 X206.81 Y132.796
G00 X206.652 Y132.8
G00 X206.554 Y132.8
G00 X206.356 Y132.798
G00 X206.257 Y132.795
G00 X206.157 Y132.79
G00 X206.054 Y132.783
G00 X205.854 Y132.767
G00 X205.757 Y132.757
G00 X205.658 Y132.745
G00 X205.561 Y132.732
G00 X205.363 Y132.703
G00 X205.263 Y132.686
G00 X205.165 Y132.667
G00 X205.017 Y132.638
G00 X201.815 Y131.928
G00 X201.689 Y131.899
G00 X201.559 Y131.866
G00 X201.464 Y131.84
G00 X201.276 Y131.786
G00 X201.185 Y131.758
G00 X201.09 Y131.727
G00 X200.997 Y131.695
G00 X200.807 Y131.626
G00 X200.711 Y131.589
G00 X200.618 Y131.552
G00 X200.525 Y131.513
G00 X200.346 Y131.433
G00 X200.259 Y131.393
G00 X200.169 Y131.35
G00 X200.084 Y131.307
G00 X199.914 Y131.218
G00 X199.829 Y131.171
G00 X199.743 Y131.122
G00 X199.653 Y131.07
G00 X199.474 Y130.959
G00 X199.384 Y130.902
G00 X199.301 Y130.847
G00 X199.219 Y130.79
G00 X199.062 Y130.678
G00 X198.987 Y130.622
G00 X198.908 Y130.561
G00 X198.832 Y130.502
G00 X198.679 Y130.376
G00 X198.602 Y130.311
G00 X198.527 Y130.245
G00 X198.452 Y130.177
G00 X198.303 Y130.037
G00 X198.229 Y129.965
G00 X198.159 Y129.894
G00 X198.094 Y129.827
G00 X197.965 Y129.687
G00 X197.899 Y129.615
G00 X197.834 Y129.54
G00 X197.767 Y129.46
G00 X197.638 Y129.301
G00 X197.575 Y129.22
G00 X197.515 Y129.14
G00 X197.452 Y129.053
G00 X197.334 Y128.883
G00 X197.278 Y128.8
G00 X197.224 Y128.717
G00 X197.175 Y128.639
G00 X197.078 Y128.478
G00 X197.029 Y128.395
G00 X196.981 Y128.308
G00 X196.934 Y128.221
G00 X196.842 Y128.043
G00 X196.796 Y127.952
G00 X196.754 Y127.862
G00 X196.711 Y127.766
G00 X196.63 Y127.578
G00 X196.591 Y127.484
G00 X196.555 Y127.391
G00 X196.521 Y127.301
G00 X196.458 Y127.122
G00 X196.429 Y127.034
G00 X196.399 Y126.94
G00 X196.369 Y126.842
G00 X196.313 Y126.641
G00 X196.286 Y126.538
G00 X196.263 Y126.441
G00 X196.241 Y126.344
G00 X196.202 Y126.155
G00 X196.185 Y126.062
G00 X196.168 Y125.964
G00 X196.153 Y125.865
G00 X196.125 Y125.665
G00 X196.113 Y125.565
G00 X196.103 Y125.465
G00 X196.095 Y125.366
G00 X196.081 Y125.167
G00 X196.076 Y125.067
G00 X196.073 Y124.968
G00 X196.07 Y124.818
G00 X196.069 Y122.402
G00 X195.938 Y122.007
G00 X195.882 Y121.833
G00 X195.853 Y121.734
G00 X195.803 Y121.552
G00 X195.778 Y121.458
G00 X195.755 Y121.361
G00 X195.733 Y121.264
G00 X195.694 Y121.075
G00 X195.677 Y120.982
G00 X195.66 Y120.884
G00 X195.645 Y120.784
G00 X195.617 Y120.585
G00 X195.605 Y120.484
G00 X195.595 Y120.385
G00 X195.587 Y120.286
G00 X195.573 Y120.086
G00 X195.568 Y119.987
G00 X195.565 Y119.887
G00 X195.562 Y119.738
G00 X195.561 Y91.699
G00 X195.11 Y88.084
G00 X195.096 Y87.959
G00 X195.085 Y87.851
G00 X195.077 Y87.757
G00 X195.065 Y87.568
G00 X195.06 Y87.474
G00 X195.057 Y87.374
G00 X195.054 Y87.225
G00 X195.053 Y70.41
G00 X195.054 Y70.292
G00 X195.057 Y70.174
G00 X195.06 Y70.098
G00 X195.069 Y69.94
G00 X195.074 Y69.858
G00 X195.082 Y69.759
G00 X195.093 Y69.654
G00 X195.118 Y69.445
G00 X195.132 Y69.341
G00 X195.147 Y69.242
G00 X195.164 Y69.146
G00 X195.2 Y68.956
G00 X195.219 Y68.862
G00 X195.241 Y68.765
G00 X195.265 Y68.665
G00 X195.317 Y68.466
G00 X195.344 Y68.367
G00 X195.373 Y68.271
G00 X195.415 Y68.136
G00 X196.446 Y65.043
G00 X196.475 Y64.959
G00 X193.732 Y64.877
G00 X192.956 Y64.97
G00 X192.956 Y70.329
G00 X193.463 Y106.886
G00 X193.464 Y122.683
G00 X194.093 Y126.797
G00 X194.112 Y126.93
G00 X194.128 Y127.058
G00 X194.138 Y127.148
G00 X194.153 Y127.323
G00 X194.16 Y127.409
G00 X194.166 Y127.508
G00 X194.17 Y127.608
G00 X194.176 Y127.808
G00 X194.177 Y127.908
G00 X194.176 Y128.007
G00 X194.173 Y128.157
G00 X193.972 Y133.051
G00 X193.972 Y134.347
G00 X195.768 Y134.218
G00 X195.92 Y134.209
G00 X196.082 Y134.203
G00 X196.243 Y134.2
G00 X221.472 Y134.2
G00 X223.301 Y133.834
G00 X223.431 Y133.809
G00 X223.569 Y133.786
G00 X223.666 Y133.771
G00 X223.853 Y133.746
G00 X223.943 Y133.736
G00 X224.043 Y133.725
G00 X224.142 Y133.717
G00 X224.341 Y133.703
G00 X224.441 Y133.698
G00 X224.541 Y133.695
G00 X224.69 Y133.692
G00 X248.332 Y133.692
G00 X254.659 Y133.205
G00 X254.823 Y133.195
G00 X254.991 Y133.188
G00 X255.169 Y133.184
G00 X269.284 Y133.184
G00 X276.97 Y132.834
G00 X276.901 Y132.282
G00 X276.887 Y132.157
G00 X276.877 Y132.049
G00 X276.869 Y131.955
G00 X276.856 Y131.766
G00 X276.852 Y131.671
G00 X276.848 Y131.572
G00 X276.845 Y131.422
G00 X273.912 Y130.037
G00 X273.911 Y123.576
;Nearing path end, moving to preshutoff position
G00 X273.725 Y124.403
M107 ;Pump off
G00 X273.365 Y126.006
G00 X273.324 Y126.179
G00 X273.279 Y126.358
G00 X273.239 Y126.506
G00 X273.167 Y126.753
G00 X273.12 Y126.902
G00 X273.074 Y127.044
G00 X273.028 Y127.173
G00 X272.947 Y127.397
G00 X272.895 Y127.531
G00 X272.84 Y127.667
G00 X272.774 Y127.823
G00 X272.668 Y128.058
G00 X272.603 Y128.197
G00 X272.538 Y128.33
G00 X272.479 Y128.445
G00 X272.364 Y128.663
G00 X272.292 Y128.795
G00 X272.218 Y128.924
G00 X272.139 Y129.056
G00 X272.009 Y129.266
G00 X271.93 Y129.389
G00 X271.842 Y129.521
G00 X271.749 Y129.654
G00 X271.604 Y129.855
G00 X271.516 Y129.973
G00 X271.43 Y130.084
G00 X271.376 Y130.152
G00 X273.912 Y130.037
G4 P250 ;Pause for 250 milliseconds
;Completed path #5/5 on color #1
;PancakePainter Footer Start
G4 P1000 ;Pause for 1000 milliseconds
G00 X1 Y1 ;Help homing
G28 X0 Y0 ;Home All Axis
M84 ;Motors off
;PancakePainter Footer Complete
