;PancakePainter v1.4.0 GCODE header start
;Originally generated @ Wed Dec 04 2019 14:47:46 GMT-0600 (Central Standard Time)
;Settings used to generate this file:
;----------------------------------------
;botSpeed: 4620
;flattenResolution: 2
;lineEndPreShutoff: 25
;startWait: 350
;endWait: 250
;shadeChangeWait: 15
;useLineFill: false
;useShortest: true
;shapeFillWidth: 11
;fillSpacing: 10
;fillAngle: 23
;fillGroupThreshold: 27
;useColorSpeed: false
;botColorSpeed: 6600,5280,5280,3300
;----------------------------------------
W1 X42 Y210 L485 T0 ;Define Workspace of this file
G21 ;Set units to MM
G1 F4620 ;Set Speed
M107 ;Pump off
G4 P1000 ;Pause for 1000 milliseconds
M84 ;Motors off
G00 X1 Y1 ;Help homing
G28 X0 Y0 ;Home All Axis
;PancakePainter header complete
;Starting fill path #1/85, segments: 11, length: 629, color #4, too small to fill, outline only
G00 X60.763 Y27.385
M106 ;Pump on
G4 P350 ;Pause for 350 milliseconds
G00 X60.805 Y23.953
G00 X61.607 Y20.746
G00 X65.018 Y18.927
G00 X70.132 Y18.498
G00 X75.492 Y18.755
G00 X79.643 Y18.996
G00 X123.489 Y18.981
G00 X132.293 Y18.45
G00 X136.966 Y18.622
G00 X140.62 Y19.825
G00 X142.238 Y23.292
G00 X142.192 Y27.357
G00 X142.54 Y33.121
G00 X142.845 Y40.779
G00 X142.004 Y47.83
G00 X138.916 Y51.772
G00 X134.147 Y52.158
G00 X129.304 Y51.922
G00 X95.774 Y51.902
G00 X78.193 Y52.658
G00 X69.302 Y52.264
G00 X60.955 Y50.598
G00 X60.67 Y43.759
;Nearing path end, moving to preshutoff position
G00 X60.633 Y36.204
M107 ;Pump off
G00 X60.632 Y36.137
G00 X60.708 Y29.942
G00 X60.763 Y27.385
G4 P250 ;Pause for 250 milliseconds
;Completed path #1/85 on color #4
;Starting fill path #2/85, segments: 11, length: 590, color #4, too small to fill, outline only
G00 X62.827 Y39.636
M106 ;Pump on
G4 P350 ;Pause for 350 milliseconds
G00 X62.421 Y44.406
G00 X63.549 Y48.919
G00 X66.647 Y50.265
G00 X71.496 Y50.487
G00 X76.559 Y50.182
G00 X80.298 Y49.947
G00 X124.145 Y49.932
G00 X131.977 Y50.397
G00 X136.2 Y50.163
G00 X139.141 Y48.893
G00 X140.361 Y46.231
G00 X140.63 Y42.598
G00 X140.26 Y35.74
G00 X140.673 Y28.608
G00 X140.433 Y24.778
G00 X139.222 Y22.108
G00 X136.76 Y20.933
G00 X133.534 Y20.632
G00 X127.359 Y20.914
G00 X95.119 Y20.925
G00 X78.938 Y20.535
G00 X62.879 Y21.582
;Nearing path end, moving to preshutoff position
G00 X62.858 Y30.817
M107 ;Pump off
G00 X62.854 Y32.844
G00 X62.835 Y37.653
G00 X62.827 Y39.636
G4 P250 ;Pause for 250 milliseconds
;Completed path #2/85 on color #4
;Starting fill path #3/85, segments: 3, length: 34, color #4, too small to fill, outline only
G00 X134.783 Y-0.537
M106 ;Pump on
G4 P350 ;Pause for 350 milliseconds
;Nearing path end, moving to preshutoff position
G00 X131.489 Y-0.549
M107 ;Pump off
G00 X128.726 Y-0.558
G00 X134.783 Y-0.537
G4 P250 ;Pause for 250 milliseconds
;Completed path #3/85 on color #4
;Starting fill path #4/85, segments: 7, length: 529, color #4, too small to fill, outline only
G00 X63.936 Y90.186
M106 ;Pump on
G4 P350 ;Pause for 350 milliseconds
G00 X67.584 Y91.824
G00 X72.442 Y91.962
G00 X81.602 Y91.4
G00 X110.574 Y92.073
G00 X139.635 Y91.194
G00 X140.26 Y87.441
G00 X140.773 Y82.455
G00 X140.618 Y77.623
G00 X139.24 Y74.337
G00 X135.469 Y72.805
G00 X130.144 Y72.545
G00 X124.629 Y72.883
G00 X120.284 Y73.146
G00 X91.473 Y72.218
G00 X76.911 Y72.287
G00 X62.897 Y73.811
G00 X62.944 Y77.897
;Nearing path end, moving to preshutoff position
G00 X63.181 Y81.4
M107 ;Pump off
G00 X63.314 Y83.356
G00 X63.735 Y88.137
G00 X63.936 Y90.186
G4 P250 ;Pause for 250 milliseconds
;Completed path #4/85 on color #4
;Starting fill path #5/85, segments: 7, length: 453, color #4, too small to fill, outline only
G00 X124.148 Y58.959
M106 ;Pump on
G4 P350 ;Pause for 350 milliseconds
G00 X77.722 Y58.975
G00 X74.112 Y58.887
G00 X68.525 Y59.094
G00 X63.998 Y60.304
G00 X63.081 Y61.506
G00 X63.568 Y63.224
G00 X66.398 Y64.831
G00 X70.81 Y65.214
G00 X75.463 Y64.99
G00 X79.014 Y64.778
G00 X126.085 Y64.761
G00 X129.628 Y64.806
G00 X135.139 Y64.482
G00 X139.5 Y63.105
G00 X140.275 Y61.806
G00 X139.593 Y59.987
G00 X136.359 Y58.702
;Nearing path end, moving to preshutoff position
G00 X132.948 Y58.552
M107 ;Pump off
G00 X131.141 Y58.473
G00 X126.288 Y58.745
G00 X124.148 Y58.959
G4 P250 ;Pause for 250 milliseconds
;Completed path #5/85 on color #4
;Starting fill path #6/85, segments: 3, length: 34, color #4, too small to fill, outline only
G00 X144.693 Y-0.504
M106 ;Pump on
G4 P350 ;Pause for 350 milliseconds
;Nearing path end, moving to preshutoff position
G00 X141.399 Y-0.515
M107 ;Pump off
G00 X138.637 Y-0.524
G00 X144.693 Y-0.504
G4 P250 ;Pause for 250 milliseconds
;Completed path #6/85 on color #4
;Starting fill path #7/85, segments: 3, length: 34, color #4, too small to fill, outline only
G00 X154.604 Y-0.47
M106 ;Pump on
G4 P350 ;Pause for 350 milliseconds
;Nearing path end, moving to preshutoff position
G00 X151.31 Y-0.482
M107 ;Pump off
G00 X148.548 Y-0.491
G00 X154.604 Y-0.47
G4 P250 ;Pause for 250 milliseconds
;Completed path #7/85 on color #4
;Starting fill path #8/85, segments: 11, length: 1088, color #4, too small to fill, outline only
G00 X156.375 Y20.904
M106 ;Pump on
G4 P350 ;Pause for 350 milliseconds
G00 X152.604 Y21.02
G00 X149.672 Y22.988
G00 X148.993 Y28.309
G00 X149.287 Y33.803
G00 X149.335 Y171.791
G00 X149.043 Y177.559
G00 X149.944 Y183.085
G00 X154.113 Y185.473
G00 X161.052 Y186.019
G00 X168.412 Y185.657
G00 X173.842 Y185.323
G00 X177.527 Y185.087
G00 X180.009 Y182.704
G00 X181.321 Y174.405
G00 X181.273 Y165.164
G00 X180.277 Y147.277
G00 X180.239 Y38.305
G00 X180.564 Y30.842
G00 X179.864 Y23.513
G00 X178.394 Y21.935
G00 X175.517 Y20.952
G00 X167.518 Y20.294
;Nearing path end, moving to preshutoff position
G00 X165.176 Y20.385
M107 ;Pump off
G00 X159.819 Y20.594
G00 X157.319 Y20.807
G00 X156.375 Y20.904
G4 P250 ;Pause for 250 milliseconds
;Completed path #8/85 on color #4
;Starting fill path #9/85, segments: 7, length: 482, color #4, too small to fill, outline only
G00 X141.811 Y59.635
M106 ;Pump on
G4 P350 ;Pause for 350 milliseconds
G00 X138.757 Y57.234
G00 X133.518 Y56.558
G00 X127.849 Y56.768
G00 X123.503 Y57.025
G00 X74.498 Y57.042
G00 X65.275 Y57.253
G00 X61.715 Y59.084
G00 X61.328 Y63.459
G00 X64.27 Y66.271
G00 X69.457 Y67.134
G00 X75.163 Y66.972
G00 X79.659 Y66.712
G00 X129.309 Y66.695
G00 X133.048 Y65.591
;Nearing path end, moving to preshutoff position
G00 X134.592 Y64.677
M107 ;Pump off
G00 X137.147 Y63.164
G00 X140.453 Y60.738
G00 X141.811 Y59.635
G4 P250 ;Pause for 250 milliseconds
;Completed path #9/85 on color #4
;Starting fill path #10/85, segments: 8, length: 454, color #4, too small to fill, outline only
G00 X91.924 Y106.041
M106 ;Pump on
G4 P350 ;Pause for 350 milliseconds
G00 X111.913 Y106.034
G00 X135.126 Y106.016
G00 X138.888 Y105.045
G00 X140.049 Y103.767
G00 X139.608 Y101.839
G00 X136.973 Y100.265
G00 X132.967 Y99.857
G00 X125.452 Y100.226
G00 X82.25 Y100.241
G00 X76.805 Y99.918
G00 X70.49 Y99.808
G00 X65.22 Y101.206
G00 X62.908 Y105.406
G00 X71.478 Y106.014
G00 X81.004 Y106.175
;Nearing path end, moving to preshutoff position
G00 X83.106 Y106.158
M107 ;Pump off
G00 X88.736 Y106.111
G00 X91.07 Y106.063
G00 X91.924 Y106.041
G4 P250 ;Pause for 250 milliseconds
;Completed path #10/85 on color #4
;Starting fill path #11/85, segments: 3, length: 31, color #4, too small to fill, outline only
G00 X164.515 Y-0.437
M106 ;Pump on
G4 P350 ;Pause for 350 milliseconds
;Nearing path end, moving to preshutoff position
G00 X162.322 Y-0.444
M107 ;Pump off
G00 X159.009 Y-0.455
G00 X164.515 Y-0.437
G4 P250 ;Pause for 250 milliseconds
;Completed path #11/85 on color #4
;Starting fill path #12/85, segments: 9, length: 566, color #4, too small to fill, outline only
G00 X141.928 Y73.869
M106 ;Pump on
G4 P350 ;Pause for 350 milliseconds
G00 X138.287 Y71.301
G00 X131.515 Y70.627
G00 X124.215 Y70.909
G00 X118.994 Y71.212
G00 X78.371 Y71.226
G00 X70.19 Y70.858
G00 X65.953 Y71.193
G00 X62.506 Y72.579
G00 X60.716 Y75.798
G00 X59.989 Y80.835
G00 X60.088 Y86.079
G00 X60.777 Y89.919
G00 X64.827 Y93.388
G00 X71.861 Y94.402
G00 X79.527 Y94.142
G00 X85.472 Y93.792
G00 X124.805 Y93.778
G00 X132.996 Y94.149
G00 X137.272 Y93.834
G00 X140.72 Y92.491
G00 X142.151 Y88.678
;Nearing path end, moving to preshutoff position
G00 X142.416 Y82.672
M107 ;Pump off
G00 X142.429 Y82.377
G00 X142.153 Y76.478
G00 X141.928 Y73.869
G4 P250 ;Pause for 250 milliseconds
;Completed path #12/85 on color #4
;Starting fill path #13/85, segments: 3, length: 34, color #4, too small to fill, outline only
G00 X173.875 Y-0.405
M106 ;Pump on
G4 P350 ;Pause for 350 milliseconds
;Nearing path end, moving to preshutoff position
G00 X170.581 Y-0.416
M107 ;Pump off
G00 X167.819 Y-0.426
G00 X173.875 Y-0.405
G4 P250 ;Pause for 250 milliseconds
;Completed path #13/85 on color #4
;Starting fill path #14/85, segments: 3, length: 59, color #4, too small to fill, outline only
G00 X161.665 Y63.824
M106 ;Pump on
G4 P350 ;Pause for 350 milliseconds
G00 X164.039 Y65.298
G00 X166.643 Y64.659
G00 X168.335 Y62.568
G00 X167.974 Y59.684
;Nearing path end, moving to preshutoff position
G00 X167.491 Y59.395
M107 ;Pump off
G00 X165.898 Y58.443
G00 X163.85 Y60.076
G00 X162.287 Y62.548
G00 X161.665 Y63.824
G4 P250 ;Pause for 250 milliseconds
;Completed path #14/85 on color #4
;Starting fill path #15/85, segments: 9, length: 524, color #4, too small to fill, outline only
G00 X119.654 Y115.058
M106 ;Pump on
G4 P350 ;Pause for 350 milliseconds
G00 X80.966 Y115.072
G00 X72.823 Y114.591
G00 X64.941 Y115.466
G00 X62.908 Y118.274
G00 X62.198 Y123.084
G00 X62.544 Y128.128
G00 X63.677 Y131.638
G00 X67.128 Y133.363
G00 X72.709 Y133.709
G00 X78.582 Y133.391
G00 X82.907 Y133.126
G00 X120.305 Y133.113
G00 X129.043 Y133.552
G00 X137.629 Y132.901
G00 X139.775 Y130.198
G00 X140.777 Y125.082
G00 X140.705 Y119.672
G00 X139.625 Y116.085
G00 X135.464 Y114.611
G00 X128.714 Y114.404
;Nearing path end, moving to preshutoff position
G00 X128.449 Y114.42
M107 ;Pump off
G00 X122.428 Y114.781
G00 X119.654 Y115.058
G4 P250 ;Pause for 250 milliseconds
;Completed path #15/85 on color #4
;Starting fill path #16/85, segments: 3, length: 61, color #4, too small to fill, outline only
G00 X167.974 Y59.684
M106 ;Pump on
G4 P350 ;Pause for 350 milliseconds
G00 X165.486 Y57.84
G00 X162.751 Y58.468
G00 X161.05 Y60.739
G00 X161.665 Y63.824
;Nearing path end, moving to preshutoff position
G00 X161.768 Y63.87
M107 ;Pump off
G00 X163.707 Y64.724
G00 X165.759 Y63.129
G00 X167.341 Y60.846
G00 X167.974 Y59.684
G4 P250 ;Pause for 250 milliseconds
;Completed path #16/85 on color #4
;Starting fill path #17/85, segments: 12, length: 1125, color #4, too small to fill, outline only
G00 X181.779 Y22.197
M106 ;Pump on
G4 P350 ;Pause for 350 milliseconds
G00 X182.541 Y29.191
G00 X182.173 Y36.37
G00 X182.211 Y145.987
G00 X183.102 Y164.814
G00 X183.119 Y174.447
G00 X181.88 Y183.374
G00 X180.52 Y185.516
G00 X177.966 Y186.885
G00 X170.623 Y187.901
G00 X162.548 Y187.626
G00 X156.433 Y187.263
G00 X151.897 Y187.138
G00 X148.068 Y185.137
G00 X147.084 Y179.582
G00 X147.401 Y173.726
G00 X147.353 Y34.448
G00 X147.074 Y28.31
G00 X147.628 Y22.281
G00 X150.401 Y19.555
G00 X154.44 Y18.974
;Nearing path end, moving to preshutoff position
G00 X173.692 Y18.964
M107 ;Pump off
G00 X174.429 Y18.963
G00 X179.202 Y20.582
G00 X181.042 Y21.693
G00 X181.779 Y22.197
G4 P250 ;Pause for 250 milliseconds
;Completed path #17/85 on color #4
;Starting fill path #18/85, segments: 3, length: 92, color #4, too small to fill, outline only
G00 X170.286 Y60.233
M106 ;Pump on
G4 P350 ;Pause for 350 milliseconds
G00 X167.476 Y56.501
G00 X163.3 Y56.239
G00 X159.879 Y58.778
G00 X159.339 Y63.448
G00 X160.372 Y65.24
G00 X161.876 Y65.781
;Nearing path end, moving to preshutoff position
G00 X163.19 Y65.273
M107 ;Pump off
G00 X165.547 Y64.361
G00 X168.851 Y61.68
G00 X170.286 Y60.233
G4 P250 ;Pause for 250 milliseconds
;Completed path #18/85 on color #4
;Starting fill path #19/85, segments: 3, length: 34, color #4, too small to fill, outline only
G00 X183.786 Y-0.372
M106 ;Pump on
G4 P350 ;Pause for 350 milliseconds
;Nearing path end, moving to preshutoff position
G00 X180.492 Y-0.383
M107 ;Pump off
G00 X177.73 Y-0.392
G00 X183.786 Y-0.372
G4 P250 ;Pause for 250 milliseconds
;Completed path #19/85 on color #4
;Starting fill path #20/85, segments: 7, length: 483, color #4, too small to fill, outline only
G00 X141.995 Y101.545
M106 ;Pump on
G4 P350 ;Pause for 350 milliseconds
G00 X139.306 Y98.731
G00 X134.217 Y97.869
G00 X128.559 Y98.031
G00 X124.162 Y98.292
G00 X75.157 Y98.309
G00 X65.807 Y98.528
G00 X62.044 Y100.36
G00 X61.124 Y104.726
G00 X63.757 Y107.529
G00 X68.915 Y108.392
G00 X74.654 Y108.236
G00 X79.029 Y107.98
G00 X128.034 Y107.963
G00 X132.356 Y106.959
;Nearing path end, moving to preshutoff position
G00 X134.386 Y105.977
M107 ;Pump off
G00 X136.917 Y104.753
G00 X140.527 Y102.548
G00 X141.995 Y101.545
G4 P250 ;Pause for 250 milliseconds
;Completed path #20/85 on color #4
;Starting fill path #21/85, segments: 3, length: 31, color #4, too small to fill, outline only
G00 X193.697 Y-0.338
M106 ;Pump on
G4 P350 ;Pause for 350 milliseconds
;Nearing path end, moving to preshutoff position
G00 X191.504 Y-0.345
M107 ;Pump off
G00 X188.191 Y-0.357
G00 X193.697 Y-0.338
G4 P250 ;Pause for 250 milliseconds
;Completed path #21/85 on color #4
;Starting fill path #22/85, segments: 9, length: 565, color #4, too small to fill, outline only
G00 X141.834 Y115.731
M106 ;Pump on
G4 P350 ;Pause for 350 milliseconds
G00 X137.97 Y112.753
G00 X131.451 Y112.119
G00 X124.417 Y112.579
G00 X119.009 Y112.882
G00 X97.073 Y112.127
G00 X75.162 Y112.84
G00 X68.7 Y112.495
G00 X62.546 Y113.879
G00 X60.616 Y117.395
G00 X60.012 Y122.77
G00 X60.382 Y128.33
G00 X61.372 Y132.403
G00 X65.306 Y135.01
G00 X72.155 Y135.68
G00 X79.48 Y135.376
G00 X84.842 Y135.059
G00 X124.819 Y135.045
G00 X132.926 Y135.462
G00 X137.165 Y135.207
G00 X140.57 Y133.951
G00 X142.046 Y130.207
;Nearing path end, moving to preshutoff position
G00 X142.315 Y124.533
M107 ;Pump off
G00 X142.338 Y124.044
G00 X142.062 Y118.279
G00 X141.834 Y115.731
G4 P250 ;Pause for 250 milliseconds
;Completed path #22/85 on color #4
;Starting fill path #23/85, segments: 3, length: 34, color #4, too small to fill, outline only
G00 X203.057 Y-0.306
M106 ;Pump on
G4 P350 ;Pause for 350 milliseconds
;Nearing path end, moving to preshutoff position
G00 X199.763 Y-0.317
M107 ;Pump off
G00 X197.001 Y-0.327
G00 X203.057 Y-0.306
G4 P250 ;Pause for 250 milliseconds
;Completed path #23/85 on color #4
;Starting fill path #24/85, segments: 4, length: 66, color #4, too small to fill, outline only
G00 X168.324 Y103.88
M106 ;Pump on
G4 P350 ;Pause for 350 milliseconds
G00 X168.152 Y101.16
G00 X166.88 Y99.968
G00 X163.038 Y100.853
G00 X160.796 Y103.91
G00 X161.526 Y105.432
;Nearing path end, moving to preshutoff position
G00 X161.69 Y105.5
M107 ;Pump off
G00 X164.155 Y106.513
G00 X167.367 Y106.659
G00 X168.324 Y103.88
G4 P250 ;Pause for 250 milliseconds
;Completed path #24/85 on color #4
;Starting fill path #25/85, segments: 7, length: 452, color #4, too small to fill, outline only
G00 X124.177 Y141.494
M106 ;Pump on
G4 P350 ;Pause for 350 milliseconds
G00 X78.396 Y141.51
G00 X74.677 Y141.365
G00 X69.052 Y141.471
G00 X64.378 Y142.636
G00 X63.29 Y143.868
G00 X63.513 Y145.669
G00 X66.367 Y147.383
G00 X71.308 Y147.786
G00 X76.556 Y147.542
G00 X80.332 Y147.312
G00 X126.758 Y147.296
G00 X130.192 Y147.442
G00 X135.194 Y147.37
G00 X139.194 Y146.315
G00 X140.015 Y145.178
G00 X139.623 Y143.508
G00 X136.32 Y141.612
;Nearing path end, moving to preshutoff position
G00 X132.973 Y141.28
M107 ;Pump off
G00 X131.11 Y141.095
G00 X126.294 Y141.281
G00 X124.177 Y141.494
G4 P250 ;Pause for 250 milliseconds
;Completed path #25/85 on color #4
;Starting fill path #26/85, segments: 3, length: 92, color #4, too small to fill, outline only
G00 X170.366 Y101.503
M106 ;Pump on
G4 P350 ;Pause for 350 milliseconds
G00 X167.818 Y97.87
G00 X163.729 Y97.42
G00 X160.169 Y99.655
G00 X159.207 Y104.073
G00 X160.124 Y106.243
G00 X161.594 Y107.023
;Nearing path end, moving to preshutoff position
G00 X163.241 Y106.473
M107 ;Pump off
G00 X165.359 Y105.767
G00 X168.837 Y103.022
G00 X170.366 Y101.503
G4 P250 ;Pause for 250 milliseconds
;Completed path #26/85 on color #4
;Starting fill path #27/85, segments: 4, length: 66, color #4, too small to fill, outline only
G00 X167.367 Y106.659
M106 ;Pump on
G4 P350 ;Pause for 350 milliseconds
G00 X168.324 Y103.88
G00 X168.152 Y101.16
G00 X166.88 Y99.968
G00 X163.038 Y100.853
;Nearing path end, moving to preshutoff position
G00 X161.431 Y103.044
M107 ;Pump off
G00 X160.796 Y103.91
G00 X161.526 Y105.432
G00 X164.155 Y106.513
G00 X167.367 Y106.659
G4 P250 ;Pause for 250 milliseconds
;Completed path #27/85 on color #4
;Starting fill path #28/85, segments: 7, length: 484, color #4, too small to fill, outline only
G00 X141.843 Y142.218
M106 ;Pump on
G4 P350 ;Pause for 350 milliseconds
G00 X138.724 Y139.808
G00 X133.497 Y139.116
G00 X127.865 Y139.31
G00 X123.531 Y139.559
G00 X73.882 Y139.577
G00 X69.606 Y139.614
G00 X64.582 Y140.298
G00 X61.082 Y142.489
G00 X60.613 Y144.419
G00 X61.377 Y147.049
G00 X64.558 Y149.157
G00 X69.85 Y149.717
G00 X75.484 Y149.492
G00 X79.688 Y149.247
G00 X129.338 Y149.229
G00 X133.169 Y148.133
;Nearing path end, moving to preshutoff position
G00 X134.634 Y147.27
M107 ;Pump off
G00 X137.259 Y145.723
G00 X140.515 Y143.313
G00 X141.843 Y142.218
G4 P250 ;Pause for 250 milliseconds
;Completed path #28/85 on color #4
;Starting fill path #29/85, segments: 12, length: 627, color #4, too small to fill, outline only
G00 X134.498 Y154.386
M106 ;Pump on
G4 P350 ;Pause for 350 milliseconds
G00 X75.176 Y154.407
G00 X68.315 Y154.028
G00 X64.676 Y154.272
G00 X62 Y155.445
G00 X60.356 Y159.062
G00 X60.105 Y164.204
G00 X60.534 Y169.544
G00 X60.93 Y173.756
G00 X60.527 Y178.922
G00 X61.022 Y184.037
G00 X64.243 Y186.878
G00 X68.74 Y187.293
G00 X90.663 Y187.286
G00 X128.062 Y187.273
G00 X134.901 Y187.579
G00 X138.437 Y187.175
G00 X141.026 Y185.699
G00 X142.497 Y182.042
G00 X142.773 Y177.145
G00 X142.241 Y167.924
G00 X142.504 Y162.389
;Nearing path end, moving to preshutoff position
G00 X141.926 Y157.644
M107 ;Pump off
G00 X141.848 Y157.001
G00 X140.186 Y155.323
G00 X137.717 Y154.565
G00 X135.476 Y154.371
G00 X134.498 Y154.386
G4 P250 ;Pause for 250 milliseconds
;Completed path #29/85 on color #4
;Starting fill path #30/85, segments: 5, length: 275, color #4, too small to fill, outline only
G00 X215.062 Y49.9
M106 ;Pump on
G4 P350 ;Pause for 350 milliseconds
G00 X206.226 Y49.492
G00 X196.449 Y49.821
G00 X192.43 Y50.992
G00 X189.644 Y53.224
G00 X188.58 Y56.808
G00 X189.728 Y62.038
G00 X191.972 Y64.27
G00 X195.54 Y64.996
G00 X202.816 Y64.735
G00 X211.525 Y65.108
G00 X220.548 Y64.714
G00 X224.194 Y63.517
G00 X226.737 Y61.275
G00 X227.786 Y57.702
G00 X226.945 Y52.513
G00 X224.541 Y50.365
;Nearing path end, moving to preshutoff position
G00 X223.822 Y50.239
M107 ;Pump off
G00 X220.517 Y49.66
G00 X216.737 Y49.728
G00 X215.062 Y49.9
G4 P250 ;Pause for 250 milliseconds
;Completed path #30/85 on color #4
;Starting fill path #31/85, segments: 11, length: 590, color #4, too small to fill, outline only
G00 X140.302 Y156.963
M106 ;Pump on
G4 P350 ;Pause for 350 milliseconds
G00 X124.243 Y155.928
G00 X108.062 Y156.33
G00 X75.177 Y156.341
G00 X69.077 Y156.02
G00 X65.822 Y156.297
G00 X63.589 Y157.469
G00 X62.593 Y160.223
G00 X62.364 Y164.107
G00 X62.824 Y171.176
G00 X62.313 Y178.088
G00 X62.515 Y181.584
G00 X64.076 Y184.221
G00 X67.368 Y185.53
G00 X71.62 Y185.794
G00 X79.701 Y185.356
G00 X122.258 Y185.341
G00 X126.107 Y185.577
G00 X131.099 Y185.885
G00 X135.904 Y185.661
G00 X139.189 Y184.301
G00 X140.381 Y180.8
G00 X140.309 Y176.952
;Nearing path end, moving to preshutoff position
G00 X140.305 Y165.783
M107 ;Pump off
G00 X140.302 Y156.963
G4 P250 ;Pause for 250 milliseconds
;Completed path #31/85 on color #4
;Starting fill path #32/85, segments: 3, length: 60, color #4, too small to fill, outline only
G00 X161.238 Y145.925
M106 ;Pump on
G4 P350 ;Pause for 350 milliseconds
G00 X163.024 Y148.137
G00 X165.726 Y148.208
G00 X167.947 Y146.532
G00 X168.29 Y143.498
;Nearing path end, moving to preshutoff position
G00 X168.099 Y143.322
M107 ;Pump off
G00 X166.615 Y141.944
G00 X164.254 Y142.993
G00 X162.149 Y144.901
G00 X161.238 Y145.925
G4 P250 ;Pause for 250 milliseconds
;Completed path #32/85 on color #4
;Starting fill path #33/85, segments: 3, length: 59, color #4, too small to fill, outline only
G00 X168.29 Y143.498
M106 ;Pump on
G4 P350 ;Pause for 350 milliseconds
G00 X166.447 Y141.279
G00 X163.806 Y141.218
G00 X161.644 Y142.904
G00 X161.238 Y145.925
;Nearing path end, moving to preshutoff position
G00 X161.413 Y146.094
M107 ;Pump off
G00 X162.825 Y147.465
G00 X165.195 Y146.418
G00 X167.35 Y144.517
G00 X168.29 Y143.498
G4 P250 ;Pause for 250 milliseconds
;Completed path #33/85 on color #4
;Starting fill path #34/85, segments: 4, length: 106, color #4, too small to fill, outline only
G00 X163.538 Y150.129
M106 ;Pump on
G4 P350 ;Pause for 350 milliseconds
G00 X167.835 Y150.205
G00 X169.818 Y148.345
G00 X169.956 Y145.374
G00 X168.717 Y142.119
G00 X166.57 Y139.406
G00 X163.983 Y138.06
G00 X161.426 Y138.907
G00 X159.366 Y142.774
;Nearing path end, moving to preshutoff position
G00 X159.267 Y144.164
M107 ;Pump off
G00 X158.999 Y147.93
G00 X161.829 Y149.285
G00 X163.538 Y150.129
G4 P250 ;Pause for 250 milliseconds
;Completed path #34/85 on color #4
;Starting fill path #35/85, segments: 8, length: 324, color #4, too small to fill, outline only
G00 X227.964 Y66.015
M106 ;Pump on
G4 P350 ;Pause for 350 milliseconds
G00 X228.981 Y62.189
G00 X229.691 Y57.058
G00 X229.454 Y52.105
G00 X227.627 Y48.811
G00 X223.13 Y47.383
G00 X217.151 Y47.237
G00 X211.012 Y47.667
G00 X206.034 Y47.969
G00 X197.304 Y47.44
G00 X192.666 Y47.614
G00 X189.082 Y48.824
G00 X187.225 Y51.927
G00 X186.528 Y56.739
G00 X186.931 Y61.642
G00 X188.375 Y65.021
G00 X192.771 Y66.688
G00 X197.658 Y66.671
G00 X209.91 Y66.667
;Nearing path end, moving to preshutoff position
G00 X219.153 Y66.4
M107 ;Pump off
G00 X221.211 Y66.34
G00 X225.996 Y66.117
G00 X227.964 Y66.015
G4 P250 ;Pause for 250 milliseconds
;Completed path #35/85 on color #4
;Starting fill path #36/85, segments: 12, length: 595, color #4, too small to fill, outline only
G00 X226.033 Y76.978
M106 ;Pump on
G4 P350 ;Pause for 350 milliseconds
G00 X225.296 Y74.53
G00 X223.733 Y73.405
G00 X218.939 Y73.111
G00 X198.95 Y73.118
G00 X194.477 Y72.972
G00 X190.402 Y74.245
G00 X189.247 Y76.64
G00 X188.971 Y79.871
G00 X189.283 Y86.018
G00 X189.294 Y119.548
G00 X188.971 Y126.396
G00 X189.373 Y129.994
G00 X190.868 Y132.425
G00 X195.432 Y133.329
G00 X200.261 Y133.085
G00 X213.527 Y133.351
G00 X226.698 Y132.431
G00 X225.76 Y130.289
G00 X224.087 Y129.242
G00 X219.603 Y128.181
G00 X213.086 Y125.258
G00 X207.514 Y120.789
G00 X203.6 Y113.94
G00 X203.487 Y106.646
G00 X206.165 Y99.325
G00 X210.622 Y92.397
G00 X215.848 Y86.279
;Nearing path end, moving to preshutoff position
G00 X219.406 Y82.789
M107 ;Pump off
G00 X220.833 Y81.391
G00 X224.565 Y78.151
G00 X226.033 Y76.978
G4 P250 ;Pause for 250 milliseconds
;Completed path #36/85 on color #4
;Starting fill path #37/85, segments: 14, length: 652, color #4, too small to fill, outline only
G00 X228.22 Y73.288
M106 ;Pump on
G4 P350 ;Pause for 350 milliseconds
G00 X228.101 Y76.774
G00 X225.361 Y78.95
G00 X217.485 Y81.835
G00 X210.607 Y85.703
G00 X205.364 Y91.345
G00 X202.394 Y99.554
G00 X202.455 Y106.705
G00 X204.747 Y113.557
G00 X208.889 Y119.493
G00 X214.501 Y123.899
G00 X218.097 Y125.088
G00 X222.764 Y126.244
G00 X226.808 Y127.884
G00 X228.533 Y130.521
G00 X227.841 Y133.204
G00 X226.051 Y134.527
G00 X220.895 Y135.012
G00 X197.037 Y135.02
G00 X192.164 Y134.893
G00 X188.027 Y132.729
G00 X186.817 Y129.392
G00 X186.609 Y125.336
G00 X187.225 Y117.614
G00 X186.851 Y101.479
G00 X187.074 Y85.374
G00 X186.769 Y78.898
G00 X186.964 Y75.634
G00 X188.368 Y72.931
G00 X192.462 Y71.259
G00 X197.015 Y71.185
G00 X218.939 Y71.177
;Nearing path end, moving to preshutoff position
G00 X219.636 Y71.308
M107 ;Pump off
G00 X224.553 Y72.232
G00 X227.135 Y72.958
G00 X228.22 Y73.288
G4 P250 ;Pause for 250 milliseconds
;Completed path #37/85 on color #4
;Starting fill path #38/85, segments: 4, length: 1, color #4
G00 X235.925 Y64.945
M106 ;Pump on
G4 P350 ;Pause for 350 milliseconds
;Very short path, early shutoff without move
M107 ;Pump off
G00 X235.834 Y64.954
G00 X235.851 Y64.89
G00 X235.925 Y64.945
G4 P250 ;Pause for 250 milliseconds
;Completed path #38/85 on color #4
;Starting fill path #39/85, segments: 5, length: 272, color #4, too small to fill, outline only
G00 X213.16 Y142.082
M106 ;Pump on
G4 P350 ;Pause for 350 milliseconds
G00 X204.668 Y141.745
G00 X195.827 Y141.837
G00 X192.252 Y142.853
G00 X189.76 Y144.945
G00 X188.741 Y148.437
G00 X189.586 Y153.652
G00 X191.528 Y155.795
G00 X194.815 Y156.513
G00 X201.559 Y156.297
G00 X210.264 Y156.729
G00 X219.73 Y156.486
G00 X223.656 Y155.389
G00 X226.464 Y153.255
G00 X227.717 Y149.795
G00 X226.977 Y144.72
G00 X224.229 Y142.435
;Nearing path end, moving to preshutoff position
G00 X221.939 Y142.094
M107 ;Pump off
G00 X219.545 Y141.737
G00 X215.123 Y141.87
G00 X213.16 Y142.082
G4 P250 ;Pause for 250 milliseconds
;Completed path #39/85 on color #4
;Starting fill path #40/85, segments: 3, length: 271, color #4, too small to fill, outline only
G00 X242.41 Y98.251
M106 ;Pump on
G4 P350 ;Pause for 350 milliseconds
G00 X239.142 Y91.597
G00 X234.126 Y87.7
G00 X228.128 Y86.315
G00 X221.912 Y87.2
G00 X216.241 Y90.112
G00 X211.882 Y94.806
G00 X209.597 Y101.039
G00 X210.153 Y108.569
G00 X213.184 Y114.097
G00 X217.61 Y115.731
G00 X222.877 Y114.444
G00 X228.43 Y111.209
;Nearing path end, moving to preshutoff position
G00 X236.199 Y104.496
M107 ;Pump off
G00 X238.176 Y102.788
G00 X241.259 Y99.547
G00 X242.41 Y98.251
G4 P250 ;Pause for 250 milliseconds
;Completed path #40/85 on color #4
;Starting fill path #41/85, segments: 8, length: 450, color #4, too small to fill, outline only
G00 X250.537 Y80.838
M106 ;Pump on
G4 P350 ;Pause for 350 milliseconds
G00 X293.094 Y80.823
G00 X301.613 Y81.324
G00 X306.11 Y81.171
G00 X309.712 Y80.057
G00 X311.623 Y76.687
G00 X309.761 Y73.469
G00 X303.145 Y72.697
G00 X296.316 Y73.084
G00 X264.72 Y73.095
G00 X250.482 Y72.788
G00 X236.349 Y73.75
G00 X238.6 Y78.491
;Nearing path end, moving to preshutoff position
G00 X241.872 Y79.855
M107 ;Pump off
G00 X243.474 Y80.523
G00 X248.332 Y80.942
G00 X250.537 Y80.838
G4 P250 ;Pause for 250 milliseconds
;Completed path #41/85 on color #4
;Starting fill path #42/85, segments: 3, length: 28, color #4, too small to fill, outline only
G00 X124.706 Y210.863
M106 ;Pump on
G4 P350 ;Pause for 350 milliseconds
;Nearing path end, moving to preshutoff position
G00 X125.798 Y210.867
M107 ;Pump off
G00 X129.662 Y210.88
G00 X124.706 Y210.863
G4 P250 ;Pause for 250 milliseconds
;Completed path #42/85 on color #4
;Starting fill path #43/85, segments: 3, length: 299, color #4, too small to fill, outline only
G00 X245.167 Y102.118
M106 ;Pump on
G4 P350 ;Pause for 350 milliseconds
G00 X244.31 Y109.911
G00 X240.596 Y115.778
G00 X234.902 Y119.64
G00 X228.106 Y121.414
G00 X221.086 Y121.018
G00 X214.719 Y118.372
G00 X209.883 Y113.393
G00 X207.456 Y106
G00 X208.289 Y98.522
G00 X212.19 Y94.65
G00 X218.182 Y93.581
G00 X225.282 Y94.51
;Nearing path end, moving to preshutoff position
G00 X237.118 Y98.541
M107 ;Pump off
G00 X238.889 Y99.144
G00 X243.434 Y101.241
G00 X245.167 Y102.118
G4 P250 ;Pause for 250 milliseconds
;Completed path #43/85 on color #4
;Starting fill path #44/85, segments: 3, length: 34, color #4, too small to fill, outline only
G00 X139.022 Y210.911
M106 ;Pump on
G4 P350 ;Pause for 350 milliseconds
;Nearing path end, moving to preshutoff position
G00 X135.728 Y210.9
M107 ;Pump off
G00 X132.965 Y210.891
G00 X139.022 Y210.911
G4 P250 ;Pause for 250 milliseconds
;Completed path #44/85 on color #4
;Starting fill path #45/85, segments: 9, length: 494, color #4, too small to fill, outline only
G00 X265.364 Y71.161
M106 ;Pump on
G4 P350 ;Pause for 350 milliseconds
G00 X298.894 Y71.149
G00 X305.685 Y70.786
G00 X312.106 Y71.994
G00 X313.862 Y74.336
G00 X314.172 Y77.361
G00 X313.18 Y80.248
G00 X311.03 Y82.175
G00 X306.517 Y83.23
G00 X301.255 Y83.323
G00 X291.161 Y82.758
G00 X256.986 Y82.77
G00 X247.919 Y83.006
G00 X238.956 Y82.146
G00 X236.092 Y80.688
G00 X234.641 Y78.402
G00 X234.414 Y72.461
G00 X243.471 Y71.292
G00 X253.641 Y70.952
;Nearing path end, moving to preshutoff position
G00 X256.547 Y70.983
M107 ;Pump off
G00 X261.935 Y71.042
G00 X264.445 Y71.123
G00 X265.364 Y71.161
G4 P250 ;Pause for 250 milliseconds
;Completed path #45/85 on color #4
;Starting fill path #46/85, segments: 9, length: 491, color #4, too small to fill, outline only
G00 X235.905 Y133.941
M106 ;Pump on
G4 P350 ;Pause for 350 milliseconds
G00 X239.776 Y135.169
G00 X244.335 Y135.416
G00 X253.135 Y135.001
G00 X293.758 Y134.986
G00 X298.101 Y135.242
G00 X303.557 Y135.564
G00 X308.83 Y135.283
G00 X312.623 Y133.73
G00 X313.735 Y129.82
G00 X312.437 Y125.352
G00 X308.943 Y123.521
G00 X299.557 Y123.378
G00 X261.514 Y123.391
G00 X247.759 Y123.47
;Nearing path end, moving to preshutoff position
G00 X235.12 Y125.85
M107 ;Pump off
G00 X234.433 Y125.98
G00 X235.046 Y130.945
G00 X235.629 Y133.066
G00 X235.905 Y133.941
G4 P250 ;Pause for 250 milliseconds
;Completed path #46/85 on color #4
;Starting fill path #47/85, segments: 8, length: 321, color #4, too small to fill, outline only
G00 X229.059 Y143.404
M106 ;Pump on
G4 P350 ;Pause for 350 milliseconds
G00 X226.665 Y140.379
G00 X222.273 Y139.315
G00 X213.159 Y139.528
G00 X207.408 Y139.186
G00 X199.913 Y138.798
G00 X192.77 Y139.329
G00 X188.071 Y141.742
G00 X186.836 Y145.996
G00 X187.261 Y150.499
G00 X187.578 Y155.535
G00 X190.211 Y157.917
G00 X194.964 Y158.626
G00 X200.164 Y158.463
G00 X204.138 Y158.231
G00 X209.484 Y158.56
G00 X216.332 Y159.016
G00 X222.955 Y158.797
G00 X227.626 Y157.099
G00 X229.022 Y153.943
;Nearing path end, moving to preshutoff position
G00 X229.159 Y152.204
M107 ;Pump off
G00 X229.384 Y149.348
G00 X229.225 Y145.205
G00 X229.059 Y143.404
G4 P250 ;Pause for 250 milliseconds
;Completed path #47/85 on color #4
;Starting fill path #48/85, segments: 3, length: 34, color #4, too small to fill, outline only
G00 X148.933 Y210.945
M106 ;Pump on
G4 P350 ;Pause for 350 milliseconds
;Nearing path end, moving to preshutoff position
G00 X145.639 Y210.934
M107 ;Pump off
G00 X142.876 Y210.924
G00 X148.933 Y210.945
G4 P250 ;Pause for 250 milliseconds
;Completed path #48/85 on color #4
;Starting fill path #49/85, segments: 3, length: 31, color #4, too small to fill, outline only
G00 X158.844 Y210.978
M106 ;Pump on
G4 P350 ;Pause for 350 milliseconds
;Nearing path end, moving to preshutoff position
G00 X156.651 Y210.971
M107 ;Pump off
G00 X153.338 Y210.96
G00 X158.844 Y210.978
G4 P250 ;Pause for 250 milliseconds
;Completed path #49/85 on color #4
;Starting fill path #50/85, segments: 3, length: 34, color #4, too small to fill, outline only
G00 X168.204 Y211.01
M106 ;Pump on
G4 P350 ;Pause for 350 milliseconds
;Nearing path end, moving to preshutoff position
G00 X164.91 Y210.999
M107 ;Pump off
G00 X162.147 Y210.99
G00 X168.204 Y211.01
G4 P250 ;Pause for 250 milliseconds
;Completed path #50/85 on color #4
;Starting fill path #51/85, segments: 3, length: 34, color #4, too small to fill, outline only
G00 X178.115 Y211.044
M106 ;Pump on
G4 P350 ;Pause for 350 milliseconds
;Nearing path end, moving to preshutoff position
G00 X174.821 Y211.033
M107 ;Pump off
G00 X172.058 Y211.023
G00 X178.115 Y211.044
G4 P250 ;Pause for 250 milliseconds
;Completed path #51/85 on color #4
;Starting fill path #52/85, segments: 3, length: 34, color #4, too small to fill, outline only
G00 X188.026 Y211.077
M106 ;Pump on
G4 P350 ;Pause for 350 milliseconds
;Nearing path end, moving to preshutoff position
G00 X184.732 Y211.066
M107 ;Pump off
G00 X181.969 Y211.057
G00 X188.026 Y211.077
G4 P250 ;Pause for 250 milliseconds
;Completed path #52/85 on color #4
;Starting fill path #53/85, segments: 3, length: 28, color #4, too small to fill, outline only
G00 X197.386 Y211.109
M106 ;Pump on
G4 P350 ;Pause for 350 milliseconds
;Nearing path end, moving to preshutoff position
G00 X196.294 Y211.105
M107 ;Pump off
G00 X192.431 Y211.092
G00 X197.386 Y211.109
G4 P250 ;Pause for 250 milliseconds
;Completed path #53/85 on color #4
;Starting fill path #54/85, segments: 3, length: 34, color #4, too small to fill, outline only
G00 X207.297 Y211.143
M106 ;Pump on
G4 P350 ;Pause for 350 milliseconds
;Nearing path end, moving to preshutoff position
G00 X204.003 Y211.131
M107 ;Pump off
G00 X201.24 Y211.122
G00 X207.297 Y211.143
G4 P250 ;Pause for 250 milliseconds
;Completed path #54/85 on color #4
;Starting fill path #55/85, segments: 7, length: 381, color #4, too small to fill, outline only
G00 X296.321 Y89.766
M106 ;Pump on
G4 P350 ;Pause for 350 milliseconds
G00 X258.278 Y89.278
G00 X251.732 Y90.457
G00 X250.131 Y92.607
G00 X250.964 Y96.143
G00 X253.532 Y98.33
G00 X257.237 Y99.078
G00 X264.729 Y98.888
G00 X286.741 Y99.793
G00 X297.931 Y99.862
G00 X308.547 Y98.725
G00 X311.65 Y95.774
G00 X311.134 Y91.339
G00 X307.772 Y89.522
;Nearing path end, moving to preshutoff position
G00 X305.103 Y89.325
M107 ;Pump off
G00 X302.796 Y89.156
G00 X298.287 Y89.488
G00 X296.321 Y89.766
G4 P250 ;Pause for 250 milliseconds
;Completed path #55/85 on color #4
;Starting fill path #56/85, segments: 7, length: 382, color #4, too small to fill, outline only
G00 X298.262 Y107.267
M106 ;Pump on
G4 P350 ;Pause for 350 milliseconds
G00 X260.219 Y107.33
G00 X252.881 Y109.186
G00 X250.248 Y111.586
G00 X250.483 Y115.288
G00 X252.967 Y116.919
G00 X257.075 Y117.335
G00 X261.451 Y117.142
G00 X264.736 Y116.942
G00 X304.069 Y116.928
G00 X310.708 Y115.088
G00 X312.371 Y112.593
G00 X311.141 Y108.875
G00 X308.253 Y107.399
;Nearing path end, moving to preshutoff position
G00 X307.058 Y107.284
M107 ;Pump off
G00 X303.923 Y106.982
G00 X299.982 Y107.11
G00 X298.262 Y107.267
G4 P250 ;Pause for 250 milliseconds
;Completed path #56/85 on color #4
;Starting fill path #57/85, segments: 9, length: 427, color #4, too small to fill, outline only
G00 X313.09 Y100.16
M106 ;Pump on
G4 P350 ;Pause for 350 milliseconds
G00 X313.962 Y94.032
G00 X313.676 Y90.835
G00 X312.236 Y88.546
G00 X305.45 Y86.989
G00 X298.255 Y87.269
G00 X263.436 Y87.282
G00 X255.907 Y86.971
G00 X251.994 Y87.294
G00 X248.811 Y88.569
G00 X247.604 Y90.973
G00 X248.018 Y94.275
G00 X249.446 Y97.476
G00 X251.281 Y99.577
G00 X255.216 Y100.984
G00 X260.019 Y101.277
G00 X269.243 Y100.82
G00 X287.298 Y100.814
G00 X294.952 Y100.711
G00 X303.415 Y100.486
;Nearing path end, moving to preshutoff position
G00 X304.276 Y100.458
M107 ;Pump off
G00 X310.268 Y100.262
G00 X312.334 Y100.188
G00 X313.09 Y100.16
G4 P250 ;Pause for 250 milliseconds
;Completed path #57/85 on color #4
;Starting fill path #58/85, segments: 9, length: 442, color #4, too small to fill, outline only
G00 X327.909 Y66.625
M106 ;Pump on
G4 P350 ;Pause for 350 milliseconds
G00 X324.787 Y66.527
G00 X322.661 Y67.439
G00 X320.684 Y71.48
G00 X320.821 Y82.748
G00 X320.835 Y120.791
G00 X320.368 Y129.189
G00 X321.204 Y137.359
G00 X322.621 Y139.204
G00 X324.615 Y139.865
G00 X326.628 Y139.313
G00 X328.1 Y137.516
G00 X328.626 Y131.514
G00 X328.39 Y125.302
G00 X328.386 Y113.696
G00 X328.001 Y94.352
;Nearing path end, moving to preshutoff position
G00 X327.938 Y75.445
M107 ;Pump off
G00 X327.909 Y66.625
G4 P250 ;Pause for 250 milliseconds
;Completed path #58/85 on color #4
;Starting fill path #59/85, segments: 7, length: 416, color #4, too small to fill, outline only
G00 X314.159 Y110.477
M106 ;Pump on
G4 P350 ;Pause for 350 milliseconds
G00 X311.936 Y106.802
G00 X307.951 Y105.349
G00 X298.906 Y105.324
G00 X276.937 Y104.716
G00 X255.06 Y105.458
G00 X252.027 Y106.646
G00 X249.532 Y109.058
G00 X247.929 Y112.191
G00 X247.575 Y115.537
G00 X249.819 Y118.263
G00 X254.419 Y119.166
G00 X259.565 Y119.09
G00 X263.447 Y118.877
G00 X302.78 Y118.863
G00 X307.121 Y117.552
;Nearing path end, moving to preshutoff position
G00 X308.079 Y116.791
M107 ;Pump off
G00 X310.748 Y114.67
G00 X313.235 Y111.787
G00 X314.159 Y110.477
G4 P250 ;Pause for 250 milliseconds
;Completed path #59/85 on color #4
;Starting fill path #60/85, segments: 8, length: 479, color #4, too small to fill, outline only
G00 X330.267 Y68.56
M106 ;Pump on
G4 P350 ;Pause for 350 milliseconds
G00 X330.985 Y81.072
G00 X330.497 Y93.706
G00 X330.928 Y115.005
G00 X330.452 Y136.261
G00 X329.014 Y139.63
G00 X326.024 Y141.936
G00 X322.527 Y142.349
G00 X319.57 Y140.04
G00 X318.443 Y136.167
G00 X318.327 Y131.283
G00 X318.901 Y122.082
G00 X318.887 Y83.393
G00 X318.405 Y74.963
G00 X319.351 Y66.799
G00 X321.975 Y64.972
;Nearing path end, moving to preshutoff position
G00 X322.294 Y65.045
M107 ;Pump off
G00 X325.625 Y65.811
G00 X328.867 Y67.584
G00 X330.267 Y68.56
G4 P250 ;Pause for 250 milliseconds
;Completed path #60/85 on color #4
;Starting fill path #61/85, segments: 7, length: 440, color #4, too small to fill, outline only
G00 X311.145 Y127.338
M106 ;Pump on
G4 P350 ;Pause for 350 milliseconds
G00 X308.351 Y125.47
G00 X303.998 Y124.942
G00 X299.354 Y125.107
G00 X295.689 Y125.314
G00 X249.908 Y125.333
G00 X246.095 Y125.294
G00 X240.944 Y125.693
G00 X237.058 Y127.338
G00 X236.404 Y128.882
G00 X237.042 Y131.042
G00 X239.824 Y132.945
G00 X244.18 Y133.465
G00 X248.828 Y133.279
G00 X252.49 Y133.066
G00 X298.271 Y133.05
G00 X301.643 Y132.157
;Nearing path end, moving to preshutoff position
G00 X303.316 Y131.389
M107 ;Pump off
G00 X305.917 Y130.194
G00 X309.586 Y128.231
G00 X311.145 Y127.338
G4 P250 ;Pause for 250 milliseconds
;Completed path #61/85 on color #4
;Switching Color to: Light
G4 P1000 ;Pause for 1000 milliseconds
G00 X1 Y1 ;Help homing
G28 X0 Y0 ;Home All Axis
M84 ;Motors off
M142 ;Bottle change
G4 P15000 ;Pause for 15000 milliseconds
;Starting fill path #62/85, segments: 30, length: 443, color #1
G00 X131.99 Y43.052
M106 ;Pump on
G4 P350 ;Pause for 350 milliseconds
G00 X124.58 Y42.611
G00 X124.357 Y42.602
G00 X124.142 Y42.598
G00 X80.296 Y42.613
G00 X80.073 Y42.617
G00 X79.839 Y42.628
G00 X76.099 Y42.863
G00 X71.444 Y43.144
G00 X69.894 Y43.073
G00 X70.134 Y40.259
G00 X70.149 Y40.037
G00 X70.158 Y39.814
G00 X70.16 Y39.657
G00 X70.192 Y28.454
G00 X79.09 Y27.874
G00 X94.942 Y28.256
G00 X95.121 Y28.259
G00 X127.362 Y28.248
G00 X127.694 Y28.24
G00 X133.286 Y27.984
G00 X133.326 Y28.627
G00 X132.939 Y35.317
;Nearing path end, moving to preshutoff position
G00 X132.934 Y35.434
M107 ;Pump off
G00 X132.93 Y35.539
G00 X132.927 Y35.762
G00 X132.931 Y35.985
G00 X132.938 Y36.135
G00 X133.282 Y42.525
G00 X133.249 Y42.982
G00 X131.99 Y43.052
G4 P250 ;Pause for 250 milliseconds
;Completed path #62/85 on color #1
;Starting fill path #63/85, segments: 21, length: 384, color #1
G00 X133.237 Y84.051
M106 ;Pump on
G4 P350 ;Pause for 350 milliseconds
G00 X110.548 Y84.737
G00 X81.773 Y84.069
G00 X81.55 Y84.067
G00 X81.327 Y84.072
G00 X81.153 Y84.081
G00 X72.322 Y84.623
G00 X69.776 Y84.55
G00 X69.634 Y82.303
G00 X69.739 Y80.444
G00 X77.327 Y79.619
G00 X91.373 Y79.552
G00 X120.048 Y80.475
G00 X120.271 Y80.479
G00 X120.494 Y80.476
G00 X120.727 Y80.466
G00 X125.077 Y80.202
;Nearing path end, moving to preshutoff position
G00 X128.564 Y79.989
M107 ;Pump off
G00 X130.189 Y79.889
G00 X133.359 Y80.044
G00 X133.428 Y82.193
G00 X133.237 Y84.051
G4 P250 ;Pause for 250 milliseconds
;Completed path #63/85 on color #1
;Starting fill path #64/85, segments: 65, length: 232, color #1
G00 X156.626 Y52.06
M106 ;Pump on
G4 P350 ;Pause for 350 milliseconds
G00 X156.62 Y33.8
G00 X156.616 Y33.577
G00 X156.61 Y33.412
G00 X156.351 Y28.579
G00 X156.395 Y28.24
G00 X156.6 Y28.234
G00 X156.803 Y28.225
G00 X162.121 Y27.914
G00 X169.033 Y27.638
G00 X172.927 Y28.009
G00 X173.215 Y31.033
G00 X172.912 Y37.987
G00 X172.905 Y38.308
G00 X172.91 Y51.576
G00 X172.758 Y51.413
G00 X172.601 Y51.255
G00 X172.439 Y51.102
G00 X172.273 Y50.953
G00 X172.102 Y50.81
G00 X171.927 Y50.672
G00 X171.748 Y50.54
G00 X171.565 Y50.412
G00 X171.378 Y50.291
G00 X171.187 Y50.175
G00 X170.994 Y50.066
G00 X170.796 Y49.962
G00 X170.596 Y49.864
G00 X170.393 Y49.772
G00 X170.187 Y49.687
G00 X169.979 Y49.607
G00 X169.768 Y49.535
G00 X169.556 Y49.468
G00 X169.341 Y49.408
G00 X169.125 Y49.355
G00 X168.906 Y49.308
G00 X168.687 Y49.268
G00 X168.467 Y49.235
G00 X168.246 Y49.208
G00 X167.935 Y49.182
;Nearing path end, moving to preshutoff position
G00 X164.567 Y48.971
M107 ;Pump off
G00 X163.759 Y48.92
G00 X163.536 Y48.909
G00 X163.313 Y48.905
G00 X163.09 Y48.908
G00 X162.868 Y48.918
G00 X162.646 Y48.935
G00 X162.424 Y48.958
G00 X162.203 Y48.988
G00 X161.983 Y49.025
G00 X161.764 Y49.068
G00 X161.547 Y49.118
G00 X161.332 Y49.175
G00 X161.118 Y49.238
G00 X160.906 Y49.307
G00 X160.697 Y49.383
G00 X160.49 Y49.466
G00 X160.285 Y49.554
G00 X160.083 Y49.649
G00 X159.884 Y49.749
G00 X159.689 Y49.856
G00 X159.497 Y49.969
G00 X159.308 Y50.087
G00 X159.123 Y50.212
G00 X158.929 Y50.351
G00 X156.626 Y52.06
G4 P250 ;Pause for 250 milliseconds
;Completed path #64/85 on color #1
;Starting fill path #65/85, segments: 100, length: 222, color #1
G00 X156.641 Y93.212
M106 ;Pump on
G4 P350 ;Pause for 350 milliseconds
G00 X156.633 Y71.647
G00 X156.642 Y71.657
G00 X156.792 Y71.821
G00 X156.948 Y71.981
G00 X157.107 Y72.136
G00 X157.272 Y72.286
G00 X157.442 Y72.431
G00 X157.615 Y72.571
G00 X157.793 Y72.706
G00 X157.975 Y72.835
G00 X158.16 Y72.958
G00 X158.35 Y73.076
G00 X158.542 Y73.188
G00 X158.738 Y73.294
G00 X158.937 Y73.394
G00 X159.14 Y73.487
G00 X159.345 Y73.575
G00 X159.552 Y73.657
G00 X159.762 Y73.732
G00 X159.974 Y73.8
G00 X160.188 Y73.863
G00 X160.404 Y73.918
G00 X160.621 Y73.967
G00 X160.84 Y74.01
G00 X161.06 Y74.045
G00 X161.281 Y74.075
G00 X161.502 Y74.097
G00 X161.659 Y74.108
G00 X165.749 Y74.37
G00 X165.972 Y74.381
G00 X166.195 Y74.385
G00 X166.418 Y74.382
G00 X166.64 Y74.373
G00 X166.863 Y74.357
G00 X167.084 Y74.334
G00 X167.305 Y74.304
G00 X167.525 Y74.267
G00 X167.743 Y74.224
G00 X167.961 Y74.175
G00 X168.177 Y74.118
G00 X168.39 Y74.056
G00 X168.602 Y73.986
G00 X168.812 Y73.911
G00 X169.019 Y73.829
G00 X169.223 Y73.74
G00 X169.426 Y73.646
G00 X169.624 Y73.545
G00 X169.82 Y73.439
G00 X170.012 Y73.326
G00 X170.201 Y73.208
G00 X170.39 Y73.082
G00 X172.917 Y71.333
G00 X172.924 Y92.607
G00 X172.797 Y92.486
G00 X172.631 Y92.337
G00 X172.46 Y92.193
G00 X172.286 Y92.055
G00 X172.107 Y91.922
G00 X171.924 Y91.794
G00 X171.738 Y91.672
G00 X171.548 Y91.556
G00 X171.354 Y91.445
G00 X171.157 Y91.341
G00 X170.957 Y91.242
G00 X170.754 Y91.15
G00 X170.549 Y91.064
G00 X170.341 Y90.984
G00 X170.13 Y90.911
G00 X169.918 Y90.844
G00 X169.703 Y90.783
G00 X169.487 Y90.729
G00 X169.269 Y90.681
G00 X169.05 Y90.641
G00 X168.83 Y90.606
G00 X168.618 Y90.58
;Nearing path end, moving to preshutoff position
G00 X164.669 Y90.146
M107 ;Pump off
G00 X164.53 Y90.131
G00 X164.308 Y90.11
G00 X164.086 Y90.096
G00 X163.863 Y90.088
G00 X163.64 Y90.088
G00 X163.417 Y90.094
G00 X163.195 Y90.107
G00 X162.973 Y90.126
G00 X162.752 Y90.153
G00 X162.531 Y90.186
G00 X162.312 Y90.225
G00 X162.094 Y90.272
G00 X161.877 Y90.325
G00 X161.663 Y90.384
G00 X161.45 Y90.45
G00 X161.239 Y90.523
G00 X161.03 Y90.602
G00 X160.825 Y90.687
G00 X160.621 Y90.778
G00 X160.421 Y90.876
G00 X160.224 Y90.979
G00 X160.029 Y91.089
G00 X159.83 Y91.21
G00 X156.641 Y93.212
G4 P250 ;Pause for 250 milliseconds
;Completed path #65/85 on color #1
;Starting fill path #66/85, segments: 25, length: 383, color #1
G00 X128.948 Y126.204
M106 ;Pump on
G4 P350 ;Pause for 350 milliseconds
G00 X120.673 Y125.789
G00 X120.45 Y125.781
G00 X120.302 Y125.779
G00 X82.904 Y125.792
G00 X82.681 Y125.796
G00 X82.457 Y125.806
G00 X78.151 Y126.071
G00 X72.738 Y126.363
G00 X69.761 Y126.178
G00 X69.568 Y123.372
G00 X69.724 Y122.313
G00 X73.012 Y121.948
G00 X80.533 Y122.392
G00 X80.756 Y122.402
G00 X80.969 Y122.405
G00 X119.657 Y122.392
G00 X119.88 Y122.388
G00 X120.118 Y122.377
G00 X124.507 Y122.099
G00 X130.246 Y121.745
;Nearing path end, moving to preshutoff position
G00 X132.85 Y121.837
M107 ;Pump off
G00 X133.4 Y121.856
G00 X133.434 Y124.42
G00 X133.147 Y125.886
G00 X128.948 Y126.204
G4 P250 ;Pause for 250 milliseconds
;Completed path #66/85 on color #1
;Starting fill path #67/85, segments: 17, length: 137, color #1
G00 X196.268 Y57.632
M106 ;Pump on
G4 P350 ;Pause for 350 milliseconds
G00 X196.244 Y57.519
G00 X197.617 Y57.119
G00 X206.181 Y56.831
G00 X214.724 Y57.225
G00 X214.947 Y57.232
G00 X215.17 Y57.232
G00 X215.324 Y57.228
G00 X220.252 Y57.052
G00 X220.258 Y57.091
G00 X219.22 Y57.432
G00 X211.522 Y57.768
;Nearing path end, moving to preshutoff position
G00 X205.082 Y57.492
M107 ;Pump off
G00 X203.13 Y57.408
G00 X202.907 Y57.402
G00 X202.684 Y57.403
G00 X202.553 Y57.406
G00 X196.268 Y57.632
G4 P250 ;Pause for 250 milliseconds
;Completed path #67/85 on color #1
;Starting fill path #68/85, segments: 106, length: 224, color #1
G00 X156.655 Y133.339
M106 ;Pump on
G4 P350 ;Pause for 350 milliseconds
G00 X156.648 Y113.308
G00 X156.794 Y113.45
G00 X156.959 Y113.6
G00 X157.128 Y113.745
G00 X157.301 Y113.885
G00 X157.479 Y114.019
G00 X157.661 Y114.148
G00 X157.847 Y114.271
G00 X158.036 Y114.389
G00 X158.229 Y114.501
G00 X158.425 Y114.607
G00 X158.624 Y114.707
G00 X158.826 Y114.801
G00 X159.031 Y114.888
G00 X159.239 Y114.97
G00 X159.448 Y115.044
G00 X159.66 Y115.113
G00 X159.874 Y115.176
G00 X160.09 Y115.231
G00 X160.307 Y115.28
G00 X160.526 Y115.323
G00 X160.854 Y115.373
G00 X164.982 Y115.918
G00 X165.204 Y115.943
G00 X165.426 Y115.962
G00 X165.648 Y115.974
G00 X165.871 Y115.98
G00 X166.094 Y115.979
G00 X166.317 Y115.971
G00 X166.539 Y115.956
G00 X166.761 Y115.934
G00 X166.982 Y115.906
G00 X167.202 Y115.871
G00 X167.421 Y115.829
G00 X167.638 Y115.781
G00 X167.855 Y115.726
G00 X168.069 Y115.665
G00 X168.281 Y115.597
G00 X168.491 Y115.523
G00 X168.699 Y115.442
G00 X168.904 Y115.355
G00 X169.107 Y115.262
G00 X169.306 Y115.163
G00 X169.502 Y115.057
G00 X169.695 Y114.946
G00 X169.885 Y114.829
G00 X170.029 Y114.735
G00 X172.931 Y112.786
G00 X172.939 Y135.637
G00 X172.32 Y134.855
G00 X172.18 Y134.683
G00 X172.034 Y134.515
G00 X171.882 Y134.351
G00 X171.726 Y134.191
G00 X171.566 Y134.037
G00 X171.4 Y133.888
G00 X171.23 Y133.744
G00 X171.056 Y133.605
G00 X170.877 Y133.471
G00 X170.695 Y133.343
G00 X170.509 Y133.22
G00 X170.319 Y133.103
G00 X170.126 Y132.992
G00 X169.955 Y132.9
G00 X167.368 Y131.554
G00 X167.169 Y131.455
G00 X166.967 Y131.361
G00 X166.762 Y131.273
G00 X166.554 Y131.192
G00 X166.345 Y131.117
G00 X166.132 Y131.048
G00 X165.918 Y130.986
G00 X165.703 Y130.931
G00 X165.485 Y130.882
G00 X165.266 Y130.84
G00 X165.046 Y130.804
;Nearing path end, moving to preshutoff position
G00 X164.911 Y130.786
M107 ;Pump off
G00 X164.826 Y130.775
G00 X164.604 Y130.753
G00 X164.382 Y130.737
G00 X164.159 Y130.729
G00 X163.936 Y130.727
G00 X163.713 Y130.731
G00 X163.49 Y130.743
G00 X163.268 Y130.762
G00 X163.047 Y130.787
G00 X162.826 Y130.818
G00 X162.607 Y130.857
G00 X162.388 Y130.902
G00 X162.172 Y130.954
G00 X161.957 Y131.012
G00 X161.677 Y131.098
G00 X159.119 Y131.946
G00 X158.909 Y132.019
G00 X158.701 Y132.099
G00 X158.495 Y132.185
G00 X158.292 Y132.277
G00 X158.092 Y132.375
G00 X157.895 Y132.48
G00 X157.702 Y132.59
G00 X157.511 Y132.706
G00 X157.325 Y132.828
G00 X157.142 Y132.955
G00 X156.963 Y133.088
G00 X156.788 Y133.226
G00 X156.655 Y133.339
G4 P250 ;Pause for 250 milliseconds
;Completed path #68/85 on color #1
;Starting fill path #69/85, segments: 18, length: 77, color #1
G00 X196.617 Y89.315
M106 ;Pump on
G4 P350 ;Pause for 350 milliseconds
G00 X196.616 Y86.016
G00 X196.612 Y85.793
G00 X196.607 Y85.646
G00 X196.339 Y80.37
G00 X198.71 Y80.448
G00 X198.953 Y80.452
G00 X203.355 Y80.45
;Nearing path end, moving to preshutoff position
G00 X201.606 Y82.062
M107 ;Pump off
G00 X201.605 Y82.063
G00 X201.444 Y82.216
G00 X201.287 Y82.375
G00 X201.135 Y82.537
G00 X200.988 Y82.705
G00 X200.846 Y82.877
G00 X200.709 Y83.053
G00 X200.579 Y83.233
G00 X200.427 Y83.457
G00 X196.617 Y89.315
G4 P250 ;Pause for 250 milliseconds
;Completed path #69/85 on color #1
;Starting fill path #70/85, segments: 30, length: 443, color #1
G00 X132.971 Y163.839
M106 ;Pump on
G4 P350 ;Pause for 350 milliseconds
G00 X132.976 Y176.955
G00 X132.977 Y177.09
G00 X133.003 Y178.455
G00 X131.153 Y178.541
G00 X126.556 Y178.257
G00 X122.707 Y178.021
G00 X122.484 Y178.011
G00 X122.255 Y178.007
G00 X79.698 Y178.022
G00 X79.475 Y178.026
G00 X79.303 Y178.033
G00 X71.65 Y178.449
G00 X69.673 Y178.325
G00 X69.662 Y178.147
G00 X70.138 Y171.716
G00 X70.15 Y171.494
G00 X70.157 Y171.271
G00 X70.156 Y171.048
G00 X70.149 Y170.825
G00 X70.142 Y170.699
G00 X69.711 Y164.083
G00 X69.751 Y163.399
G00 X74.792 Y163.664
G00 X75.015 Y163.673
G00 X75.18 Y163.675
G00 X108.065 Y163.663
G00 X108.244 Y163.661
G00 X124.097 Y163.267
;Nearing path end, moving to preshutoff position
G00 X124.17 Y163.272
M107 ;Pump off
G00 X132.971 Y163.839
G4 P250 ;Pause for 250 milliseconds
;Completed path #70/85 on color #1
;Starting fill path #71/85, segments: 54, length: 230, color #1
G00 X160.341 Y156.728
M106 ;Pump on
G4 P350 ;Pause for 350 milliseconds
G00 X160.543 Y156.822
G00 X160.748 Y156.91
G00 X160.955 Y156.992
G00 X161.165 Y157.067
G00 X161.377 Y157.136
G00 X161.591 Y157.199
G00 X161.807 Y157.255
G00 X162.024 Y157.304
G00 X162.243 Y157.347
G00 X162.463 Y157.383
G00 X162.683 Y157.412
G00 X162.905 Y157.435
G00 X163.127 Y157.451
G00 X163.408 Y157.461
G00 X167.705 Y157.537
G00 X167.928 Y157.538
G00 X168.151 Y157.531
G00 X168.373 Y157.518
G00 X168.595 Y157.499
G00 X168.817 Y157.472
G00 X169.037 Y157.439
G00 X169.256 Y157.399
G00 X169.474 Y157.353
G00 X169.691 Y157.3
G00 X169.905 Y157.24
G00 X170.118 Y157.174
G00 X170.329 Y157.101
G00 X170.537 Y157.022
G00 X170.743 Y156.937
G00 X170.947 Y156.845
G00 X171.147 Y156.748
G00 X171.344 Y156.644
G00 X171.538 Y156.535
G00 X171.729 Y156.419
G00 X171.916 Y156.298
G00 X172.099 Y156.171
G00 X172.278 Y156.039
G00 X172.454 Y155.901
G00 X172.625 Y155.758
G00 X172.852 Y155.553
G00 X173.366 Y155.071
G00 X173.941 Y165.388
G00 X173.985 Y173.848
G00 X173.327 Y178.007
G00 X167.985 Y178.336
G00 X161.162 Y178.671
G00 X156.595 Y178.312
G00 X156.406 Y177.151
G00 X156.659 Y172.161
G00 X156.666 Y171.939
G00 X156.668 Y171.788
;Nearing path end, moving to preshutoff position
G00 X156.664 Y159.678
M107 ;Pump off
G00 X156.662 Y154.946
G00 X160.341 Y156.728
G4 P250 ;Pause for 250 milliseconds
;Completed path #71/85 on color #1
;Starting fill path #72/85, segments: 16, length: 66, color #1
G00 X202.15 Y125.788
M106 ;Pump on
G4 P350 ;Pause for 350 milliseconds
G00 X200.408 Y125.753
G00 X200.185 Y125.752
G00 X199.891 Y125.761
G00 X196.334 Y125.94
G00 X196.619 Y119.893
G00 X196.627 Y119.671
G00 X196.628 Y119.545
G00 X196.627 Y118.108
G00 X196.753 Y118.292
;Nearing path end, moving to preshutoff position
G00 X196.996 Y118.635
M107 ;Pump off
G00 X201.533 Y125.031
G00 X201.665 Y125.211
G00 X201.802 Y125.387
G00 X201.944 Y125.558
G00 X202.092 Y125.726
G00 X202.15 Y125.788
G4 P250 ;Pause for 250 milliseconds
;Completed path #72/85 on color #1
;Starting fill path #73/85, segments: 17, length: 166, color #1
G00 X230.904 Y94.482
M106 ;Pump on
G4 P350 ;Pause for 350 milliseconds
G00 X233.306 Y96.349
G00 X235.175 Y100.154
G00 X235.419 Y104.341
G00 X234.177 Y107.537
G00 X231.678 Y110.157
G00 X228.217 Y111.92
G00 X224.551 Y112.469
G00 X221.475 Y111.813
G00 X219.161 Y110.09
G00 X217.357 Y106.554
G00 X217.027 Y102.077
G00 X218.259 Y98.714
G00 X220.737 Y96.047
;Nearing path end, moving to preshutoff position
G00 X222.419 Y95.183
M107 ;Pump off
G00 X224.165 Y94.287
G00 X227.809 Y93.768
G00 X230.904 Y94.482
G4 P250 ;Pause for 250 milliseconds
;Completed path #73/85 on color #1
;Starting fill path #74/85, segments: 8, length: 450, color #1, too small to fill, outline only
G00 X250.537 Y80.838
M106 ;Pump on
G4 P350 ;Pause for 350 milliseconds
G00 X293.094 Y80.823
G00 X301.613 Y81.324
G00 X306.11 Y81.171
G00 X309.712 Y80.057
G00 X311.623 Y76.687
G00 X309.761 Y73.469
G00 X303.145 Y72.697
G00 X296.316 Y73.084
G00 X264.72 Y73.095
G00 X250.482 Y72.788
G00 X236.349 Y73.75
G00 X238.6 Y78.491
;Nearing path end, moving to preshutoff position
G00 X241.872 Y79.855
M107 ;Pump off
G00 X243.474 Y80.523
G00 X248.332 Y80.942
G00 X250.537 Y80.838
G4 P250 ;Pause for 250 milliseconds
;Completed path #74/85 on color #1
;Starting fill path #75/85, segments: 5, length: 42, color #1
G00 X211.597 Y149.359
M106 ;Pump on
G4 P350 ;Pause for 350 milliseconds
G00 X210.354 Y149.391
;Nearing path end, moving to preshutoff position
G00 X205.527 Y149.152
M107 ;Pump off
G00 X204.156 Y149.084
G00 X204.561 Y149.08
G00 X211.597 Y149.359
G4 P250 ;Pause for 250 milliseconds
;Completed path #75/85 on color #1
;Starting fill path #76/85, segments: 36, length: 2736, color #1, too small to fill, outline only
G00 X194.471 Y171.13
M106 ;Pump on
G4 P350 ;Pause for 350 milliseconds
G00 X194.903 Y184.932
G00 X193.823 Y191.829
G00 X190.442 Y197.247
G00 X185.095 Y199.628
G00 X178.14 Y200.181
G00 X170.931 Y199.833
G00 X164.82 Y199.512
G00 X62.296 Y199.548
G00 X54.686 Y198.431
G00 X51.641 Y196.481
G00 X49.491 Y193.104
G00 X48.332 Y184.809
G00 X48.722 Y176.339
G00 X48.71 Y150.547
G00 X48.709 Y93.804
G00 X48.056 Y72.5
G00 X48.594 Y51.247
G00 X48.636 Y25.455
G00 X48.383 Y17.069
G00 X49.235 Y12.96
G00 X51.438 Y9.514
G00 X58.17 Y6.484
G00 X67.413 Y5.821
G00 X77.008 Y6.312
G00 X84.797 Y6.743
G00 X154.436 Y6.719
G00 X171.038 Y5.941
G00 X179.551 Y6.047
G00 X187.321 Y7.438
G00 X191.275 Y9.572
G00 X193.323 Y12.58
G00 X193.876 Y20.191
G00 X193.319 Y28.215
G00 X193.98 Y31.74
G00 X195.993 Y34.598
G00 X201.131 Y35.944
G00 X206.675 Y35.717
G00 X213.646 Y35.338
G00 X221.837 Y34.83
G00 X229.833 Y35.13
G00 X236.218 Y37.176
G00 X239.545 Y42.138
G00 X240.448 Y48.809
G00 X241.37 Y55.029
G00 X242.602 Y57.294
G00 X244.755 Y58.637
G00 X254.01 Y59.371
G00 X263.426 Y58.91
G00 X283.888 Y59.949
G00 X294.395 Y60.019
G00 X304.039 Y58.691
G00 X307.764 Y56.204
G00 X311.324 Y53.355
G00 X317.218 Y51.734
G00 X324.835 Y51.041
G00 X332.392 Y51.554
G00 X338.109 Y53.55
G00 X340.707 Y56.567
G00 X341.604 Y60.075
G00 X342.191 Y63.666
G00 X343.86 Y66.933
G00 X349.601 Y69.478
G00 X352.631 Y70.574
G00 X355.144 Y73.099
G00 X356.978 Y80.325
G00 X356.932 Y87.894
G00 X356.943 Y117.555
G00 X357.2 Y125.122
G00 X355.807 Y132.385
G00 X353 Y135.465
G00 X349.613 Y136.784
G00 X346.159 Y137.749
G00 X343.154 Y139.763
G00 X341.641 Y142.917
G00 X341.11 Y146.429
G00 X340.181 Y149.888
G00 X337.476 Y152.879
G00 X332.058 Y154.654
G00 X324.792 Y155.099
G00 X317.469 Y154.451
G00 X311.877 Y152.949
G00 X308.122 Y149.939
G00 X304.077 Y147.414
G00 X294.583 Y146.325
G00 X284.515 Y146.385
G00 X264.746 Y147.248
G00 X254.674 Y146.766
G00 X244.77 Y147.535
G00 X242.654 Y148.833
G00 X241.489 Y151.022
G00 X240.76 Y157.059
G00 X240.085 Y163.614
G00 X236.967 Y168.653
G00 X230.441 Y170.555
G00 X223.487 Y170.475
G00 X214.886 Y170.579
G00 X205.364 Y170.804
;Nearing path end, moving to preshutoff position
G00 X203.286 Y170.864
M107 ;Pump off
G00 X197.649 Y171.028
G00 X195.322 Y171.102
G00 X194.471 Y171.13
G4 P250 ;Pause for 250 milliseconds
;Completed path #76/85 on color #1
;Starting fill path #77/85, segments: 4, length: 9, color #1
G00 X217.181 Y149.216
M106 ;Pump on
G4 P350 ;Pause for 350 milliseconds
;Very short path, early shutoff without move
M107 ;Pump off
G00 X218.801 Y149.131
G00 X218.632 Y149.179
G00 X217.181 Y149.216
G4 P250 ;Pause for 250 milliseconds
;Completed path #77/85 on color #1
;Starting fill path #78/85, segments: 33, length: 2711, color #1, too small to fill, outline only
G00 X266.65 Y60.869
M106 ;Pump on
G4 P350 ;Pause for 350 milliseconds
G00 X254.272 Y61.743
G00 X247.765 Y61.658
G00 X242.185 Y60.463
G00 X239.955 Y58.803
G00 X238.881 Y56.345
G00 X238.644 Y50.023
G00 X238.364 Y43.468
G00 X237.235 Y40.721
G00 X234.929 Y38.656
G00 X228.322 Y36.857
G00 X220.17 Y36.694
G00 X211.851 Y37.261
G00 X204.741 Y37.652
G00 X199.824 Y37.853
G00 X195.107 Y36.993
G00 X192.744 Y34.726
G00 X191.737 Y31.602
G00 X191.956 Y23.873
G00 X192.096 Y15.988
G00 X190.992 Y12.668
G00 X188.492 Y10.127
G00 X181.534 Y7.967
G00 X172.836 Y7.674
G00 X163.935 Y8.239
G00 X156.371 Y8.653
G00 X84.798 Y8.678
G00 X69.342 Y7.844
G00 X61.29 Y8.115
G00 X54.527 Y10.016
G00 X52.032 Y12.203
G00 X50.901 Y15.057
G00 X50.628 Y21.586
G00 X50.685 Y185.366
G00 X50.95 Y191.152
G00 X53.863 Y195.944
G00 X58.871 Y197.566
G00 X64.23 Y197.612
G00 X157.726 Y197.58
G00 X164.932 Y197.941
G00 X173.135 Y198.455
G00 X181.195 Y198.262
G00 X187.972 Y196.503
G00 X190.723 Y194.168
G00 X192.019 Y190.931
G00 X192.101 Y182.956
G00 X191.921 Y174.979
G00 X192.891 Y171.74
G00 X195.185 Y169.4
G00 X200.192 Y168.371
G00 X205.432 Y168.547
G00 X220.157 Y169.32
G00 X227.79 Y169.146
G00 X234.422 Y167.581
G00 X237.002 Y165.607
G00 X238.293 Y162.797
G00 X238.761 Y155.891
G00 X239.334 Y149.309
G00 X240.758 Y146.905
G00 X243.525 Y145.501
G00 X255.677 Y144.782
G00 X267.969 Y145.312
G00 X286.762 Y144.512
G00 X296.326 Y144.472
G00 X305.359 Y145.521
G00 X309.159 Y148.042
G00 X312.546 Y151.119
G00 X317.699 Y152.592
G00 X324.437 Y153.115
G00 X331.169 Y152.658
G00 X336.309 Y151.189
G00 X339.132 Y148.357
G00 X339.82 Y144.856
G00 X340.114 Y141.201
G00 X341.754 Y137.909
G00 X344.628 Y136.248
G00 X347.914 Y135.528
G00 X351.044 Y134.587
G00 X353.447 Y132.267
G00 X355.097 Y125.057
G00 X355.008 Y117.555
G00 X354.998 Y88.539
G00 X355.1 Y80.986
G00 X353.424 Y73.793
G00 X350.774 Y71.521
G00 X347.442 Y70.641
G00 X344.107 Y69.823
G00 X341.442 Y67.74
G00 X340.055 Y62.074
G00 X338.316 Y56.484
G00 X333.8 Y54.063
G00 X328.549 Y53.729
G00 X316.483 Y53.982
G00 X311.16 Y56.014
G00 X307.918 Y60.829
G00 X295.684 Y60.837
G00 X282.141 Y60.851
;Nearing path end, moving to preshutoff position
G00 X275.47 Y60.858
M107 ;Pump off
G00 X271.17 Y60.863
G00 X267.861 Y60.867
G00 X266.65 Y60.869
G4 P250 ;Pause for 250 milliseconds
;Completed path #78/85 on color #1
;Starting fill path #79/85, segments: 7, length: 382, color #1, too small to fill, outline only
G00 X298.262 Y107.267
M106 ;Pump on
G4 P350 ;Pause for 350 milliseconds
G00 X260.219 Y107.33
G00 X252.881 Y109.186
G00 X250.248 Y111.586
G00 X250.483 Y115.288
G00 X252.967 Y116.919
G00 X257.075 Y117.335
G00 X261.451 Y117.142
G00 X264.736 Y116.942
G00 X304.069 Y116.928
G00 X310.708 Y115.088
G00 X312.371 Y112.593
G00 X311.141 Y108.875
G00 X308.253 Y107.399
;Nearing path end, moving to preshutoff position
G00 X307.058 Y107.284
M107 ;Pump off
G00 X303.923 Y106.982
G00 X299.982 Y107.11
G00 X298.262 Y107.267
G4 P250 ;Pause for 250 milliseconds
;Completed path #79/85 on color #1
;Starting fill path #80/85, segments: 7, length: 380, color #1, too small to fill, outline only
G00 X311.134 Y91.339
M106 ;Pump on
G4 P350 ;Pause for 350 milliseconds
G00 X311.65 Y95.774
G00 X308.547 Y98.725
G00 X297.931 Y99.862
G00 X286.741 Y99.793
G00 X264.729 Y98.888
G00 X257.237 Y99.078
G00 X253.532 Y98.33
G00 X250.964 Y96.143
G00 X250.131 Y92.607
G00 X251.732 Y90.457
G00 X258.278 Y89.278
G00 X296.321 Y89.766
G00 X300.162 Y89.974
;Nearing path end, moving to preshutoff position
G00 X302.387 Y90.22
M107 ;Pump off
G00 X305.084 Y90.519
G00 X309.329 Y91.08
G00 X311.134 Y91.339
G4 P250 ;Pause for 250 milliseconds
;Completed path #80/85 on color #1
;Starting fill path #81/85, segments: 9, length: 442, color #1, too small to fill, outline only
G00 X327.909 Y66.625
M106 ;Pump on
G4 P350 ;Pause for 350 milliseconds
G00 X324.787 Y66.527
G00 X322.661 Y67.439
G00 X320.684 Y71.48
G00 X320.821 Y82.748
G00 X320.835 Y120.791
G00 X320.368 Y129.189
G00 X321.204 Y137.359
G00 X322.621 Y139.204
G00 X324.615 Y139.865
G00 X326.628 Y139.313
G00 X328.1 Y137.516
G00 X328.626 Y131.514
G00 X328.39 Y125.302
G00 X328.386 Y113.696
G00 X328.001 Y94.352
;Nearing path end, moving to preshutoff position
G00 X327.938 Y75.445
M107 ;Pump off
G00 X327.909 Y66.625
G4 P250 ;Pause for 250 milliseconds
;Completed path #81/85 on color #1
;Starting fill path #82/85, segments: 7, length: 440, color #1, too small to fill, outline only
G00 X311.145 Y127.338
M106 ;Pump on
G4 P350 ;Pause for 350 milliseconds
G00 X308.351 Y125.47
G00 X303.998 Y124.942
G00 X299.354 Y125.107
G00 X295.689 Y125.314
G00 X249.908 Y125.333
G00 X246.095 Y125.294
G00 X240.944 Y125.693
G00 X237.058 Y127.338
G00 X236.404 Y128.882
G00 X237.042 Y131.042
G00 X239.824 Y132.945
G00 X244.18 Y133.465
G00 X248.828 Y133.279
G00 X252.49 Y133.066
G00 X298.271 Y133.05
G00 X301.643 Y132.157
;Nearing path end, moving to preshutoff position
G00 X303.316 Y131.389
M107 ;Pump off
G00 X305.917 Y130.194
G00 X309.586 Y128.231
G00 X311.145 Y127.338
G4 P250 ;Pause for 250 milliseconds
;Completed path #82/85 on color #1
;Starting fill path #83/85, segments: 8, length: 291, color #1, too small to fill, outline only
G00 X335.013 Y98.863
M106 ;Pump on
G4 P350 ;Pause for 350 milliseconds
G00 X335.017 Y111.114
G00 X334.77 Y117.621
G00 X336.035 Y123.83
G00 X337.913 Y125.472
G00 X340.318 Y125.812
G00 X342.623 Y124.969
G00 X344.198 Y123.061
G00 X345.653 Y116.159
G00 X345.667 Y107.983
G00 X345.068 Y99.684
G00 X344.683 Y92.412
G00 X344.877 Y87.132
G00 X343.645 Y82.191
G00 X339.898 Y80.49
G00 X335.651 Y81.453
;Nearing path end, moving to preshutoff position
G00 X335.183 Y90.047
M107 ;Pump off
G00 X335.058 Y92.337
G00 X335.01 Y96.96
G00 X335.013 Y98.863
G4 P250 ;Pause for 250 milliseconds
;Completed path #83/85 on color #1
;Starting fill path #84/85, segments: 7, length: 250, color #1, too small to fill, outline only
G00 X342.114 Y123.363
M106 ;Pump on
G4 P350 ;Pause for 350 milliseconds
G00 X342.754 Y107.888
G00 X342.747 Y90.478
G00 X342.44 Y87.604
G00 X341.496 Y84.022
G00 X339.877 Y82.111
G00 X338.803 Y82.527
G00 X337.547 Y84.253
G00 X336.734 Y88.882
G00 X336.945 Y93.704
G00 X336.088 Y107.649
G00 X336.076 Y114.941
;Nearing path end, moving to preshutoff position
G00 X336.643 Y117.878
M107 ;Pump off
G00 X337.286 Y121.209
G00 X339.998 Y123.073
G00 X342.114 Y123.363
G4 P250 ;Pause for 250 milliseconds
;Completed path #84/85 on color #1
;Starting fill path #85/85, segments: 7, length: 250, color #1, too small to fill, outline only
G00 X342.114 Y123.363
M106 ;Pump on
G4 P350 ;Pause for 350 milliseconds
G00 X342.754 Y107.888
G00 X342.747 Y90.478
G00 X342.44 Y87.604
G00 X341.496 Y84.022
G00 X339.877 Y82.111
G00 X338.803 Y82.527
G00 X337.547 Y84.253
G00 X336.734 Y88.882
G00 X336.945 Y93.704
G00 X336.088 Y107.649
G00 X336.076 Y114.941
;Nearing path end, moving to preshutoff position
G00 X336.643 Y117.878
M107 ;Pump off
G00 X337.286 Y121.209
G00 X339.998 Y123.073
G00 X342.114 Y123.363
G4 P250 ;Pause for 250 milliseconds
;Completed path #85/85 on color #1
;PancakePainter Footer Start
G4 P1000 ;Pause for 1000 milliseconds
G00 X1 Y1 ;Help homing
G28 X0 Y0 ;Home All Axis
M84 ;Motors off
;PancakePainter Footer Complete
