;PancakePainter v1.4.0 GCODE header start
;Originally generated @ Mon Nov 25 2019 03:51:04 GMT-0600 (Central Standard Time)
;Settings used to generate this file:
;----------------------------------------
;botSpeed: 4620
;flattenResolution: 2
;lineEndPreShutoff: 25
;startWait: 350
;endWait: 250
;shadeChangeWait: 15
;useLineFill: false
;useShortest: true
;shapeFillWidth: 2.1
;fillSpacing: 10
;fillAngle: 23
;fillGroupThreshold: 27
;useColorSpeed: false
;botColorSpeed: 6600,5280,5280,3300
;----------------------------------------
W1 X42 Y210 L485 T0 ;Define Workspace of this file
G21 ;Set units to MM
G1 F4620 ;Set Speed
M107 ;Pump off
G4 P1000 ;Pause for 1000 milliseconds
M84 ;Motors off
G00 X1 Y1 ;Help homing
G28 X0 Y0 ;Home All Axis
;PancakePainter header complete
;Starting stroke path #1/10, segments: 16, length: 1443, color #3
G00 X210.3 Y32.737
M106 ;Pump on
G4 P350 ;Pause for 350 milliseconds
G00 X220.1 Y32.55
G00 X239.35 Y32.55
G00 X268.305 Y32.139
G00 X282.813 Y32.522
G00 X297.1 Y34.095
G00 X311.183 Y36.775
G00 X317.979 Y39.441
G00 X323.156 Y43.75
G00 X326.055 Y50.961
G00 X326.5 Y58.8
G00 X326.5 Y77.7
G00 X327.9 Y140.35
G00 X327.81 Y156.684
G00 X325.732 Y164.403
G00 X320.55 Y170.363
G00 X310.75 Y173.897
G00 X291.361 Y177.487
G00 X271.453 Y178.624
G00 X231.65 Y178.15
G00 X216.321 Y178.44
G00 X209.202 Y176.705
G00 X203.638 Y171.85
G00 X200.484 Y164.161
G00 X199.449 Y155.505
G00 X199.8 Y138.25
G00 X199.8 Y63.7
G00 X199.952 Y51.963
G00 X202.552 Y40.6
;Nearing path end, moving to preshutoff position
G00 X203.892 Y38.561
M107 ;Pump off
G00 X205.671 Y35.854
G00 X210.3 Y32.737
G4 P250 ;Pause for 250 milliseconds
;Completed path #1/10 on color #3
;Starting stroke path #2/10, segments: 2, length: 14, color #3
G00 X257.55 Y78.05
M106 ;Pump on
G4 P350 ;Pause for 350 milliseconds
;Very short path, early shutoff without move
M107 ;Pump off
G00 X262.45 Y78.05
G4 P250 ;Pause for 250 milliseconds
;Completed path #2/10 on color #3
;Starting fill path #3/10, segments: 248, length: 2600, color #3
G00 X202.249 Y47.659
M106 ;Pump on
G4 P350 ;Pause for 350 milliseconds
G00 X202.251 Y47.417
G00 X202.256 Y47.188
G00 X202.265 Y46.905
G00 X202.279 Y46.607
G00 X202.303 Y46.236
G00 X202.33 Y45.907
G00 X202.357 Y45.625
G00 X202.676 Y42.981
G00 X202.714 Y42.694
G00 X202.765 Y42.351
G00 X202.834 Y41.941
G00 X202.901 Y41.588
G00 X202.96 Y41.301
G00 X203.052 Y40.899
G00 X203.118 Y40.629
G00 X203.191 Y40.352
G00 X203.26 Y40.105
G00 X203.368 Y39.744
G00 X203.451 Y39.483
G00 X203.535 Y39.229
G00 X203.545 Y39.201
G00 X202.283 Y39.201
G00 X197.701 Y39.252
G00 X197.701 Y170.799
G00 X203.649 Y170.799
G00 X203.616 Y170.691
G00 X203.535 Y170.412
G00 X203.459 Y170.128
G00 X203.36 Y169.736
G00 X203.294 Y169.45
G00 X203.23 Y169.153
G00 X203.18 Y168.899
G00 X203.113 Y168.523
G00 X203.072 Y168.275
G00 X203.036 Y168.031
G00 X202.395 Y162.94
G00 X202.366 Y162.689
G00 X202.342 Y162.471
G00 X202.326 Y162.306
G00 X202.305 Y162.063
G00 X202.282 Y161.723
G00 X202.263 Y161.343
G00 X202.253 Y160.946
G00 X202.252 Y160.875
G00 X202.249 Y47.659
G00 X205.049 Y47.659
G00 X205.051 Y47.449
G00 X205.055 Y47.243
G00 X205.064 Y47.005
G00 X205.076 Y46.74
G00 X205.097 Y46.419
G00 X205.121 Y46.14
G00 X205.144 Y45.896
G00 X205.456 Y43.318
G00 X205.49 Y43.062
G00 X205.534 Y42.765
G00 X205.595 Y42.412
G00 X205.652 Y42.11
G00 X205.702 Y41.871
G00 X205.781 Y41.524
G00 X205.837 Y41.3
G00 X205.898 Y41.07
G00 X205.955 Y40.864
G00 X206.05 Y40.548
G00 X206.119 Y40.332
G00 X206.191 Y40.116
G00 X206.278 Y39.871
G00 X206.403 Y39.539
G00 X206.488 Y39.324
G00 X206.58 Y39.104
G00 X206.683 Y38.867
G00 X206.837 Y38.532
G00 X206.934 Y38.33
G00 X207.056 Y38.085
G00 X207.168 Y37.873
G00 X207.33 Y37.578
G00 X207.433 Y37.397
G00 X207.56 Y37.181
G00 X207.674 Y36.996
G00 X207.865 Y36.695
G00 X208.005 Y36.485
G00 X208.063 Y36.401
G00 X202.282 Y36.401
G00 X195.037 Y36.482
G00 X194.901 Y38.922
G00 X194.901 Y171.706
G00 X194.933 Y173.591
G00 X195.058 Y173.599
G00 X207.963 Y173.599
G00 X207.93 Y173.545
G00 X207.807 Y173.342
G00 X207.63 Y173.034
G00 X207.518 Y172.833
G00 X207.395 Y172.602
G00 X207.28 Y172.376
G00 X207.13 Y172.066
G00 X207.028 Y171.845
G00 X206.93 Y171.624
G00 X206.829 Y171.383
G00 X206.706 Y171.076
G00 X206.626 Y170.868
G00 X206.54 Y170.631
G00 X206.463 Y170.41
G00 X206.357 Y170.078
G00 X206.293 Y169.87
G00 X206.226 Y169.638
G00 X206.163 Y169.401
G00 X206.077 Y169.059
G00 X206.022 Y168.819
G00 X205.969 Y168.571
G00 X205.927 Y168.359
G00 X205.87 Y168.034
G00 X205.836 Y167.826
G00 X205.806 Y167.623
G00 X205.173 Y162.59
G00 X205.147 Y162.368
G00 X205.126 Y162.168
G00 X205.112 Y162.033
G00 X205.096 Y161.83
G00 X205.076 Y161.534
G00 X205.06 Y161.211
G00 X205.052 Y160.875
G00 X205.049 Y47.659
G00 X207.849 Y47.659
G00 X207.851 Y47.481
G00 X207.855 Y47.301
G00 X207.862 Y47.107
G00 X207.873 Y46.874
G00 X207.891 Y46.608
G00 X207.911 Y46.377
G00 X207.931 Y46.17
G00 X208.236 Y43.655
G00 X208.266 Y43.43
G00 X208.303 Y43.183
G00 X208.354 Y42.889
G00 X208.402 Y42.638
G00 X208.443 Y42.443
G00 X208.509 Y42.155
G00 X208.554 Y41.975
G00 X208.604 Y41.789
G00 X208.65 Y41.625
G00 X208.731 Y41.357
G00 X208.786 Y41.186
G00 X208.846 Y41.006
G00 X208.915 Y40.812
G00 X209.021 Y40.533
G00 X209.091 Y40.357
G00 X209.165 Y40.179
G00 X209.247 Y39.991
G00 X209.378 Y39.708
G00 X209.459 Y39.539
G00 X209.556 Y39.348
G00 X209.645 Y39.178
G00 X209.781 Y38.932
G00 X209.867 Y38.781
G00 X209.968 Y38.611
G00 X210.061 Y38.458
G00 X210.224 Y38.204
G00 X210.334 Y38.04
G00 X210.442 Y37.882
G00 X210.566 Y37.71
G00 X210.742 Y37.474
G00 X210.855 Y37.327
G00 X210.979 Y37.173
G00 X211.098 Y37.029
G00 X211.291 Y36.804
G00 X211.413 Y36.667
G00 X211.548 Y36.52
G00 X211.685 Y36.376
G00 X211.887 Y36.171
G00 X212.028 Y36.034
G00 X212.163 Y35.905
G00 X212.362 Y35.724
G00 X214.259 Y34.066
G00 X214.45 Y33.904
G00 X214.593 Y33.785
G00 X214.786 Y33.632
G00 X214.826 Y33.601
G00 X202.281 Y33.601
G00 X192.387 Y33.712
G00 X192.101 Y38.845
G00 X192.101 Y171.733
G00 X192.177 Y176.215
G00 X194.967 Y176.399
G00 X214.743 Y176.399
G00 X214.625 Y176.33
G00 X214.437 Y176.216
G00 X214.196 Y176.063
G00 X214.04 Y175.961
G00 X213.887 Y175.856
G00 X213.729 Y175.745
G00 X213.487 Y175.567
G00 X213.339 Y175.455
G00 X213.18 Y175.33
G00 X213.026 Y175.204
G00 X212.803 Y175.014
G00 X212.667 Y174.895
G00 X212.518 Y174.76
G00 X212.392 Y174.642
G00 X212.167 Y174.424
G00 X212.022 Y174.277
G00 X211.885 Y174.133
G00 X211.758 Y173.997
G00 X211.57 Y173.786
G00 X211.451 Y173.648
G00 X211.327 Y173.5
G00 X211.204 Y173.347
G00 X211.016 Y173.105
G00 X210.901 Y172.952
G00 X210.782 Y172.788
G00 X210.666 Y172.621
G00 X210.509 Y172.385
G00 X210.402 Y172.219
G00 X210.31 Y172.07
G00 X210.209 Y171.901
G00 X210.059 Y171.641
G00 X209.967 Y171.475
G00 X209.869 Y171.29
G00 X209.78 Y171.114
G00 X209.652 Y170.848
G00 X209.57 Y170.67
G00 X209.492 Y170.493
G00 X209.412 Y170.304
G00 X209.307 Y170.04
G00 X209.241 Y169.867
G00 X209.175 Y169.682
G00 X209.112 Y169.499
G00 X209.024 Y169.225
G00 X208.971 Y169.053
G00 X208.918 Y168.866
G00 X208.868 Y168.68
G00 X208.795 Y168.386
G00 X208.751 Y168.191
G00 X208.709 Y167.993
G00 X208.676 Y167.824
G00 X208.628 Y167.549
G00 X208.6 Y167.378
G00 X208.578 Y167.223
G00 X207.951 Y162.241
G00 X207.929 Y162.047
G00 X207.91 Y161.868
G00 X207.899 Y161.761
G00 X207.886 Y161.603
G00 X207.87 Y161.351
G00 X207.857 Y161.083
G00 X207.851 Y160.81
;Nearing path end, moving to preshutoff position
G00 X207.849 Y56.479
M107 ;Pump off
G00 X207.849 Y47.659
G4 P250 ;Pause for 250 milliseconds
;Completed path #3/10 on color #3
;Starting fill path #4/10, segments: 108, length: 1377, color #3
G00 X259.69 Y80.109
M106 ;Pump on
G4 P350 ;Pause for 350 milliseconds
G00 X267.161 Y79.326
G00 X268.243 Y78.9
G00 X268.38 Y78.652
G00 X268.605 Y77.205
G00 X268.52 Y76.719
G00 X268.419 Y76.662
G00 X265.579 Y76.088
G00 X257.201 Y75.992
G00 X257.201 Y80.031
G00 X259.69 Y80.109
G00 X259.793 Y82.913
G00 X267.831 Y82.072
G00 X269.64 Y81.359
G00 X270.401 Y80.784
G00 X271.071 Y79.573
G00 X271.443 Y77.18
G00 X271.114 Y75.289
G00 X270.767 Y74.771
G00 X269.407 Y74.005
G00 X265.876 Y73.291
G00 X254.401 Y73.159
G00 X254.401 Y82.746
G00 X259.793 Y82.913
G00 X259.896 Y85.718
G00 X268.502 Y84.817
G00 X271.023 Y83.824
G00 X272.563 Y82.659
G00 X273.762 Y80.493
G00 X274.281 Y77.155
G00 X273.771 Y74.224
G00 X272.723 Y72.658
G00 X270.396 Y71.348
G00 X266.172 Y70.494
G00 X253.772 Y70.352
G00 X251.6 Y70.397
G00 X251.601 Y85.461
G00 X259.896 Y85.718
G00 X259.999 Y88.522
G00 X269.173 Y87.562
G00 X272.406 Y86.288
G00 X274.726 Y84.535
G00 X276.453 Y81.413
G00 X277.118 Y77.13
G00 X276.427 Y73.159
G00 X274.679 Y70.546
G00 X271.384 Y68.691
G00 X266.469 Y67.697
G00 X253.757 Y67.551
G00 X248.802 Y67.655
G00 X248.8 Y67.911
G00 X248.801 Y67.911
G00 X248.801 Y86.45
G00 X248.798 Y86.619
G00 X248.796 Y86.694
G00 X248.73 Y88.224
G00 X249.232 Y88.204
G00 X249.378 Y88.201
G00 X249.524 Y88.2
G00 X249.67 Y88.202
G00 X259.999 Y88.522
G00 X260.101 Y91.327
G00 X269.843 Y90.308
G00 X273.79 Y88.753
G00 X276.888 Y86.41
G00 X279.144 Y82.333
G00 X279.956 Y77.104
G00 X279.084 Y72.094
G00 X276.634 Y68.434
G00 X272.373 Y66.034
G00 X266.766 Y64.901
G00 X253.74 Y64.751
G00 X246.024 Y64.913
G00 X246 Y67.911
G00 X246 Y86.45
G00 X245.998 Y86.573
G00 X245.85 Y90.019
G00 X246.062 Y90.979
G00 X246.418 Y91.114
G00 X249.339 Y91.003
G00 X249.437 Y91.001
G00 X249.534 Y91
G00 X249.63 Y91.002
G00 X260.101 Y91.327
G00 X260.213 Y94.131
G00 X270.513 Y93.053
G00 X275.173 Y91.217
G00 X279.051 Y88.285
G00 X281.835 Y83.254
G00 X282.794 Y77.079
G00 X281.74 Y71.029
G00 X278.59 Y66.322
G00 X273.361 Y63.377
G00 X267.062 Y62.104
G00 X253.724 Y61.95
G00 X244.688 Y62.14
G00 X243.675 Y62.814
G00 X243.231 Y63.967
G00 X243.2 Y67.911
G00 X243.2 Y86.45
G00 X243.199 Y86.511
G00 X243.036 Y90.265
G00 X243.654 Y93.059
G00 X245.956 Y93.934
G00 X249.446 Y93.801
G00 X249.543 Y93.8
;Nearing path end, moving to preshutoff position
G00 X251.398 Y93.858
M107 ;Pump off
G00 X260.204 Y94.132
G00 X260.213 Y94.131
G4 P250 ;Pause for 250 milliseconds
;Completed path #4/10 on color #3
;Starting fill path #5/10, segments: 131, length: 1652, color #3
G00 X268.305 Y130.535
M106 ;Pump on
G4 P350 ;Pause for 350 milliseconds
G00 X268.618 Y129.755
G00 X268.605 Y129.422
G00 X266.874 Y129.093
G00 X260.001 Y129.123
G00 X260.001 Y131.391
G00 X263.557 Y131.45
G00 X267.242 Y131.114
G00 X267.844 Y130.932
G00 X268.305 Y130.535
G00 X270.651 Y132.211
G00 X271.44 Y130.241
G00 X271.358 Y128.19
G00 X270.749 Y127.149
G00 X270.323 Y126.899
G00 X267.131 Y126.291
G00 X257.2 Y126.335
G00 X257.201 Y134.146
G00 X263.662 Y134.252
G00 X267.778 Y133.877
G00 X269.222 Y133.441
G00 X270.651 Y132.211
G00 X272.995 Y133.887
G00 X274.262 Y130.727
G00 X274.128 Y127.38
G00 X272.798 Y125.106
G00 X271.325 Y124.239
G00 X267.388 Y123.49
G00 X254.4 Y123.548
G00 X254.401 Y136.9
G00 X263.766 Y137.054
G00 X268.315 Y136.64
G00 X270.599 Y135.95
G00 X272.995 Y133.887
G00 X275.34 Y135.562
G00 X277.083 Y131.214
G00 X276.898 Y126.57
G00 X274.847 Y123.063
G00 X272.327 Y121.579
G00 X267.645 Y120.688
G00 X253.744 Y120.751
G00 X253.569 Y120.749
G00 X253.401 Y120.746
G00 X253.212 Y120.738
G00 X251.599 Y120.646
G00 X251.601 Y139.655
G00 X263.871 Y139.857
G00 X268.851 Y139.403
G00 X271.977 Y138.459
G00 X275.34 Y135.562
G00 X277.685 Y137.238
G00 X279.905 Y131.7
G00 X279.668 Y125.76
G00 X276.895 Y121.02
G00 X273.329 Y118.92
G00 X267.903 Y117.887
G00 X253.731 Y117.95
G00 X253.597 Y117.949
G00 X253.466 Y117.946
G00 X253.334 Y117.94
G00 X248.78 Y117.682
G00 X248.759 Y117.684
G00 X248.798 Y119.135
G00 X248.8 Y119.247
G00 X248.801 Y140.35
G00 X248.798 Y140.527
G00 X248.715 Y142.553
G00 X250.947 Y142.456
G00 X251.08 Y142.452
G00 X251.205 Y142.451
G00 X251.319 Y142.45
G00 X263.975 Y142.659
G00 X269.388 Y142.166
G00 X273.354 Y140.968
G00 X277.685 Y137.238
G00 X280.03 Y138.914
G00 X282.726 Y132.186
G00 X282.438 Y124.95
G00 X278.944 Y118.977
G00 X274.331 Y116.26
G00 X268.16 Y115.085
G00 X253.719 Y115.15
G00 X253.629 Y115.149
G00 X253.543 Y115.147
G00 X253.462 Y115.143
G00 X248.692 Y114.872
G00 X245.907 Y115.203
G00 X245.893 Y115.265
G00 X245.999 Y119.21
G00 X246 Y119.285
G00 X246 Y140.35
G00 X245.998 Y140.473
G00 X245.852 Y144.042
G00 X246.12 Y145.049
G00 X247.271 Y145.418
G00 X251.068 Y145.254
G00 X251.155 Y145.251
G00 X251.239 Y145.25
G00 X251.319 Y145.25
G00 X264.079 Y145.461
G00 X269.924 Y144.929
G00 X274.732 Y143.477
G00 X280.03 Y138.914
G00 X282.375 Y140.59
G00 X285.548 Y132.673
G00 X285.208 Y124.14
G00 X280.993 Y116.934
G00 X275.333 Y113.6
G00 X268.425 Y112.285
G00 X268.414 Y112.284
G00 X253.706 Y112.35
G00 X253.621 Y112.348
G00 X248.605 Y112.063
G00 X248.603 Y112.063
G00 X244.235 Y112.582
G00 X243.443 Y113.386
G00 X243.085 Y114.994
G00 X243.199 Y119.285
G00 X243.2 Y140.35
G00 X243.199 Y140.408
G00 X243.037 Y144.351
G00 X243.808 Y147.248
G00 X246.892 Y148.238
G00 X251.189 Y148.051
G00 X251.273 Y148.05
G00 X264.16 Y148.263
G00 X264.198 Y148.262
G00 X270.446 Y147.693
G00 X270.467 Y147.69
;Nearing path end, moving to preshutoff position
G00 X275.582 Y146.146
M107 ;Pump off
G00 X276.109 Y145.986
G00 X282.375 Y140.59
G4 P250 ;Pause for 250 milliseconds
;Completed path #5/10 on color #3
;Starting fill path #6/10, segments: 105, length: 685, color #3
G00 X314.713 Y42.001
M106 ;Pump on
G4 P350 ;Pause for 350 milliseconds
G00 X326.499 Y42.001
G00 X326.499 Y113.103
G00 X324.754 Y108.471
G00 X324.627 Y108.16
G00 X324.497 Y107.854
G00 X324.358 Y107.542
G00 X324.153 Y107.099
G00 X323.989 Y106.768
G00 X323.839 Y106.474
G00 X323.686 Y106.189
G00 X323.461 Y105.785
G00 X323.308 Y105.521
G00 X323.137 Y105.237
G00 X322.976 Y104.979
G00 X322.731 Y104.6
G00 X322.566 Y104.354
G00 X322.463 Y104.204
G00 X319.779 Y100.341
G00 X322.74 Y94.828
G00 X322.815 Y94.683
G00 X322.941 Y94.433
G00 X323.075 Y94.155
G00 X323.239 Y93.806
G00 X323.435 Y93.36
G00 X323.558 Y93.068
G00 X323.682 Y92.756
G00 X323.8 Y92.446
G00 X323.96 Y92.004
G00 X324.071 Y91.679
G00 X324.162 Y91.395
G00 X324.221 Y91.201
G00 X324.33 Y90.832
G00 X324.414 Y90.526
G00 X324.483 Y90.263
G00 X324.59 Y89.827
G00 X324.665 Y89.494
G00 X324.718 Y89.237
G00 X324.775 Y88.95
G00 X324.841 Y88.584
G00 X324.883 Y88.327
G00 X324.925 Y88.055
G00 X324.962 Y87.782
G00 X326.329 Y77.319
G00 X326.338 Y77.246
G00 X326.375 Y76.885
G00 X326.403 Y76.562
G00 X326.425 Y76.257
G00 X326.449 Y75.819
G00 X326.461 Y75.492
G00 X326.467 Y75.221
G00 X326.469 Y74.948
G00 X326.467 Y74.568
G00 X326.458 Y74.237
G00 X326.442 Y73.828
G00 X326.422 Y73.493
G00 X326.395 Y73.149
G00 X326.35 Y72.667
G00 X326.303 Y72.264
G00 X326.247 Y71.854
G00 X326.193 Y71.5
G00 X326.145 Y71.218
G00 X326.088 Y70.908
G00 X323.799 Y59.076
G00 X323.785 Y59.008
G00 X323.708 Y58.659
G00 X323.625 Y58.31
G00 X323.539 Y57.978
G00 X323.42 Y57.544
G00 X323.323 Y57.214
G00 X323.223 Y56.898
G00 X323.111 Y56.561
G00 X322.959 Y56.131
G00 X322.85 Y55.84
G00 X322.734 Y55.543
G00 X322.601 Y55.22
G00 X322.424 Y54.81
G00 X322.292 Y54.518
G00 X322.164 Y54.248
G00 X322.05 Y54.016
G00 X321.846 Y53.614
G00 X321.697 Y53.336
G00 X321.522 Y53.017
G00 X317.264 Y45.488
G00 X317.055 Y45.14
G00 X316.793 Y44.721
G00 X316.6 Y44.427
G00 X316.419 Y44.16
G00 X316.223 Y43.881
G00 X316.057 Y43.652
G00 X315.807 Y43.318
G00 X315.586 Y43.033
G00 X315.4 Y42.801
G00 X315.255 Y42.625
G00 X315.001 Y42.326
G00 X314.752 Y42.043
G00 X314.713 Y42.001
G00 X320.093 Y44.802
G00 X323.699 Y44.802
G00 X323.699 Y51.177
G00 X320.093 Y44.802
;Nearing path end, moving to preshutoff position
G00 X323.418 Y94.741
M107 ;Pump off
G00 X323.699 Y98.962
G00 X323.699 Y101.076
G00 X323.058 Y100.154
G00 X323.699 Y98.962
G4 P250 ;Pause for 250 milliseconds
;Completed path #6/10 on color #3
;Starting fill path #7/10, segments: 2269, length: 15333, color #3
G00 X298.503 Y157.629
M106 ;Pump on
G4 P350 ;Pause for 350 milliseconds
G00 X298.43 Y157.694
G00 X298.409 Y157.712
G00 X298.346 Y157.762
G00 X292.501 Y162.116
G00 X292.459 Y162.146
G00 X292.376 Y162.199
G00 X292.291 Y162.245
G00 X292.27 Y162.255
G00 X292.201 Y162.288
G00 X285.418 Y165.231
G00 X285.338 Y165.263
G00 X285.314 Y165.271
G00 X285.3 Y165.276
G00 X285.207 Y165.305
G00 X285.112 Y165.327
G00 X273.327 Y167.665
G00 X273.249 Y167.678
G00 X273.152 Y167.689
G00 X273.128 Y167.689
G00 X273.128 Y167.69
G00 X260.965 Y168.386
G00 X260.863 Y168.388
G00 X236.549 Y168
G00 X225.367 Y168
G00 X223.047 Y167.958
G00 X223.019 Y167.958
G00 X222.909 Y167.954
G00 X222.812 Y167.943
G00 X222.716 Y167.925
G00 X222.622 Y167.901
G00 X222.53 Y167.87
G00 X222.44 Y167.833
G00 X222.352 Y167.79
G00 X220.392 Y166.729
G00 X220.306 Y166.678
G00 X220.226 Y166.622
G00 X220.15 Y166.562
G00 X220.078 Y166.496
G00 X220.011 Y166.425
G00 X219.949 Y166.35
G00 X219.892 Y166.271
G00 X219.841 Y166.188
G00 X219.796 Y166.102
G00 X219.757 Y166.012
G00 X219.725 Y165.921
G00 X219.698 Y165.827
G00 X219.678 Y165.732
G00 X219.672 Y165.681
G00 X219.67 Y165.668
G00 X219.064 Y160.846
G00 X219.065 Y160.846
G00 X219.053 Y160.747
G00 X219.05 Y160.65
G00 X219.05 Y47.659
G00 X219.052 Y47.584
G00 X219.059 Y47.458
G00 X219.067 Y47.364
G00 X219.354 Y45.009
G00 X219.371 Y44.903
G00 X219.381 Y44.851
G00 X219.382 Y44.851
G00 X219.39 Y44.807
G00 X219.416 Y44.713
G00 X219.447 Y44.621
G00 X219.485 Y44.531
G00 X219.529 Y44.444
G00 X219.58 Y44.361
G00 X219.635 Y44.281
G00 X219.696 Y44.205
G00 X219.763 Y44.134
G00 X219.834 Y44.067
G00 X221.626 Y42.503
G00 X221.672 Y42.464
G00 X221.75 Y42.406
G00 X221.832 Y42.353
G00 X221.918 Y42.307
G00 X222.006 Y42.266
G00 X222.097 Y42.232
G00 X222.118 Y42.225
G00 X222.183 Y42.204
G00 X222.277 Y42.181
G00 X222.373 Y42.164
G00 X222.47 Y42.154
G00 X222.567 Y42.15
G00 X222.575 Y42.15
G00 X230.223 Y42
G00 X246.698 Y42
G00 X262.455 Y41.975
G00 X262.556 Y41.979
G00 X262.609 Y41.983
G00 X279.132 Y43.603
G00 X279.264 Y43.622
G00 X279.281 Y43.625
G00 X279.401 Y43.654
G00 X287.018 Y45.86
G00 X287.134 Y45.899
G00 X287.197 Y45.923
G00 X287.255 Y45.947
G00 X287.342 Y45.99
G00 X294.129 Y49.556
G00 X294.219 Y49.608
G00 X294.3 Y49.662
G00 X294.338 Y49.69
G00 X294.399 Y49.737
G00 X294.472 Y49.801
G00 X300.08 Y55.048
G00 X300.122 Y55.09
G00 X300.188 Y55.161
G00 X300.249 Y55.238
G00 X300.304 Y55.318
G00 X300.328 Y55.356
G00 X300.366 Y55.42
G00 X304.458 Y62.661
G00 X304.488 Y62.717
G00 X304.529 Y62.805
G00 X304.564 Y62.897
G00 X304.592 Y62.99
G00 X304.614 Y63.085
G00 X306.843 Y74.627
G00 X306.852 Y74.677
G00 X306.864 Y74.773
G00 X306.868 Y74.87
G00 X306.868 Y74.882
G00 X306.869 Y74.894
G00 X306.866 Y74.992
G00 X306.857 Y75.089
G00 X305.527 Y85.239
G00 X305.516 Y85.307
G00 X305.495 Y85.402
G00 X305.48 Y85.457
G00 X305.468 Y85.502
G00 X305.438 Y85.595
G00 X305.401 Y85.685
G00 X305.358 Y85.772
G00 X300.507 Y94.799
G00 X300.501 Y94.808
G00 X300.475 Y94.857
G00 X300.423 Y94.94
G00 X300.365 Y95.018
G00 X300.302 Y95.092
G00 X300.234 Y95.162
G00 X300.161 Y95.227
G00 X295.846 Y98.812
G00 X293.862 Y100.64
G00 X293.294 Y101.78
G00 X294.42 Y103.593
G00 X297.087 Y105.197
G00 X297.1 Y105.205
G00 X297.163 Y105.242
G00 X297.243 Y105.298
G00 X297.319 Y105.359
G00 X302.334 Y109.664
G00 X302.412 Y109.736
G00 X302.423 Y109.747
G00 X302.512 Y109.844
G00 X302.571 Y109.921
G00 X302.592 Y109.952
G00 X306.363 Y115.384
G00 X306.366 Y115.387
G00 X306.411 Y115.453
G00 X306.46 Y115.537
G00 X306.504 Y115.624
G00 X306.541 Y115.714
G00 X309.194 Y122.767
G00 X309.236 Y122.896
G00 X309.258 Y122.991
G00 X309.273 Y123.087
G00 X310.169 Y130.315
G00 X310.175 Y130.374
G00 X310.182 Y130.461
G00 X310.186 Y130.518
G00 X310.186 Y130.616
G00 X310.18 Y130.713
G00 X309.466 Y137.899
G00 X309.45 Y138.009
G00 X309.436 Y138.086
G00 X309.419 Y138.167
G00 X309.393 Y138.261
G00 X307.195 Y145.184
G00 X307.156 Y145.29
G00 X307.135 Y145.337
G00 X307.123 Y145.364
G00 X307.119 Y145.373
G00 X307.116 Y145.379
G00 X307.107 Y145.396
G00 X307.079 Y145.451
G00 X303.533 Y151.789
G00 X303.488 Y151.864
G00 X303.486 Y151.867
G00 X303.472 Y151.892
G00 X303.416 Y151.972
G00 X303.355 Y152.048
G00 X298.588 Y157.539
G00 X298.503 Y157.629
G00 X300.373 Y159.713
G00 X300.3 Y159.778
G00 X300.23 Y159.84
G00 X300.209 Y159.857
G00 X300.147 Y159.907
G00 X300.084 Y159.958
G00 X300.019 Y160.007
G00 X294.174 Y164.361
G00 X294.095 Y164.419
G00 X293.964 Y164.507
G00 X293.882 Y164.559
G00 X293.714 Y164.659
G00 X293.628 Y164.705
G00 X293.543 Y164.75
G00 X293.522 Y164.76
G00 X293.457 Y164.792
G00 X293.388 Y164.824
G00 X293.316 Y164.856
G00 X286.533 Y167.8
G00 X286.45 Y167.834
G00 X286.37 Y167.866
G00 X286.324 Y167.882
G00 X286.318 Y167.885
G00 X286.3 Y167.891
G00 X286.201 Y167.927
G00 X286.177 Y167.934
G00 X286.177 Y167.934
G00 X286.127 Y167.951
G00 X286.034 Y167.98
G00 X285.849 Y168.03
G00 X285.754 Y168.053
G00 X285.657 Y168.074
G00 X273.872 Y170.412
G00 X273.793 Y170.426
G00 X273.715 Y170.439
G00 X273.541 Y170.463
G00 X273.444 Y170.474
G00 X273.369 Y170.48
G00 X273.288 Y170.484
G00 X273.288 Y170.485
G00 X261.126 Y171.182
G00 X261.021 Y171.186
G00 X260.919 Y171.188
G00 X260.818 Y171.188
G00 X236.525 Y170.8
G00 X225.367 Y170.8
G00 X223.034 Y170.758
G00 X223.019 Y170.758
G00 X222.907 Y170.756
G00 X222.797 Y170.752
G00 X222.598 Y170.736
G00 X222.501 Y170.726
G00 X222.431 Y170.717
G00 X222.295 Y170.695
G00 X222.199 Y170.677
G00 X222.017 Y170.636
G00 X221.922 Y170.612
G00 X221.734 Y170.556
G00 X221.641 Y170.525
G00 X221.468 Y170.461
G00 X221.378 Y170.424
G00 X221.195 Y170.341
G00 X221.108 Y170.298
G00 X221.02 Y170.252
G00 X219.06 Y169.191
G00 X218.966 Y169.138
G00 X218.879 Y169.087
G00 X218.719 Y168.985
G00 X218.639 Y168.93
G00 X218.483 Y168.814
G00 X218.406 Y168.753
G00 X218.259 Y168.627
G00 X218.188 Y168.562
G00 X218.045 Y168.422
G00 X217.978 Y168.351
G00 X217.854 Y168.211
G00 X217.792 Y168.136
G00 X217.669 Y167.977
G00 X217.613 Y167.898
G00 X217.509 Y167.74
G00 X217.457 Y167.657
G00 X217.358 Y167.483
G00 X217.313 Y167.397
G00 X217.229 Y167.22
G00 X217.19 Y167.131
G00 X217.119 Y166.951
G00 X217.086 Y166.859
G00 X217.029 Y166.68
G00 X217.003 Y166.586
G00 X216.955 Y166.391
G00 X216.936 Y166.296
G00 X216.905 Y166.117
G00 X216.896 Y166.054
G00 X216.286 Y161.194
G00 X216.284 Y161.172
G00 X216.272 Y161.074
G00 X216.263 Y160.982
G00 X216.255 Y160.845
G00 X216.251 Y160.748
G00 X216.25 Y160.65
G00 X216.25 Y47.659
G00 X216.251 Y47.584
G00 X216.253 Y47.509
G00 X216.256 Y47.434
G00 X216.263 Y47.308
G00 X216.27 Y47.207
G00 X216.278 Y47.113
G00 X216.288 Y47.025
G00 X216.575 Y44.67
G00 X216.588 Y44.573
G00 X216.605 Y44.467
G00 X216.625 Y44.354
G00 X216.645 Y44.258
G00 X216.688 Y44.075
G00 X216.713 Y43.981
G00 X216.766 Y43.807
G00 X216.798 Y43.715
G00 X216.868 Y43.531
G00 X216.906 Y43.441
G00 X216.992 Y43.256
G00 X217.037 Y43.169
G00 X217.128 Y43.005
G00 X217.178 Y42.922
G00 X217.283 Y42.758
G00 X217.339 Y42.678
G00 X217.457 Y42.521
G00 X217.518 Y42.445
G00 X217.645 Y42.299
G00 X217.711 Y42.228
G00 X217.847 Y42.091
G00 X217.918 Y42.025
G00 X217.992 Y41.958
G00 X219.784 Y40.394
G00 X219.88 Y40.313
G00 X219.995 Y40.222
G00 X220.073 Y40.163
G00 X220.24 Y40.048
G00 X220.322 Y39.995
G00 X220.491 Y39.895
G00 X220.577 Y39.848
G00 X220.748 Y39.762
G00 X220.836 Y39.722
G00 X221.022 Y39.645
G00 X221.113 Y39.61
G00 X221.199 Y39.58
G00 X221.22 Y39.572
G00 X221.344 Y39.533
G00 X221.511 Y39.486
G00 X221.605 Y39.463
G00 X221.79 Y39.423
G00 X221.886 Y39.406
G00 X222.081 Y39.379
G00 X222.178 Y39.369
G00 X222.373 Y39.355
G00 X222.47 Y39.352
G00 X230.168 Y39.201
G00 X246.694 Y39.2
G00 X262.45 Y39.175
G00 X262.558 Y39.177
G00 X262.659 Y39.181
G00 X262.754 Y39.186
G00 X262.807 Y39.19
G00 X262.882 Y39.196
G00 X279.405 Y40.816
G00 X279.536 Y40.832
G00 X279.668 Y40.851
G00 X279.803 Y40.874
G00 X279.82 Y40.878
G00 X279.941 Y40.904
G00 X280.061 Y40.933
G00 X280.18 Y40.965
G00 X287.796 Y43.17
G00 X287.917 Y43.208
G00 X288.033 Y43.247
G00 X288.144 Y43.288
G00 X288.207 Y43.312
G00 X288.323 Y43.359
G00 X288.472 Y43.426
G00 X288.56 Y43.468
G00 X288.645 Y43.511
G00 X295.432 Y47.078
G00 X295.525 Y47.129
G00 X295.615 Y47.181
G00 X295.777 Y47.281
G00 X295.858 Y47.336
G00 X295.945 Y47.396
G00 X295.983 Y47.424
G00 X296.05 Y47.474
G00 X296.111 Y47.521
G00 X296.243 Y47.63
G00 X296.316 Y47.694
G00 X296.386 Y47.757
G00 X301.993 Y53.003
G00 X302.078 Y53.086
G00 X302.183 Y53.194
G00 X302.249 Y53.266
G00 X302.296 Y53.318
G00 X302.384 Y53.424
G00 X302.445 Y53.5
G00 X302.556 Y53.651
G00 X302.611 Y53.731
G00 X302.665 Y53.813
G00 X302.69 Y53.851
G00 X302.763 Y53.971
G00 X302.804 Y54.042
G00 X306.896 Y61.284
G00 X306.959 Y61.399
G00 X307.028 Y61.54
G00 X307.069 Y61.628
G00 X307.144 Y61.804
G00 X307.179 Y61.895
G00 X307.242 Y62.079
G00 X307.27 Y62.172
G00 X307.322 Y62.366
G00 X307.344 Y62.461
G00 X307.363 Y62.554
G00 X309.593 Y74.096
G00 X309.611 Y74.201
G00 X309.631 Y74.335
G00 X309.643 Y74.432
G00 X309.661 Y74.637
G00 X309.665 Y74.734
G00 X309.668 Y74.813
G00 X309.668 Y74.824
G00 X309.668 Y74.834
G00 X309.668 Y74.972
G00 X309.665 Y75.07
G00 X309.654 Y75.255
G00 X309.645 Y75.352
G00 X309.633 Y75.452
G00 X308.303 Y85.603
G00 X308.292 Y85.679
G00 X308.281 Y85.747
G00 X308.253 Y85.901
G00 X308.232 Y85.996
G00 X308.186 Y86.178
G00 X308.183 Y86.19
G00 X308.168 Y86.247
G00 X308.128 Y86.379
G00 X308.097 Y86.472
G00 X308.029 Y86.657
G00 X307.992 Y86.747
G00 X307.909 Y86.929
G00 X307.866 Y87.017
G00 X307.824 Y87.098
G00 X302.973 Y96.124
G00 X302.963 Y96.141
G00 X302.941 Y96.183
G00 X302.844 Y96.349
G00 X302.792 Y96.432
G00 X302.752 Y96.493
G00 X302.673 Y96.606
G00 X302.615 Y96.684
G00 X302.499 Y96.831
G00 X302.436 Y96.905
G00 X302.311 Y97.043
G00 X302.243 Y97.112
G00 X302.194 Y97.162
G00 X302.094 Y97.255
G00 X302.021 Y97.32
G00 X301.951 Y97.38
G00 X297.691 Y100.92
G00 X296.79 Y101.751
G00 X298.51 Y102.786
G00 X298.55 Y102.809
G00 X298.613 Y102.847
G00 X298.756 Y102.94
G00 X298.836 Y102.995
G00 X298.991 Y103.11
G00 X299.067 Y103.171
G00 X299.142 Y103.234
G00 X304.158 Y107.539
G00 X304.237 Y107.609
G00 X304.315 Y107.682
G00 X304.392 Y107.756
G00 X304.403 Y107.767
G00 X304.494 Y107.862
G00 X304.583 Y107.96
G00 X304.641 Y108.026
G00 X304.728 Y108.133
G00 X304.788 Y108.21
G00 X304.901 Y108.368
G00 X304.909 Y108.379
G00 X308.663 Y113.787
G00 X308.723 Y113.874
G00 X308.821 Y114.028
G00 X308.87 Y114.112
G00 X308.963 Y114.281
G00 X309.006 Y114.368
G00 X309.091 Y114.554
G00 X309.128 Y114.644
G00 X309.162 Y114.728
G00 X311.815 Y121.781
G00 X311.859 Y121.909
G00 X311.901 Y122.038
G00 X311.929 Y122.13
G00 X311.963 Y122.263
G00 X311.985 Y122.358
G00 X312.023 Y122.553
G00 X312.038 Y122.649
G00 X312.052 Y122.743
G00 X312.948 Y129.97
G00 X312.96 Y130.085
G00 X312.973 Y130.234
G00 X312.98 Y130.338
G00 X312.986 Y130.509
G00 X312.986 Y130.606
G00 X312.981 Y130.791
G00 X312.975 Y130.888
G00 X312.966 Y130.99
G00 X312.252 Y138.176
G00 X312.239 Y138.29
G00 X312.223 Y138.4
G00 X312.206 Y138.507
G00 X312.192 Y138.584
G00 X312.175 Y138.67
G00 X312.158 Y138.751
G00 X312.117 Y138.917
G00 X312.091 Y139.011
G00 X312.062 Y139.108
G00 X309.864 Y146.031
G00 X309.827 Y146.139
G00 X309.788 Y146.245
G00 X309.716 Y146.424
G00 X309.684 Y146.498
G00 X309.614 Y146.644
G00 X309.57 Y146.73
G00 X309.523 Y146.817
G00 X305.977 Y153.156
G00 X305.938 Y153.224
G00 X305.876 Y153.327
G00 X305.768 Y153.495
G00 X305.713 Y153.574
G00 X305.594 Y153.732
G00 X305.533 Y153.807
G00 X305.47 Y153.883
G00 X300.703 Y159.375
G00 X300.617 Y159.469
G00 X300.532 Y159.559
G00 X300.473 Y159.619
G00 X300.373 Y159.713
G00 X302.293 Y161.751
G00 X302.17 Y161.863
G00 X302.068 Y161.952
G00 X302.005 Y162.005
G00 X301.922 Y162.073
G00 X301.821 Y162.153
G00 X301.721 Y162.231
G00 X295.846 Y166.607
G00 X295.745 Y166.681
G00 X295.662 Y166.739
G00 X295.531 Y166.827
G00 X295.47 Y166.867
G00 X295.388 Y166.92
G00 X295.308 Y166.969
G00 X295.139 Y167.069
G00 X295.051 Y167.119
G00 X294.966 Y167.165
G00 X294.834 Y167.234
G00 X294.768 Y167.268
G00 X294.681 Y167.31
G00 X294.575 Y167.36
G00 X294.466 Y167.409
G00 X287.647 Y170.368
G00 X287.525 Y170.42
G00 X287.402 Y170.468
G00 X287.318 Y170.5
G00 X287.149 Y170.561
G00 X287.016 Y170.607
G00 X286.861 Y170.655
G00 X286.768 Y170.683
G00 X286.583 Y170.733
G00 X286.492 Y170.756
G00 X286.397 Y170.778
G00 X286.255 Y170.81
G00 X274.417 Y173.159
G00 X274.29 Y173.182
G00 X274.181 Y173.2
G00 X274.099 Y173.213
G00 X273.925 Y173.237
G00 X273.834 Y173.248
G00 X273.737 Y173.259
G00 X273.617 Y173.269
G00 X273.51 Y173.277
G00 X273.438 Y173.281
G00 X261.286 Y173.977
G00 X261.13 Y173.984
G00 X260.974 Y173.987
G00 X260.828 Y173.988
G00 X236.502 Y173.601
G00 X225.367 Y173.601
G00 X222.857 Y173.556
G00 X222.685 Y173.549
G00 X222.584 Y173.544
G00 X222.384 Y173.528
G00 X222.286 Y173.519
G00 X222.189 Y173.508
G00 X222.095 Y173.497
G00 X221.976 Y173.48
G00 X221.84 Y173.458
G00 X221.682 Y173.429
G00 X221.591 Y173.41
G00 X221.408 Y173.369
G00 X221.317 Y173.347
G00 X221.222 Y173.323
G00 X221.131 Y173.298
G00 X220.943 Y173.242
G00 X220.845 Y173.212
G00 X220.753 Y173.181
G00 X220.663 Y173.149
G00 X220.489 Y173.084
G00 X220.406 Y173.052
G00 X220.316 Y173.015
G00 X220.223 Y172.975
G00 X220.04 Y172.892
G00 X219.951 Y172.849
G00 X219.864 Y172.806
G00 X219.733 Y172.739
G00 X217.727 Y171.654
G00 X217.588 Y171.576
G00 X217.452 Y171.496
G00 X217.37 Y171.446
G00 X217.21 Y171.343
G00 X217.133 Y171.292
G00 X217.052 Y171.237
G00 X216.973 Y171.18
G00 X216.817 Y171.064
G00 X216.739 Y171.005
G00 X216.663 Y170.944
G00 X216.587 Y170.881
G00 X216.44 Y170.756
G00 X216.369 Y170.693
G00 X216.297 Y170.627
G00 X216.227 Y170.561
G00 X216.084 Y170.421
G00 X216.012 Y170.348
G00 X215.945 Y170.277
G00 X215.882 Y170.208
G00 X215.758 Y170.068
G00 X215.697 Y169.997
G00 X215.635 Y169.922
G00 X215.574 Y169.845
G00 X215.451 Y169.686
G00 X215.39 Y169.604
G00 X215.334 Y169.525
G00 X215.278 Y169.444
G00 X215.174 Y169.287
G00 X215.125 Y169.21
G00 X215.074 Y169.127
G00 X215.024 Y169.042
G00 X214.924 Y168.868
G00 X214.875 Y168.778
G00 X214.83 Y168.691
G00 X214.787 Y168.604
G00 X214.702 Y168.428
G00 X214.662 Y168.339
G00 X214.623 Y168.249
G00 X214.585 Y168.159
G00 X214.514 Y167.979
G00 X214.48 Y167.889
G00 X214.448 Y167.797
G00 X214.417 Y167.707
G00 X214.36 Y167.527
G00 X214.334 Y167.439
G00 X214.308 Y167.345
G00 X214.282 Y167.249
G00 X214.235 Y167.054
G00 X214.213 Y166.956
G00 X214.193 Y166.86
G00 X214.177 Y166.772
G00 X214.146 Y166.594
G00 X214.132 Y166.503
G00 X214.123 Y166.44
G00 X213.508 Y161.543
G00 X213.5 Y161.471
G00 X213.491 Y161.4
G00 X213.478 Y161.272
G00 X213.468 Y161.148
G00 X213.46 Y161.01
G00 X213.453 Y160.845
G00 X213.45 Y160.699
G00 X213.449 Y47.659
G00 X213.451 Y47.546
G00 X213.453 Y47.433
G00 X213.458 Y47.32
G00 X213.466 Y47.157
G00 X213.478 Y47
G00 X213.49 Y46.862
G00 X213.503 Y46.736
G00 X213.795 Y44.331
G00 X213.815 Y44.185
G00 X213.839 Y44.031
G00 X213.869 Y43.859
G00 X213.899 Y43.709
G00 X213.919 Y43.617
G00 X213.962 Y43.434
G00 X213.985 Y43.343
G00 X214.01 Y43.249
G00 X214.035 Y43.163
G00 X214.088 Y42.989
G00 X214.117 Y42.901
G00 X214.148 Y42.809
G00 X214.182 Y42.715
G00 X214.253 Y42.53
G00 X214.289 Y42.44
G00 X214.327 Y42.351
G00 X214.368 Y42.258
G00 X214.455 Y42.073
G00 X214.5 Y41.98
G00 X214.544 Y41.893
G00 X214.588 Y41.81
G00 X214.679 Y41.647
G00 X214.726 Y41.566
G00 X214.776 Y41.483
G00 X214.825 Y41.402
G00 X214.931 Y41.239
G00 X214.987 Y41.155
G00 X215.043 Y41.076
G00 X215.101 Y40.995
G00 X215.219 Y40.838
G00 X215.279 Y40.761
G00 X215.34 Y40.686
G00 X215.401 Y40.613
G00 X215.527 Y40.467
G00 X215.593 Y40.394
G00 X215.659 Y40.322
G00 X215.726 Y40.253
G00 X215.862 Y40.116
G00 X215.932 Y40.049
G00 X216.002 Y39.982
G00 X216.12 Y39.876
G00 X217.943 Y38.284
G00 X218.074 Y38.173
G00 X218.145 Y38.115
G00 X218.26 Y38.024
G00 X218.319 Y37.979
G00 X218.397 Y37.921
G00 X218.478 Y37.862
G00 X218.645 Y37.747
G00 X218.73 Y37.69
G00 X218.812 Y37.638
G00 X218.895 Y37.586
G00 X219.065 Y37.486
G00 X219.15 Y37.437
G00 X219.236 Y37.39
G00 X219.319 Y37.347
G00 X219.49 Y37.261
G00 X219.578 Y37.218
G00 X219.667 Y37.178
G00 X219.761 Y37.137
G00 X219.946 Y37.059
G00 X220.038 Y37.023
G00 X220.129 Y36.989
G00 X220.255 Y36.944
G00 X220.338 Y36.915
G00 X220.482 Y36.868
G00 X220.589 Y36.836
G00 X220.756 Y36.789
G00 X220.838 Y36.768
G00 X220.933 Y36.744
G00 X221.024 Y36.723
G00 X221.21 Y36.684
G00 X221.303 Y36.666
G00 X221.399 Y36.649
G00 X221.496 Y36.634
G00 X221.691 Y36.606
G00 X221.789 Y36.594
G00 X221.886 Y36.584
G00 X221.984 Y36.575
G00 X222.178 Y36.562
G00 X222.275 Y36.557
G00 X222.372 Y36.553
G00 X230.113 Y36.401
G00 X246.689 Y36.4
G00 X262.446 Y36.375
G00 X262.611 Y36.378
G00 X262.762 Y36.383
G00 X262.904 Y36.39
G00 X263.005 Y36.397
G00 X263.121 Y36.406
G00 X279.678 Y38.029
G00 X279.874 Y38.052
G00 X280.072 Y38.081
G00 X280.274 Y38.114
G00 X280.359 Y38.13
G00 X280.54 Y38.169
G00 X280.72 Y38.212
G00 X280.895 Y38.258
G00 X288.575 Y40.48
G00 X288.755 Y40.536
G00 X288.933 Y40.595
G00 X289.104 Y40.657
G00 X289.218 Y40.701
G00 X289.378 Y40.765
G00 X289.465 Y40.802
G00 X289.614 Y40.869
G00 X289.689 Y40.904
G00 X289.777 Y40.946
G00 X289.905 Y41.01
G00 X296.734 Y44.599
G00 X296.876 Y44.676
G00 X297.011 Y44.754
G00 X297.095 Y44.804
G00 X297.257 Y44.905
G00 X297.334 Y44.955
G00 X297.415 Y45.009
G00 X297.539 Y45.094
G00 X297.628 Y45.157
G00 X297.732 Y45.235
G00 X297.822 Y45.305
G00 X297.891 Y45.359
G00 X298.023 Y45.468
G00 X298.087 Y45.523
G00 X298.16 Y45.587
G00 X298.262 Y45.678
G00 X303.906 Y50.959
G00 X304.026 Y51.074
G00 X304.086 Y51.135
G00 X304.191 Y51.243
G00 X304.244 Y51.299
G00 X304.31 Y51.37
G00 X304.381 Y51.449
G00 X304.447 Y51.526
G00 X304.535 Y51.631
G00 X304.58 Y51.687
G00 X304.641 Y51.763
G00 X304.699 Y51.839
G00 X304.81 Y51.99
G00 X304.863 Y52.064
G00 X304.918 Y52.145
G00 X304.997 Y52.262
G00 X305.051 Y52.347
G00 X305.153 Y52.513
G00 X305.222 Y52.631
G00 X309.334 Y59.906
G00 X309.42 Y60.064
G00 X309.465 Y60.152
G00 X309.535 Y60.292
G00 X309.569 Y60.362
G00 X309.61 Y60.45
G00 X309.649 Y60.539
G00 X309.724 Y60.715
G00 X309.759 Y60.803
G00 X309.794 Y60.894
G00 X309.827 Y60.985
G00 X309.89 Y61.168
G00 X309.92 Y61.261
G00 X309.948 Y61.354
G00 X309.976 Y61.449
G00 X310.027 Y61.643
G00 X310.052 Y61.742
G00 X310.073 Y61.837
G00 X310.103 Y61.974
G00 X312.342 Y73.565
G00 X312.368 Y73.709
G00 X312.382 Y73.796
G00 X312.402 Y73.93
G00 X312.422 Y74.09
G00 X312.433 Y74.192
G00 X312.45 Y74.397
G00 X312.457 Y74.5
G00 X312.462 Y74.597
G00 X312.467 Y74.75
G00 X312.469 Y74.841
G00 X312.468 Y74.979
G00 X312.467 Y75.05
G00 X312.464 Y75.148
G00 X312.46 Y75.244
G00 X312.449 Y75.429
G00 X312.441 Y75.518
G00 X312.432 Y75.615
G00 X312.416 Y75.762
G00 X311.08 Y85.966
G00 X311.063 Y86.084
G00 X311.047 Y86.188
G00 X311.034 Y86.262
G00 X311.005 Y86.416
G00 X310.989 Y86.495
G00 X310.969 Y86.59
G00 X310.947 Y86.684
G00 X310.9 Y86.866
G00 X310.874 Y86.964
G00 X310.848 Y87.058
G00 X310.808 Y87.19
G00 X310.787 Y87.256
G00 X310.757 Y87.349
G00 X310.723 Y87.443
G00 X310.655 Y87.628
G00 X310.62 Y87.718
G00 X310.583 Y87.809
G00 X310.543 Y87.902
G00 X310.46 Y88.084
G00 X310.418 Y88.174
G00 X310.374 Y88.261
G00 X310.316 Y88.375
G00 X305.44 Y97.45
G00 X305.417 Y97.492
G00 X305.408 Y97.507
G00 X305.359 Y97.596
G00 X305.261 Y97.762
G00 X305.213 Y97.841
G00 X305.162 Y97.924
G00 X305.104 Y98.013
G00 X305.044 Y98.103
G00 X304.964 Y98.216
G00 X304.924 Y98.272
G00 X304.866 Y98.35
G00 X304.81 Y98.423
G00 X304.694 Y98.569
G00 X304.634 Y98.643
G00 X304.571 Y98.717
G00 X304.508 Y98.788
G00 X304.383 Y98.926
G00 X304.32 Y98.993
G00 X304.252 Y99.063
G00 X304.181 Y99.135
G00 X304.104 Y99.209
G00 X304.004 Y99.303
G00 X303.881 Y99.413
G00 X303.777 Y99.504
G00 X301.398 Y101.48
G00 X305.982 Y105.414
G00 X306.102 Y105.521
G00 X306.219 Y105.628
G00 X306.336 Y105.741
G00 X306.411 Y105.815
G00 X306.513 Y105.921
G00 X306.566 Y105.978
G00 X306.654 Y106.075
G00 X306.746 Y106.179
G00 X306.814 Y106.259
G00 X306.901 Y106.366
G00 X306.945 Y106.422
G00 X307.005 Y106.499
G00 X307.064 Y106.579
G00 X307.177 Y106.737
G00 X310.963 Y112.19
G00 X311.033 Y112.292
G00 X311.085 Y112.371
G00 X311.184 Y112.526
G00 X311.231 Y112.604
G00 X311.281 Y112.687
G00 X311.328 Y112.77
G00 X311.42 Y112.939
G00 X311.465 Y113.025
G00 X311.509 Y113.112
G00 X311.553 Y113.205
G00 X311.638 Y113.391
G00 X311.679 Y113.484
G00 X311.716 Y113.574
G00 X311.766 Y113.699
G00 X314.435 Y120.795
G00 X314.502 Y120.983
G00 X314.525 Y121.05
G00 X314.566 Y121.18
G00 X314.609 Y121.319
G00 X314.639 Y121.426
G00 X314.674 Y121.559
G00 X314.691 Y121.629
G00 X314.713 Y121.724
G00 X314.734 Y121.823
G00 X314.772 Y122.018
G00 X314.789 Y122.114
G00 X314.804 Y122.211
G00 X314.824 Y122.352
G00 X315.727 Y129.626
G00 X315.744 Y129.783
G00 X315.763 Y129.998
G00 X315.773 Y130.147
G00 X315.778 Y130.238
G00 X315.784 Y130.409
G00 X315.786 Y130.499
G00 X315.787 Y130.596
G00 X315.785 Y130.688
G00 X315.78 Y130.873
G00 X315.776 Y130.967
G00 X315.77 Y131.064
G00 X315.757 Y131.223
G00 X315.038 Y138.453
G00 X315.019 Y138.62
G00 X314.996 Y138.791
G00 X314.97 Y138.954
G00 X314.947 Y139.082
G00 X314.923 Y139.209
G00 X314.896 Y139.335
G00 X314.877 Y139.418
G00 X314.836 Y139.584
G00 X314.815 Y139.667
G00 X314.789 Y139.76
G00 X314.745 Y139.909
G00 X312.533 Y146.878
G00 X312.477 Y147.044
G00 X312.42 Y147.201
G00 X312.386 Y147.291
G00 X312.314 Y147.469
G00 X312.277 Y147.558
G00 X312.244 Y147.632
G00 X312.211 Y147.703
G00 X312.142 Y147.849
G00 X312.105 Y147.923
G00 X312.06 Y148.01
G00 X311.992 Y148.138
G00 X308.421 Y154.523
G00 X308.363 Y154.624
G00 X308.281 Y154.762
G00 X308.228 Y154.848
G00 X308.12 Y155.015
G00 X308.064 Y155.097
G00 X308.009 Y155.177
G00 X307.95 Y155.258
G00 X307.832 Y155.415
G00 X307.772 Y155.491
G00 X307.711 Y155.567
G00 X307.619 Y155.678
G00 X302.818 Y161.211
G00 X302.77 Y161.264
G00 X302.685 Y161.357
G00 X302.561 Y161.488
G00 X302.475 Y161.576
G00 X302.393 Y161.656
G00 X302.293 Y161.751
G00 X304.214 Y163.788
G00 X304.051 Y163.937
G00 X303.91 Y164.06
G00 X303.811 Y164.145
G00 X303.697 Y164.238
G00 X303.568 Y164.342
G00 X303.431 Y164.448
G00 X297.519 Y168.852
G00 X297.4 Y168.94
G00 X297.273 Y169.03
G00 X297.099 Y169.148
G00 X296.999 Y169.213
G00 X296.894 Y169.28
G00 X296.776 Y169.353
G00 X296.565 Y169.479
G00 X296.436 Y169.552
G00 X296.303 Y169.626
G00 X296.133 Y169.715
G00 X296.025 Y169.769
G00 X295.906 Y169.828
G00 X295.765 Y169.894
G00 X295.629 Y169.957
G00 X288.762 Y172.937
G00 X288.612 Y173
G00 X288.437 Y173.07
G00 X288.311 Y173.119
G00 X288.097 Y173.196
G00 X287.92 Y173.257
G00 X287.701 Y173.327
G00 X287.55 Y173.371
G00 X287.317 Y173.435
G00 X287.176 Y173.471
G00 X287.039 Y173.503
G00 X286.864 Y173.543
G00 X274.962 Y175.905
G00 X274.797 Y175.936
G00 X274.644 Y175.962
G00 X274.531 Y175.979
G00 X274.309 Y176.011
G00 X274.173 Y176.028
G00 X274.029 Y176.043
G00 X273.871 Y176.058
G00 X273.704 Y176.07
G00 X273.581 Y176.077
G00 X261.446 Y176.773
G00 X261.245 Y176.781
G00 X261.041 Y176.787
G00 X260.847 Y176.789
G00 X236.479 Y176.401
G00 X225.367 Y176.401
G00 X222.807 Y176.355
G00 X222.586 Y176.348
G00 X222.425 Y176.339
G00 X222.171 Y176.321
G00 X222.016 Y176.306
G00 X221.775 Y176.279
G00 X221.701 Y176.269
G00 X221.582 Y176.252
G00 X221.385 Y176.221
G00 X221.174 Y176.182
G00 X221.032 Y176.154
G00 X220.799 Y176.102
G00 X220.659 Y176.069
G00 X220.523 Y176.034
G00 X220.389 Y175.998
G00 X220.152 Y175.928
G00 X220.01 Y175.884
G00 X219.865 Y175.837
G00 X219.724 Y175.787
G00 X219.51 Y175.708
G00 X219.385 Y175.659
G00 X219.254 Y175.606
G00 X219.119 Y175.548
G00 X218.886 Y175.443
G00 X218.745 Y175.376
G00 X218.619 Y175.314
G00 X218.458 Y175.232
G00 X216.395 Y174.117
G00 X216.221 Y174.02
G00 X216.035 Y173.911
G00 X215.899 Y173.828
G00 X215.701 Y173.702
G00 X215.584 Y173.625
G00 X215.466 Y173.544
G00 X215.346 Y173.459
G00 X215.151 Y173.315
G00 X215.034 Y173.226
G00 X214.92 Y173.136
G00 X214.803 Y173.039
G00 X214.621 Y172.884
G00 X214.513 Y172.79
G00 X214.407 Y172.693
G00 X214.306 Y172.598
G00 X214.123 Y172.42
G00 X214.014 Y172.309
G00 X213.912 Y172.203
G00 X213.818 Y172.1
G00 X213.662 Y171.925
G00 X213.571 Y171.819
G00 X213.479 Y171.708
G00 X213.385 Y171.592
G00 X213.233 Y171.394
G00 X213.143 Y171.275
G00 X213.054 Y171.151
G00 X212.971 Y171.031
G00 X212.839 Y170.833
G00 X212.762 Y170.712
G00 X212.69 Y170.596
G00 X212.614 Y170.468
G00 X212.491 Y170.252
G00 X212.419 Y170.122
G00 X212.347 Y169.986
G00 X212.282 Y169.856
G00 X212.176 Y169.635
G00 X212.114 Y169.501
G00 X212.055 Y169.367
G00 X211.998 Y169.229
G00 X211.91 Y169.007
G00 X211.859 Y168.874
G00 X211.81 Y168.735
G00 X211.763 Y168.598
G00 X211.692 Y168.375
G00 X211.651 Y168.241
G00 X211.612 Y168.104
G00 X211.574 Y167.961
G00 X211.514 Y167.716
G00 X211.48 Y167.568
G00 X211.451 Y167.424
G00 X211.425 Y167.293
G00 X211.387 Y167.071
G00 X211.365 Y166.937
G00 X211.349 Y166.826
G00 X210.729 Y161.892
G00 X210.716 Y161.772
G00 X210.711 Y161.729
G00 X210.694 Y161.569
G00 X210.687 Y161.5
G00 X210.677 Y161.375
G00 X210.664 Y161.175
G00 X210.655 Y160.96
G00 X210.651 Y160.751
G00 X210.649 Y47.659
G00 X210.651 Y47.513
G00 X210.654 Y47.366
G00 X210.66 Y47.211
G00 X210.67 Y47.012
G00 X210.684 Y46.802
G00 X210.7 Y46.616
G00 X210.717 Y46.452
G00 X211.016 Y43.993
G00 X211.041 Y43.804
G00 X211.072 Y43.604
G00 X211.112 Y43.371
G00 X211.151 Y43.17
G00 X211.182 Y43.023
G00 X211.236 Y42.793
G00 X211.271 Y42.654
G00 X211.308 Y42.517
G00 X211.344 Y42.39
G00 X211.41 Y42.171
G00 X211.452 Y42.04
G00 X211.499 Y41.903
G00 X211.55 Y41.759
G00 X211.637 Y41.53
G00 X211.691 Y41.396
G00 X211.748 Y41.26
G00 X211.81 Y41.119
G00 X211.917 Y40.89
G00 X211.982 Y40.754
G00 X212.051 Y40.618
G00 X212.119 Y40.49
G00 X212.231 Y40.288
G00 X212.299 Y40.169
G00 X212.374 Y40.043
G00 X212.446 Y39.926
G00 X212.579 Y39.719
G00 X212.662 Y39.596
G00 X212.746 Y39.473
G00 X212.836 Y39.349
G00 X212.982 Y39.155
G00 X213.07 Y39.041
G00 X213.162 Y38.926
G00 X213.253 Y38.816
G00 X213.41 Y38.635
G00 X213.505 Y38.528
G00 X213.608 Y38.416
G00 X213.707 Y38.312
G00 X213.877 Y38.141
G00 X213.981 Y38.04
G00 X214.087 Y37.94
G00 X214.241 Y37.8
G00 X216.101 Y36.175
G00 X216.263 Y36.037
G00 X216.372 Y35.948
G00 X216.525 Y35.826
G00 X216.614 Y35.758
G00 X216.72 Y35.679
G00 X216.839 Y35.592
G00 X217.05 Y35.445
G00 X217.179 Y35.359
G00 X217.302 Y35.28
G00 X217.428 Y35.201
G00 X217.638 Y35.076
G00 X217.765 Y35.004
G00 X217.895 Y34.932
G00 X218.018 Y34.867
G00 X218.232 Y34.759
G00 X218.361 Y34.696
G00 X218.497 Y34.633
G00 X218.643 Y34.569
G00 X218.871 Y34.474
G00 X219.006 Y34.42
G00 X219.145 Y34.368
G00 X219.306 Y34.309
G00 X219.43 Y34.266
G00 X219.621 Y34.204
G00 X219.778 Y34.156
G00 X220.001 Y34.093
G00 X220.128 Y34.059
G00 X220.261 Y34.026
G00 X220.398 Y33.994
G00 X220.629 Y33.945
G00 X220.768 Y33.917
G00 X220.912 Y33.891
G00 X221.059 Y33.868
G00 X221.3 Y33.833
G00 X221.444 Y33.815
G00 X221.593 Y33.799
G00 X221.742 Y33.786
G00 X221.984 Y33.768
G00 X222.128 Y33.761
G00 X222.275 Y33.755
G00 X230.058 Y33.602
G00 X246.685 Y33.599
G00 X262.442 Y33.575
G00 X262.657 Y33.578
G00 X262.856 Y33.584
G00 X263.044 Y33.593
G00 X263.192 Y33.603
G00 X263.349 Y33.615
G00 X279.951 Y35.243
G00 X280.201 Y35.271
G00 X280.465 Y35.308
G00 X280.732 Y35.352
G00 X280.876 Y35.378
G00 X280.949 Y35.393
G00 X281.129 Y35.432
G00 X281.369 Y35.488
G00 X281.603 Y35.549
G00 X281.674 Y35.568
G00 X289.353 Y37.79
G00 X289.584 Y37.861
G00 X289.821 Y37.94
G00 X290.056 Y38.024
G00 X290.217 Y38.085
G00 X290.427 Y38.169
G00 X290.563 Y38.227
G00 X290.755 Y38.312
G00 X290.863 Y38.362
G00 X290.994 Y38.424
G00 X291.16 Y38.507
G00 X298.037 Y42.12
G00 X298.221 Y42.221
G00 X298.398 Y42.321
G00 X298.537 Y42.404
G00 X298.737 Y42.528
G00 X298.854 Y42.603
G00 X298.973 Y42.682
G00 X299.126 Y42.787
G00 X299.254 Y42.878
G00 X299.41 Y42.994
G00 X299.527 Y43.083
G00 X299.637 Y43.171
G00 X299.803 Y43.307
G00 X299.901 Y43.39
G00 X300.004 Y43.479
G00 X300.131 Y43.593
G00 X305.819 Y48.914
G00 X305.969 Y49.058
G00 X306.066 Y49.155
G00 X306.199 Y49.291
G00 X306.279 Y49.375
G00 X306.371 Y49.475
G00 X306.461 Y49.575
G00 X306.567 Y49.696
G00 X306.686 Y49.839
G00 X306.75 Y49.916
G00 X306.837 Y50.025
G00 X306.928 Y50.145
G00 X307.064 Y50.329
G00 X307.142 Y50.438
G00 X307.225 Y50.558
G00 X307.322 Y50.701
G00 X307.406 Y50.831
G00 X307.541 Y51.05
G00 X307.636 Y51.211
G00 X311.772 Y58.529
G00 X311.877 Y58.722
G00 X311.951 Y58.862
G00 X312.042 Y59.045
G00 X312.093 Y59.149
G00 X312.15 Y59.273
G00 X312.208 Y59.401
G00 X312.303 Y59.626
G00 X312.358 Y59.763
G00 X312.409 Y59.893
G00 X312.457 Y60.024
G00 X312.538 Y60.258
G00 X312.585 Y60.402
G00 X312.626 Y60.536
G00 X312.667 Y60.677
G00 X312.733 Y60.921
G00 X312.77 Y61.069
G00 X312.803 Y61.213
G00 X312.841 Y61.391
G00 X315.092 Y73.034
G00 X315.124 Y73.213
G00 X315.146 Y73.346
G00 X315.173 Y73.526
G00 X315.2 Y73.737
G00 X315.218 Y73.904
G00 X315.24 Y74.157
G00 X315.251 Y74.308
G00 X315.259 Y74.461
G00 X315.266 Y74.657
G00 X315.268 Y74.8
G00 X315.268 Y74.986
G00 X315.267 Y75.09
G00 X315.264 Y75.226
G00 X315.257 Y75.372
G00 X315.243 Y75.603
G00 X315.233 Y75.74
G00 X315.22 Y75.878
G00 X315.2 Y76.064
G00 X313.856 Y86.33
G00 X313.834 Y86.483
G00 X313.813 Y86.621
G00 X313.793 Y86.737
G00 X313.758 Y86.931
G00 X313.734 Y87.049
G00 X313.705 Y87.184
G00 X313.672 Y87.326
G00 X313.615 Y87.553
G00 X313.581 Y87.683
G00 X313.541 Y87.823
G00 X313.488 Y88.001
G00 X313.46 Y88.092
G00 X313.416 Y88.225
G00 X313.366 Y88.368
G00 X313.281 Y88.6
G00 X313.228 Y88.738
G00 X313.174 Y88.87
G00 X313.116 Y89.006
G00 X313.011 Y89.239
G00 X312.944 Y89.38
G00 X312.882 Y89.505
G00 X312.813 Y89.642
G00 X307.907 Y98.775
G00 X307.805 Y98.958
G00 X307.679 Y99.175
G00 X307.604 Y99.299
G00 X307.531 Y99.415
G00 X307.458 Y99.529
G00 X307.368 Y99.664
G00 X307.256 Y99.825
G00 X307.193 Y99.912
G00 X307.116 Y100.016
G00 X307.037 Y100.121
G00 X306.889 Y100.308
G00 X306.798 Y100.42
G00 X306.705 Y100.53
G00 X306.61 Y100.638
G00 X306.455 Y100.809
G00 X306.361 Y100.91
G00 X306.261 Y101.013
G00 X306.17 Y101.105
G00 X306.053 Y101.22
G00 X305.913 Y101.351
G00 X305.751 Y101.497
G00 X305.734 Y101.512
G00 X307.805 Y103.289
G00 X307.964 Y103.43
G00 X308.112 Y103.566
G00 X308.275 Y103.721
G00 X308.39 Y103.835
G00 X308.531 Y103.98
G00 X308.606 Y104.06
G00 X308.726 Y104.191
G00 X308.848 Y104.33
G00 X308.95 Y104.449
G00 X309.073 Y104.599
G00 X309.138 Y104.681
G00 X309.221 Y104.788
G00 X309.313 Y104.911
G00 X309.453 Y105.106
G00 X313.263 Y110.593
G00 X313.341 Y110.707
G00 X313.423 Y110.83
G00 X313.546 Y111.023
G00 X313.619 Y111.14
G00 X313.691 Y111.262
G00 X313.761 Y111.384
G00 X313.877 Y111.596
G00 X313.946 Y111.726
G00 X314.011 Y111.856
G00 X314.08 Y111.997
G00 X314.186 Y112.229
G00 X314.247 Y112.369
G00 X314.304 Y112.504
G00 X314.367 Y112.663
G00 X317.056 Y119.809
G00 X317.141 Y120.048
G00 X317.177 Y120.153
G00 X317.232 Y120.321
G00 X317.288 Y120.504
G00 X317.333 Y120.662
G00 X317.384 Y120.856
G00 X317.41 Y120.96
G00 X317.441 Y121.091
G00 X317.473 Y121.242
G00 X317.521 Y121.484
G00 X317.546 Y121.629
G00 X317.57 Y121.772
G00 X317.596 Y121.954
G00 X318.506 Y129.281
G00 X318.527 Y129.476
G00 X318.552 Y129.752
G00 X318.567 Y129.949
G00 X318.575 Y130.092
G00 X318.582 Y130.309
G00 X318.586 Y130.436
G00 X318.587 Y130.586
G00 X318.585 Y130.729
G00 X318.579 Y130.955
G00 X318.573 Y131.088
G00 X318.564 Y131.239
G00 X318.548 Y131.449
G00 X317.825 Y138.729
G00 X317.801 Y138.941
G00 X317.77 Y139.169
G00 X317.735 Y139.397
G00 X317.705 Y139.566
G00 X317.671 Y139.743
G00 X317.637 Y139.908
G00 X317.604 Y140.053
G00 X317.556 Y140.251
G00 X317.526 Y140.367
G00 X317.487 Y140.51
G00 X317.43 Y140.703
G00 X315.201 Y147.726
G00 X315.13 Y147.938
G00 X315.053 Y148.153
G00 X315.003 Y148.288
G00 X314.912 Y148.514
G00 X314.855 Y148.65
G00 X314.804 Y148.766
G00 X314.758 Y148.867
G00 X314.669 Y149.054
G00 X314.614 Y149.166
G00 X314.551 Y149.289
G00 X314.463 Y149.455
G00 X310.865 Y155.89
G00 X310.792 Y156.017
G00 X310.688 Y156.192
G00 X310.604 Y156.328
G00 X310.471 Y156.536
G00 X310.39 Y156.657
G00 X310.305 Y156.78
G00 X310.215 Y156.904
G00 X310.07 Y157.098
G00 X309.982 Y157.212
G00 X309.889 Y157.327
G00 X309.773 Y157.468
G00 X304.932 Y163.046
G00 X304.861 Y163.126
G00 X304.752 Y163.246
G00 X304.593 Y163.415
G00 X304.482 Y163.529
G00 X304.357 Y163.653
G00 X304.214 Y163.788
G00 X325.775 Y187.6
G00 X338.046 Y187.472
G00 X343.083 Y184.802
G00 X345.896 Y179.863
G00 X346.1 Y171.132
G00 X346.1 Y37.1
G00 X345.993 Y31.167
G00 X344.078 Y26.147
G00 X338.794 Y22.901
G00 X332.053 Y22.401
G00 X332.036 Y22.4
G00 X202.276 Y22.4
G00 X189.242 Y22.546
G00 X184.411 Y24.625
G00 X181.441 Y28.83
G00 X180.9 Y38.536
G00 X180.9 Y171.85
G00 X181.011 Y178.311
G00 X183.081 Y184.012
G00 X185.284 Y186.105
G00 X187.908 Y187.159
G00 X194.58 Y187.599
G00 X194.599 Y187.6
G00 X325.775 Y187.6
G00 X325.775 Y184.8
G00 X337.337 Y184.679
G00 X341.052 Y182.71
G00 X343.113 Y179.091
G00 X343.3 Y171.11
G00 X343.3 Y37.113
G00 X343.202 Y31.709
G00 X341.801 Y28.035
G00 X337.907 Y25.643
G00 X331.942 Y25.2
G00 X202.277 Y25.2
G00 X189.835 Y25.34
G00 X186.243 Y26.885
G00 X184.192 Y29.789
G00 X183.7 Y38.613
G00 X183.7 Y171.822
G00 X183.802 Y177.796
G00 X185.488 Y182.436
G00 X186.825 Y183.706
G00 X188.537 Y184.394
G00 X194.691 Y184.8
G00 X325.775 Y184.8
G00 X325.775 Y182
G00 X336.627 Y181.886
G00 X339.022 Y180.617
G00 X340.331 Y178.319
G00 X340.5 Y171.088
G00 X340.5 Y37.127
G00 X340.411 Y32.25
G00 X339.524 Y29.922
G00 X337.022 Y28.385
G00 X331.839 Y28
G00 X202.279 Y28
G00 X190.426 Y28.133
G00 X188.075 Y29.145
G00 X186.944 Y30.748
G00 X186.5 Y38.69
G00 X186.5 Y171.793
G00 X186.594 Y177.28
G00 X187.894 Y180.86
G00 X188.366 Y181.308
G00 X189.166 Y181.629
G00 X194.783 Y182
G00 X325.775 Y182
G00 X325.775 Y179.199
G00 X335.917 Y179.093
G00 X336.991 Y178.524
G00 X337.548 Y177.547
G00 X337.7 Y171.066
G00 X337.7 Y37.14
G00 X337.621 Y32.79
G00 X337.247 Y31.81
G00 X336.136 Y31.127
G00 X331.737 Y30.801
G00 X202.28 Y30.801
G00 X191.019 Y30.927
G00 X189.907 Y31.405
G00 X189.695 Y31.706
G00 X189.3 Y38.767
G00 X189.3 Y171.765
G00 X189.386 Y176.765
G00 X190.157 Y178.888
G00 X194.875 Y179.199
G00 X325.775 Y179.199
G00 X325.775 Y176.399
G00 X334.776 Y176.305
G00 X334.899 Y171.044
G00 X334.899 Y37.154
G00 X334.839 Y33.839
G00 X331.635 Y33.601
G00 X284.948 Y33.601
G00 X290.132 Y35.1
G00 X290.406 Y35.184
G00 X290.704 Y35.283
G00 X290.998 Y35.387
G00 X291.211 Y35.467
G00 X291.469 Y35.57
G00 X291.654 Y35.648
G00 X291.893 Y35.753
G00 X292.029 Y35.815
G00 X292.204 Y35.899
G00 X292.412 Y36.003
G00 X299.339 Y39.641
G00 X299.563 Y39.763
G00 X299.779 Y39.885
G00 X299.969 Y39.997
G00 X300.215 Y40.149
G00 X300.363 Y40.244
G00 X300.529 Y40.354
G00 X300.708 Y40.477
G00 X300.876 Y40.596
G00 X301.079 Y40.745
G00 X301.229 Y40.86
G00 X301.378 Y40.978
G00 X301.579 Y41.142
G00 X301.713 Y41.255
G00 X301.843 Y41.368
G00 X301.996 Y41.505
G00 X307.732 Y46.869
G00 X307.909 Y47.039
G00 X308.039 Y47.168
G00 X308.204 Y47.336
G00 X308.308 Y47.445
G00 X308.429 Y47.577
G00 X308.537 Y47.696
G00 X308.68 Y47.86
G00 X308.834 Y48.042
G00 X308.914 Y48.14
G00 X309.029 Y48.283
G00 X309.153 Y48.444
G00 X309.316 Y48.665
G00 X309.414 Y48.801
G00 X309.53 Y48.967
G00 X309.644 Y49.136
G00 X309.756 Y49.309
G00 X309.923 Y49.578
G00 X310.048 Y49.789
G00 X314.209 Y57.151
G00 X314.332 Y57.375
G00 X314.43 Y57.559
G00 X314.548 Y57.794
G00 X314.613 Y57.93
G00 X314.689 Y58.09
G00 X314.764 Y58.258
G00 X314.88 Y58.53
G00 X314.956 Y58.718
G00 X315.022 Y58.886
G00 X315.084 Y59.055
G00 X315.183 Y59.34
G00 X315.247 Y59.535
G00 X315.303 Y59.713
G00 X315.356 Y59.899
G00 X315.436 Y60.191
G00 X315.486 Y60.387
G00 X315.531 Y60.582
G00 X315.579 Y60.802
G00 X317.841 Y72.503
G00 X317.88 Y72.719
G00 X317.908 Y72.888
G00 X317.942 Y73.113
G00 X317.977 Y73.377
G00 X318.002 Y73.605
G00 X318.03 Y73.914
G00 X318.044 Y74.107
G00 X318.055 Y74.312
G00 X318.064 Y74.56
G00 X318.068 Y74.747
G00 X318.069 Y74.986
G00 X318.067 Y75.126
G00 X318.063 Y75.296
G00 X318.055 Y75.495
G00 X318.038 Y75.771
G00 X318.025 Y75.953
G00 X318.008 Y76.139
G00 X317.984 Y76.364
G00 X316.633 Y86.694
G00 X316.606 Y86.882
G00 X316.58 Y87.049
G00 X316.554 Y87.206
G00 X316.511 Y87.44
G00 X316.479 Y87.603
G00 X316.444 Y87.767
G00 X316.4 Y87.96
G00 X316.331 Y88.236
G00 X316.288 Y88.398
G00 X316.237 Y88.581
G00 X316.169 Y88.809
G00 X316.135 Y88.918
G00 X316.077 Y89.097
G00 X316.013 Y89.284
G00 X315.909 Y89.568
G00 X315.839 Y89.75
G00 X315.767 Y89.927
G00 X315.693 Y90.101
G00 X315.565 Y90.388
G00 X315.474 Y90.58
G00 X315.394 Y90.744
G00 X315.313 Y90.904
G00 X315.28 Y90.967
G00 X310.373 Y100.101
G00 X310.253 Y100.318
G00 X310.101 Y100.581
G00 X310.001 Y100.747
G00 X309.901 Y100.906
G00 X309.815 Y101.041
G00 X309.698 Y101.217
G00 X309.694 Y101.222
G00 X309.82 Y101.333
G00 X310.006 Y101.502
G00 X310.206 Y101.693
G00 X310.365 Y101.85
G00 X310.543 Y102.033
G00 X310.641 Y102.137
G00 X310.792 Y102.301
G00 X310.95 Y102.479
G00 X311.081 Y102.633
G00 X311.238 Y102.824
G00 X311.328 Y102.936
G00 X311.434 Y103.072
G00 X311.557 Y103.236
G00 X311.727 Y103.472
G00 X315.563 Y108.996
G00 X315.646 Y109.117
G00 X315.756 Y109.281
G00 X315.908 Y109.518
G00 X316 Y109.667
G00 X316.1 Y109.835
G00 X316.19 Y109.99
G00 X316.332 Y110.249
G00 X316.424 Y110.422
G00 X316.509 Y110.59
G00 X316.601 Y110.779
G00 X316.732 Y111.064
G00 X316.811 Y111.245
G00 X316.888 Y111.428
G00 X316.966 Y111.619
G00 X319.677 Y118.823
G00 X319.779 Y119.107
G00 X319.828 Y119.252
G00 X319.894 Y119.455
G00 X319.965 Y119.684
G00 X320.025 Y119.891
G00 X320.091 Y120.139
G00 X320.127 Y120.285
G00 X320.167 Y120.452
G00 X320.211 Y120.657
G00 X320.268 Y120.942
G00 X320.303 Y121.139
G00 X320.333 Y121.323
G00 X320.367 Y121.552
G00 X321.284 Y128.936
G00 X321.31 Y129.167
G00 X321.341 Y129.499
G00 X321.359 Y129.748
G00 X321.37 Y129.933
G00 X321.381 Y130.208
G00 X321.385 Y130.361
G00 X321.387 Y130.567
G00 X321.385 Y130.762
G00 X321.378 Y131.035
G00 X321.371 Y131.202
G00 X321.36 Y131.402
G00 X321.339 Y131.67
G00 X320.611 Y139.006
G00 X320.583 Y139.257
G00 X320.546 Y139.541
G00 X320.501 Y139.828
G00 X320.463 Y140.048
G00 X320.422 Y140.269
G00 X320.379 Y140.475
G00 X320.334 Y140.674
G00 X320.275 Y140.919
G00 X320.239 Y141.059
G00 X320.188 Y141.249
G00 X320.117 Y141.491
G00 X317.87 Y148.573
G00 X317.785 Y148.829
G00 X317.69 Y149.095
G00 X317.623 Y149.275
G00 X317.511 Y149.556
G00 X317.438 Y149.732
G00 X317.365 Y149.897
G00 X317.307 Y150.026
G00 X317.2 Y150.252
G00 X317.124 Y150.406
G00 X317.046 Y150.561
G00 X316.936 Y150.767
G00 X313.309 Y157.256
G00 X313.222 Y157.409
G00 X313.098 Y157.619
G00 X312.986 Y157.801
G00 X312.826 Y158.051
G00 X312.72 Y158.211
G00 X312.607 Y158.374
G00 X312.485 Y158.543
G00 X312.309 Y158.779
G00 X312.196 Y158.926
G00 X312.073 Y159.08
G00 X311.928 Y159.254
G00 X307.047 Y164.881
G00 X306.957 Y164.983
G00 X306.824 Y165.13
G00 X306.629 Y165.337
G00 X306.488 Y165.482
G00 X306.329 Y165.641
G00 X306.14 Y165.82
G00 X305.936 Y166.007
G00 X305.759 Y166.163
G00 X305.625 Y166.278
G00 X305.474 Y166.402
G00 X305.318 Y166.528
G00 X305.144 Y166.663
G00 X299.192 Y171.097
G00 X299.056 Y171.197
G00 X298.893 Y171.313
G00 X298.671 Y171.465
G00 X298.534 Y171.555
G00 X298.399 Y171.641
G00 X298.251 Y171.733
G00 X297.996 Y171.886
G00 X297.828 Y171.982
G00 X297.652 Y172.079
G00 X297.436 Y172.194
G00 X297.283 Y172.271
G00 X297.138 Y172.342
G00 X296.961 Y172.426
G00 X296.794 Y172.503
G00 X289.877 Y175.505
G00 X289.703 Y175.579
G00 X289.479 Y175.669
G00 X289.311 Y175.734
G00 X289.05 Y175.829
G00 X288.828 Y175.906
G00 X288.552 Y175.994
G00 X288.344 Y176.056
G00 X288.056 Y176.136
G00 X287.864 Y176.185
G00 X287.69 Y176.227
G00 X287.474 Y176.275
G00 X286.852 Y176.399
G00 X325.775 Y176.399
G00 X325.775 Y173.599
G00 X332.041 Y173.534
G00 X332.099 Y171.022
G00 X332.099 Y37.162
G00 X332.086 Y36.442
G00 X331.533 Y36.401
G00 X299.192 Y36.401
G00 X300.641 Y37.162
G00 X300.899 Y37.302
G00 X301.158 Y37.448
G00 X301.393 Y37.587
G00 X301.688 Y37.769
G00 X301.869 Y37.883
G00 X302.079 Y38.022
G00 X302.289 Y38.166
G00 X302.491 Y38.308
G00 X302.743 Y38.493
G00 X302.927 Y38.634
G00 X303.116 Y38.782
G00 X303.35 Y38.973
G00 X303.52 Y39.117
G00 X303.677 Y39.252
G00 X303.86 Y39.415
G00 X309.645 Y44.824
G00 X309.848 Y45.019
G00 X310.009 Y45.178
G00 X310.206 Y45.379
G00 X310.331 Y45.509
G00 X310.487 Y45.677
G00 X310.61 Y45.812
G00 X310.791 Y46.02
G00 X310.976 Y46.238
G00 X311.08 Y46.365
G00 X311.216 Y46.535
G00 X311.374 Y46.74
G00 X311.565 Y46.997
G00 X311.686 Y47.164
G00 X311.829 Y47.369
G00 X311.965 Y47.569
G00 X312.103 Y47.782
G00 X312.303 Y48.102
G00 X312.456 Y48.36
G00 X316.647 Y55.773
G00 X316.787 Y56.029
G00 X316.904 Y56.249
G00 X317.05 Y56.538
G00 X317.133 Y56.708
G00 X317.224 Y56.903
G00 X317.319 Y57.112
G00 X317.455 Y57.43
G00 X317.55 Y57.664
G00 X317.632 Y57.874
G00 X317.71 Y58.083
G00 X317.828 Y58.419
G00 X317.907 Y58.659
G00 X317.978 Y58.886
G00 X318.045 Y59.117
G00 X318.138 Y59.455
G00 X318.2 Y59.699
G00 X318.259 Y59.948
G00 X318.315 Y60.205
G00 X320.59 Y71.972
G00 X320.636 Y72.221
G00 X320.671 Y72.431
G00 X320.711 Y72.695
G00 X320.753 Y73.01
G00 X320.785 Y73.298
G00 X320.819 Y73.664
G00 X320.836 Y73.906
G00 X320.851 Y74.156
G00 X320.862 Y74.456
G00 X320.868 Y74.691
G00 X320.869 Y74.978
G00 X320.867 Y75.16
G00 X320.862 Y75.363
G00 X320.853 Y75.609
G00 X320.834 Y75.935
G00 X320.817 Y76.161
G00 X320.797 Y76.393
G00 X320.768 Y76.661
G00 X319.409 Y87.057
G00 X319.379 Y87.276
G00 X319.348 Y87.476
G00 X319.316 Y87.67
G00 X319.265 Y87.947
G00 X319.225 Y88.151
G00 X319.184 Y88.344
G00 X319.129 Y88.586
G00 X319.047 Y88.916
G00 X318.996 Y89.11
G00 X318.934 Y89.334
G00 X318.852 Y89.611
G00 X318.81 Y89.745
G00 X318.74 Y89.963
G00 X318.66 Y90.195
G00 X318.538 Y90.53
G00 X318.452 Y90.754
G00 X318.361 Y90.98
G00 X318.272 Y91.192
G00 X318.121 Y91.532
G00 X318.006 Y91.775
G00 X317.907 Y91.977
G00 X317.813 Y92.165
G00 X317.763 Y92.262
G00 X313.185 Y100.784
G00 X313.21 Y100.814
G00 X313.399 Y101.043
G00 X313.517 Y101.19
G00 X313.641 Y101.349
G00 X313.798 Y101.558
G00 X313.999 Y101.835
G00 X317.863 Y107.399
G00 X317.952 Y107.529
G00 X318.084 Y107.724
G00 X318.266 Y108.008
G00 X318.381 Y108.193
G00 X318.504 Y108.399
G00 X318.616 Y108.593
G00 X318.785 Y108.9
G00 X318.897 Y109.11
G00 X319.005 Y109.32
G00 X319.121 Y109.558
G00 X319.276 Y109.893
G00 X319.374 Y110.117
G00 X319.47 Y110.344
G00 X319.562 Y110.571
G00 X322.297 Y117.837
G00 X322.414 Y118.161
G00 X322.478 Y118.348
G00 X322.556 Y118.586
G00 X322.641 Y118.858
G00 X322.716 Y119.116
G00 X322.797 Y119.419
G00 X322.843 Y119.601
G00 X322.892 Y119.81
G00 X322.948 Y120.062
G00 X323.015 Y120.4
G00 X323.059 Y120.643
G00 X323.096 Y120.868
G00 X323.137 Y121.143
G00 X324.063 Y128.591
G00 X324.093 Y128.856
G00 X324.129 Y129.241
G00 X324.152 Y129.542
G00 X324.166 Y129.768
G00 X324.179 Y130.102
G00 X324.184 Y130.281
G00 X324.187 Y130.539
G00 X324.185 Y130.791
G00 X324.177 Y131.111
G00 X324.169 Y131.31
G00 X324.156 Y131.558
G00 X324.131 Y131.885
G00 X323.397 Y139.283
G00 X323.366 Y139.569
G00 X323.322 Y139.905
G00 X323.269 Y140.255
G00 X323.223 Y140.525
G00 X323.174 Y140.787
G00 X323.122 Y141.039
G00 X323.066 Y141.29
G00 X322.995 Y141.582
G00 X322.953 Y141.75
G00 X322.891 Y141.98
G00 X322.805 Y142.277
G00 X320.539 Y149.42
G00 X320.441 Y149.715
G00 X320.329 Y150.033
G00 X320.247 Y150.254
G00 X320.112 Y150.592
G00 X320.022 Y150.809
G00 X319.928 Y151.025
G00 X319.859 Y151.179
G00 X319.732 Y151.448
G00 X319.639 Y151.639
G00 X319.541 Y151.833
G00 X319.412 Y152.076
G00 X315.753 Y158.622
G00 X315.654 Y158.798
G00 X315.509 Y159.042
G00 X315.372 Y159.267
G00 X315.181 Y159.564
G00 X315.052 Y159.76
G00 X314.913 Y159.962
G00 X314.76 Y160.176
G00 X314.551 Y160.456
G00 X314.415 Y160.633
G00 X314.259 Y160.83
G00 X314.086 Y161.039
G00 X309.162 Y166.716
G00 X309.055 Y166.838
G00 X308.898 Y167.011
G00 X308.668 Y167.256
G00 X308.501 Y167.429
G00 X308.302 Y167.627
G00 X308.072 Y167.847
G00 X307.825 Y168.074
G00 X307.613 Y168.262
G00 X307.443 Y168.407
G00 X307.258 Y168.561
G00 X307.068 Y168.713
G00 X306.861 Y168.875
G00 X300.865 Y173.343
G00 X300.715 Y173.453
G00 X300.514 Y173.597
G00 X300.51 Y173.599
G00 X325.775 Y173.599
G00 X325.775 Y170.799
G00 X329.299 Y170.762
G00 X329.299 Y39.201
G00 X307.73 Y39.201
G00 X311.558 Y42.779
G00 X311.785 Y42.997
G00 X311.976 Y43.185
G00 X312.206 Y43.419
G00 X312.353 Y43.572
G00 X312.54 Y43.773
G00 X312.681 Y43.928
G00 X312.898 Y44.175
G00 X313.116 Y44.433
G00 X313.241 Y44.585
G00 X313.402 Y44.785
G00 X313.592 Y45.031
G00 X313.811 Y45.325
G00 X313.956 Y45.524
G00 X314.125 Y45.766
G00 X314.284 Y46
G00 X314.449 Y46.253
G00 X314.68 Y46.623
G00 X314.861 Y46.925
G00 X319.085 Y54.395
G00 X319.243 Y54.683
G00 X319.376 Y54.933
G00 X319.551 Y55.279
G00 X319.649 Y55.48
G00 X319.759 Y55.713
G00 X319.871 Y55.962
G00 X320.029 Y56.327
G00 X320.143 Y56.606
G00 X320.241 Y56.858
G00 X320.335 Y57.109
G00 X320.47 Y57.492
G00 X320.566 Y57.78
G00 X320.651 Y58.052
G00 X320.733 Y58.333
G00 X320.839 Y58.717
G00 X320.913 Y59.007
G00 X320.984 Y59.306
G00 X321.05 Y59.608
G00 X323.339 Y71.44
G00 X323.39 Y71.72
G00 X323.432 Y71.967
G00 X323.479 Y72.277
G00 X323.528 Y72.639
G00 X323.568 Y72.985
G00 X323.607 Y73.408
G00 X323.629 Y73.702
G00 X323.646 Y73.993
G00 X323.661 Y74.349
G00 X323.667 Y74.631
G00 X323.669 Y74.965
G00 X323.667 Y75.191
G00 X323.661 Y75.428
G00 X323.651 Y75.717
G00 X323.629 Y76.098
G00 X323.61 Y76.362
G00 X323.586 Y76.641
G00 X323.553 Y76.957
G00 X322.186 Y87.42
G00 X322.151 Y87.666
G00 X322.115 Y87.902
G00 X322.078 Y88.128
G00 X322.019 Y88.451
G00 X321.971 Y88.695
G00 X321.924 Y88.92
G00 X321.859 Y89.209
G00 X321.764 Y89.591
G00 X321.705 Y89.818
G00 X321.631 Y90.085
G00 X321.536 Y90.407
G00 X321.485 Y90.572
G00 X321.405 Y90.823
G00 X321.31 Y91.102
G00 X321.169 Y91.49
G00 X321.067 Y91.755
G00 X320.958 Y92.027
G00 X320.854 Y92.276
G00 X320.679 Y92.672
G00 X320.54 Y92.966
G00 X320.423 Y93.208
G00 X320.314 Y93.425
G00 X320.251 Y93.545
G00 X316.5 Y100.529
G00 X320.163 Y105.802
G00 X320.259 Y105.941
G00 X320.409 Y106.164
G00 X320.622 Y106.495
G00 X320.76 Y106.716
G00 X320.907 Y106.962
G00 X321.04 Y107.19
G00 X321.237 Y107.546
G00 X321.368 Y107.793
G00 X321.498 Y108.045
G00 X321.638 Y108.331
G00 X321.818 Y108.719
G00 X321.936 Y108.987
G00 X322.05 Y109.254
G00 X322.158 Y109.521
G00 X324.918 Y116.85
G00 X325.049 Y117.213
G00 X325.127 Y117.439
G00 X325.217 Y117.714
G00 X325.315 Y118.028
G00 X325.405 Y118.336
G00 X325.501 Y118.694
G00 X325.557 Y118.911
G00 X325.618 Y119.165
G00 X325.683 Y119.463
G00 X325.761 Y119.854
G00 X325.814 Y120.141
G00 X325.859 Y120.411
G00 X325.907 Y120.73
G00 X326.842 Y128.246
G00 X326.876 Y128.544
G00 X326.917 Y128.981
G00 X326.944 Y129.332
G00 X326.96 Y129.597
G00 X326.977 Y129.991
G00 X326.983 Y130.201
G00 X326.987 Y130.507
G00 X326.985 Y130.814
G00 X326.976 Y131.182
G00 X326.967 Y131.415
G00 X326.952 Y131.711
G00 X326.923 Y132.096
G00 X326.184 Y139.559
G00 X326.149 Y139.879
G00 X326.099 Y140.266
G00 X326.037 Y140.676
G00 X325.983 Y140.996
G00 X325.926 Y141.303
G00 X325.865 Y141.6
G00 X325.799 Y141.901
G00 X325.717 Y142.239
G00 X325.667 Y142.437
G00 X325.594 Y142.709
G00 X325.494 Y143.057
G00 X325.474 Y143.124
G00 X323.208 Y150.266
G00 X323.097 Y150.6
G00 X322.969 Y150.965
G00 X322.872 Y151.228
G00 X322.715 Y151.626
G00 X322.609 Y151.881
G00 X322.494 Y152.146
G00 X322.411 Y152.331
G00 X322.266 Y152.64
G00 X322.155 Y152.868
G00 X322.038 Y153.099
G00 X321.888 Y153.384
G00 X318.198 Y159.988
G00 X318.086 Y160.185
G00 X317.922 Y160.464
G00 X317.761 Y160.728
G00 X317.539 Y161.075
G00 X317.387 Y161.305
G00 X317.222 Y161.547
G00 X317.038 Y161.805
G00 X316.796 Y162.13
G00 X316.635 Y162.339
G00 X316.45 Y162.573
G00 X316.246 Y162.821
G00 X311.278 Y168.551
G00 X311.153 Y168.692
G00 X310.975 Y168.889
G00 X310.709 Y169.173
G00 X310.514 Y169.375
G00 X310.28 Y169.609
G00 X310.009 Y169.87
G00 X309.717 Y170.138
G00 X309.471 Y170.357
G00 X309.264 Y170.534
G00 X309.046 Y170.716
G00 X308.943 Y170.799
G00 X325.775 Y170.799
G00 X325.775 Y167.998
G00 X326.499 Y167.991
G00 X326.499 Y149.154
G00 X325.878 Y151.113
G00 X325.753 Y151.486
G00 X325.612 Y151.891
G00 X325.498 Y152.2
G00 X325.319 Y152.655
G00 X325.197 Y152.951
G00 X325.062 Y153.262
G00 X324.963 Y153.482
G00 X324.801 Y153.829
G00 X324.673 Y154.092
G00 X324.536 Y154.363
G00 X324.365 Y154.689
G00 X324.332 Y154.75
G00 X320.642 Y161.354
G00 X320.519 Y161.571
G00 X320.335 Y161.883
G00 X320.152 Y162.184
G00 X319.899 Y162.583
G00 X319.725 Y162.846
G00 X319.533 Y163.128
G00 X319.319 Y163.43
G00 X319.043 Y163.801
G00 X318.855 Y164.046
G00 X318.645 Y164.312
G00 X318.408 Y164.601
G00 X318.361 Y164.656
G00 X315.463 Y167.998
G00 X325.775 Y167.998
G00 X323.699 Y165.198
;Nearing path end, moving to preshutoff position
G00 X323.699 Y164.035
M107 ;Pump off
G00 X323.699 Y161.624
G00 X323.086 Y162.72
G00 X322.953 Y162.954
G00 X322.75 Y163.302
G00 X322.544 Y163.64
G00 X322.26 Y164.087
G00 X322.063 Y164.386
G00 X321.847 Y164.705
G00 X321.602 Y165.051
G00 X321.493 Y165.198
G00 X323.699 Y165.198
G4 P250 ;Pause for 250 milliseconds
;Completed path #7/10 on color #3
;Switching Color to: Light
G4 P1000 ;Pause for 1000 milliseconds
G00 X1 Y1 ;Help homing
G28 X0 Y0 ;Home All Axis
M84 ;Motors off
M142 ;Bottle change
G4 P15000 ;Pause for 15000 milliseconds
;Starting fill path #8/10, segments: 3415, length: 6923, color #1
G00 X233.051 Y102.595
M106 ;Pump on
G4 P350 ;Pause for 350 milliseconds
G00 X233.18 Y102.732
G00 X233.287 Y102.843
G00 X233.367 Y102.924
G00 X233.281 Y103.01
G00 X233.159 Y103.137
G00 X233.05 Y103.254
G00 X233.05 Y102.594
G00 X233.051 Y102.595
G00 X235.098 Y100.684
G00 X235.197 Y100.791
G00 X235.283 Y100.88
G00 X235.362 Y100.961
G00 X235.502 Y101.097
G00 X235.612 Y101.202
G00 X235.711 Y101.292
G00 X235.819 Y101.388
G00 X235.916 Y101.472
G00 X236.084 Y101.613
G00 X236.195 Y101.703
G00 X236.312 Y101.795
G00 X236.437 Y101.889
G00 X236.645 Y102.04
G00 X236.763 Y102.122
G00 X236.878 Y102.2
G00 X236.999 Y102.278
G00 X237.202 Y102.406
G00 X237.332 Y102.484
G00 X237.466 Y102.561
G00 X237.593 Y102.631
G00 X237.808 Y102.745
G00 X237.936 Y102.81
G00 X238.069 Y102.875
G00 X238.158 Y102.916
G00 X237.607 Y103.208
G00 X237.434 Y103.305
G00 X237.305 Y103.38
G00 X237.189 Y103.45
G00 X236.997 Y103.57
G00 X236.882 Y103.645
G00 X236.767 Y103.722
G00 X236.646 Y103.807
G00 X236.448 Y103.95
G00 X236.327 Y104.04
G00 X236.212 Y104.13
G00 X236.092 Y104.227
G00 X235.896 Y104.392
G00 X235.788 Y104.486
G00 X235.68 Y104.583
G00 X235.574 Y104.682
G00 X235.4 Y104.85
G00 X235.298 Y104.953
G00 X235.2 Y105.054
G00 X235.101 Y105.16
G00 X234.939 Y105.339
G00 X234.842 Y105.45
G00 X234.749 Y105.561
G00 X234.655 Y105.676
G00 X234.503 Y105.87
G00 X234.418 Y105.983
G00 X234.332 Y106.101
G00 X234.243 Y106.227
G00 X234.102 Y106.437
G00 X234.028 Y106.551
G00 X233.953 Y106.671
G00 X233.879 Y106.794
G00 X233.758 Y107.001
G00 X233.686 Y107.131
G00 X233.619 Y107.257
G00 X233.548 Y107.395
G00 X233.436 Y107.623
G00 X233.38 Y107.745
G00 X233.322 Y107.874
G00 X233.265 Y108.008
G00 X233.173 Y108.232
G00 X233.121 Y108.366
G00 X233.073 Y108.498
G00 X233.023 Y108.64
G00 X232.945 Y108.877
G00 X232.9 Y109.024
G00 X232.857 Y109.175
G00 X232.818 Y109.317
G00 X231.693 Y113.587
G00 X231.653 Y113.754
G00 X231.621 Y113.898
G00 X231.59 Y114.046
G00 X231.544 Y114.292
G00 X231.52 Y114.434
G00 X231.498 Y114.578
G00 X231.478 Y114.722
G00 X231.45 Y114.965
G00 X231.435 Y115.116
G00 X231.423 Y115.259
G00 X231.414 Y115.405
G00 X231.402 Y115.648
G00 X231.398 Y115.8
G00 X231.396 Y115.999
G00 X231.398 Y116.163
G00 X231.478 Y120.488
G00 X231.479 Y140.881
G00 X231.481 Y140.998
G00 X231.487 Y141.194
G00 X231.701 Y146.118
G00 X231.712 Y146.307
G00 X231.724 Y146.457
G00 X231.739 Y146.609
G00 X231.769 Y146.864
G00 X231.79 Y147.02
G00 X231.813 Y147.17
G00 X231.836 Y147.301
G00 X231.878 Y147.524
G00 X231.907 Y147.668
G00 X231.94 Y147.814
G00 X231.974 Y147.954
G00 X232.034 Y148.187
G00 X232.071 Y148.318
G00 X232.109 Y148.447
G00 X232.139 Y148.544
G00 X232.199 Y148.73
G00 X232.259 Y148.903
G00 X232.324 Y149.076
G00 X232.386 Y149.236
G00 X232.425 Y149.333
G00 X232.493 Y149.495
G00 X232.534 Y149.59
G00 X233.462 Y151.674
G00 X233.543 Y151.844
G00 X233.607 Y151.975
G00 X233.674 Y152.106
G00 X233.79 Y152.322
G00 X233.862 Y152.451
G00 X233.937 Y152.58
G00 X234.008 Y152.696
G00 X234.128 Y152.889
G00 X234.202 Y153.003
G00 X234.284 Y153.123
G00 X234.369 Y153.246
G00 X234.516 Y153.448
G00 X234.612 Y153.576
G00 X234.706 Y153.696
G00 X234.798 Y153.808
G00 X234.955 Y153.995
G00 X235.057 Y154.113
G00 X235.154 Y154.22
G00 X235.254 Y154.326
G00 X235.422 Y154.499
G00 X235.525 Y154.601
G00 X235.628 Y154.701
G00 X235.73 Y154.796
G00 X235.903 Y154.951
G00 X236.008 Y155.043
G00 X236.122 Y155.139
G00 X236.243 Y155.237
G00 X236.446 Y155.395
G00 X236.569 Y155.487
G00 X236.746 Y155.614
G00 X236.917 Y155.732
G00 X237.872 Y156.371
G00 X230.337 Y156.371
G00 X230.25 Y155.155
G00 X230.249 Y53.151
G00 X231.562 Y53.032
G00 X237.398 Y53.032
G00 X237.388 Y53.037
G00 X237.262 Y53.111
G00 X237.129 Y53.193
G00 X236.912 Y53.331
G00 X236.784 Y53.417
G00 X236.668 Y53.496
G00 X236.549 Y53.582
G00 X236.355 Y53.725
G00 X236.248 Y53.808
G00 X236.139 Y53.895
G00 X236.028 Y53.987
G00 X235.845 Y54.142
G00 X235.732 Y54.242
G00 X235.62 Y54.344
G00 X235.508 Y54.451
G00 X235.327 Y54.63
G00 X235.231 Y54.728
G00 X235.136 Y54.828
G00 X235.04 Y54.932
G00 X234.882 Y55.11
G00 X234.78 Y55.229
G00 X234.685 Y55.344
G00 X234.595 Y55.459
G00 X234.448 Y55.649
G00 X234.367 Y55.759
G00 X234.241 Y55.936
G00 X234.129 Y56.101
G00 X234.036 Y56.243
G00 X233.965 Y56.357
G00 X233.893 Y56.476
G00 X233.823 Y56.595
G00 X233.71 Y56.795
G00 X233.642 Y56.919
G00 X233.575 Y57.048
G00 X233.51 Y57.177
G00 X233.406 Y57.394
G00 X233.347 Y57.523
G00 X233.286 Y57.661
G00 X233.231 Y57.795
G00 X233.141 Y58.022
G00 X233.088 Y58.162
G00 X233.04 Y58.298
G00 X232.991 Y58.443
G00 X232.915 Y58.682
G00 X232.875 Y58.817
G00 X232.836 Y58.959
G00 X232.799 Y59.101
G00 X232.74 Y59.342
G00 X232.703 Y59.508
G00 X232.661 Y59.721
G00 X232.628 Y59.909
G00 X231.595 Y66.107
G00 X231.567 Y66.305
G00 X231.549 Y66.442
G00 X231.538 Y66.543
G00 X231.518 Y66.735
G00 X231.505 Y66.903
G00 X231.494 Y67.089
G00 X231.483 Y67.341
G00 X231.479 Y67.505
G00 X231.478 Y67.616
G00 X231.479 Y87.529
G00 X231.483 Y87.722
G00 X231.488 Y87.861
G00 X231.494 Y87.968
G00 X231.506 Y88.165
G00 X231.518 Y88.31
G00 X231.538 Y88.512
G00 X232.058 Y93.184
G00 X232.085 Y93.385
G00 X232.107 Y93.535
G00 X232.13 Y93.667
G00 X232.171 Y93.892
G00 X232.203 Y94.047
G00 X232.242 Y94.223
G00 X232.279 Y94.378
G00 X232.811 Y96.503
G00 X232.86 Y96.684
G00 X232.901 Y96.825
G00 X232.944 Y96.964
G00 X233.019 Y97.194
G00 X233.067 Y97.333
G00 X233.117 Y97.47
G00 X233.171 Y97.61
G00 X233.264 Y97.839
G00 X233.321 Y97.973
G00 X233.381 Y98.105
G00 X233.443 Y98.239
G00 X233.551 Y98.46
G00 X233.618 Y98.589
G00 X233.688 Y98.719
G00 X233.763 Y98.855
G00 X233.891 Y99.074
G00 X233.96 Y99.187
G00 X234.034 Y99.305
G00 X234.112 Y99.425
G00 X234.246 Y99.623
G00 X234.333 Y99.747
G00 X234.422 Y99.868
G00 X234.507 Y99.98
G00 X234.653 Y100.168
G00 X234.749 Y100.286
G00 X234.848 Y100.403
G00 X234.94 Y100.509
G00 X235.098 Y100.684
G00 X237.152 Y98.781
G00 X237.216 Y98.85
G00 X237.283 Y98.92
G00 X237.332 Y98.97
G00 X237.43 Y99.067
G00 X237.504 Y99.137
G00 X237.581 Y99.208
G00 X237.653 Y99.273
G00 X237.72 Y99.33
G00 X237.857 Y99.446
G00 X237.928 Y99.504
G00 X238.004 Y99.564
G00 X238.087 Y99.626
G00 X238.251 Y99.746
G00 X238.332 Y99.803
G00 X238.413 Y99.857
G00 X238.49 Y99.908
G00 X238.653 Y100.011
G00 X238.738 Y100.062
G00 X238.822 Y100.111
G00 X238.91 Y100.16
G00 X239.084 Y100.252
G00 X239.169 Y100.296
G00 X239.256 Y100.339
G00 X239.346 Y100.381
G00 X239.525 Y100.461
G00 X239.615 Y100.499
G00 X239.705 Y100.536
G00 X239.794 Y100.57
G00 X239.979 Y100.638
G00 X240.074 Y100.671
G00 X240.222 Y100.719
G00 X240.369 Y100.763
G00 X244.091 Y101.828
G00 X244.221 Y101.862
G00 X244.316 Y101.886
G00 X244.411 Y101.908
G00 X244.605 Y101.949
G00 X244.705 Y101.969
G00 X244.8 Y101.986
G00 X244.897 Y102.001
G00 X245.092 Y102.029
G00 X245.19 Y102.041
G00 X245.287 Y102.051
G00 X245.359 Y102.057
G00 X245.496 Y102.068
G00 X245.593 Y102.074
G00 X245.7 Y102.079
G00 X245.87 Y102.083
G00 X246.032 Y102.084
G00 X249.927 Y102.05
G00 X251.925 Y102.05
G00 X256.465 Y102.74
G00 X256.61 Y102.759
G00 X256.707 Y102.77
G00 X256.798 Y102.779
G00 X256.982 Y102.794
G00 X257.076 Y102.8
G00 X257.173 Y102.805
G00 X257.277 Y102.808
G00 X257.482 Y102.81
G00 X257.583 Y102.81
G00 X257.68 Y102.807
G00 X257.75 Y102.805
G00 X257.887 Y102.798
G00 X257.99 Y102.791
G00 X258.121 Y102.78
G00 X258.306 Y102.76
G00 X258.488 Y102.736
G00 X263.13 Y102.05
G00 X266.728 Y102.049
G00 X266.875 Y102.046
G00 X266.972 Y102.043
G00 X267.069 Y102.038
G00 X267.263 Y102.024
G00 X267.361 Y102.016
G00 X267.458 Y102.006
G00 X267.556 Y101.993
G00 X267.751 Y101.966
G00 X267.848 Y101.951
G00 X267.944 Y101.934
G00 X268.037 Y101.916
G00 X268.223 Y101.876
G00 X268.314 Y101.855
G00 X268.409 Y101.832
G00 X268.507 Y101.806
G00 X268.7 Y101.75
G00 X268.794 Y101.722
G00 X268.887 Y101.691
G00 X268.975 Y101.661
G00 X269.152 Y101.597
G00 X269.24 Y101.563
G00 X269.295 Y101.541
G00 X270.793 Y101.541
G00 X270.939 Y101.538
G00 X271.036 Y101.535
G00 X271.133 Y101.53
G00 X271.328 Y101.516
G00 X271.426 Y101.508
G00 X271.522 Y101.498
G00 X271.621 Y101.485
G00 X271.815 Y101.458
G00 X271.912 Y101.443
G00 X272.008 Y101.426
G00 X272.102 Y101.408
G00 X272.287 Y101.368
G00 X272.378 Y101.347
G00 X272.473 Y101.324
G00 X272.572 Y101.297
G00 X272.764 Y101.242
G00 X272.858 Y101.214
G00 X272.951 Y101.183
G00 X273.039 Y101.153
G00 X273.216 Y101.089
G00 X273.305 Y101.055
G00 X273.395 Y101.019
G00 X273.474 Y100.986
G00 X273.631 Y100.917
G00 X273.723 Y100.876
G00 X273.874 Y100.802
G00 X275.517 Y99.981
G00 X275.587 Y99.974
G00 X275.685 Y99.961
G00 X275.879 Y99.934
G00 X275.976 Y99.919
G00 X276.072 Y99.902
G00 X276.166 Y99.884
G00 X276.351 Y99.844
G00 X276.442 Y99.823
G00 X276.537 Y99.8
G00 X276.636 Y99.773
G00 X276.828 Y99.718
G00 X276.922 Y99.689
G00 X277.015 Y99.659
G00 X277.103 Y99.629
G00 X277.28 Y99.565
G00 X277.369 Y99.531
G00 X277.459 Y99.495
G00 X277.553 Y99.455
G00 X277.74 Y99.372
G00 X277.833 Y99.329
G00 X277.92 Y99.286
G00 X278 Y99.246
G00 X278.161 Y99.161
G00 X278.243 Y99.116
G00 X278.328 Y99.067
G00 X278.417 Y99.014
G00 X278.589 Y98.907
G00 X278.672 Y98.853
G00 X278.753 Y98.799
G00 X278.819 Y98.753
G00 X278.955 Y98.656
G00 X279.038 Y98.594
G00 X279.181 Y98.483
G00 X281.636 Y96.519
G00 X282.275 Y96.04
G00 X282.36 Y96.009
G00 X282.449 Y95.975
G00 X282.539 Y95.939
G00 X282.633 Y95.899
G00 X282.82 Y95.816
G00 X282.913 Y95.773
G00 X283.001 Y95.73
G00 X283.08 Y95.69
G00 X283.241 Y95.605
G00 X283.324 Y95.56
G00 X283.408 Y95.511
G00 X283.497 Y95.458
G00 X283.669 Y95.351
G00 X283.752 Y95.297
G00 X283.833 Y95.243
G00 X283.913 Y95.187
G00 X284.072 Y95.072
G00 X284.152 Y95.012
G00 X284.229 Y94.952
G00 X284.303 Y94.892
G00 X284.446 Y94.773
G00 X284.514 Y94.714
G00 X284.587 Y94.649
G00 X284.659 Y94.582
G00 X284.803 Y94.444
G00 X284.875 Y94.373
G00 X284.943 Y94.302
G00 X285.01 Y94.232
G00 X285.14 Y94.088
G00 X285.204 Y94.015
G00 X285.267 Y93.94
G00 X285.327 Y93.867
G00 X285.447 Y93.715
G00 X285.506 Y93.637
G00 X285.563 Y93.558
G00 X285.622 Y93.475
G00 X285.733 Y93.312
G00 X285.785 Y93.232
G00 X285.837 Y93.15
G00 X285.885 Y93.07
G00 X285.981 Y92.906
G00 X286.028 Y92.822
G00 X286.089 Y92.707
G00 X286.149 Y92.591
G00 X287.674 Y89.543
G00 X287.92 Y89.296
G00 X288.02 Y89.192
G00 X288.087 Y89.121
G00 X288.153 Y89.047
G00 X288.284 Y88.897
G00 X288.349 Y88.819
G00 X288.41 Y88.743
G00 X288.469 Y88.667
G00 X288.582 Y88.517
G00 X288.637 Y88.442
G00 X288.693 Y88.362
G00 X288.745 Y88.286
G00 X288.849 Y88.127
G00 X288.9 Y88.045
G00 X288.951 Y87.962
G00 X288.986 Y87.902
G00 X289.054 Y87.782
G00 X289.104 Y87.692
G00 X289.154 Y87.596
G00 X289.198 Y87.509
G00 X289.239 Y87.424
G00 X289.318 Y87.255
G00 X289.356 Y87.171
G00 X289.394 Y87.081
G00 X289.431 Y86.991
G00 X289.501 Y86.81
G00 X289.533 Y86.719
G00 X289.565 Y86.628
G00 X289.596 Y86.534
G00 X289.654 Y86.346
G00 X289.681 Y86.252
G00 X289.706 Y86.157
G00 X289.73 Y86.063
G00 X289.775 Y85.87
G00 X289.797 Y85.771
G00 X289.827 Y85.609
G00 X289.849 Y85.479
G00 X289.862 Y85.401
G00 X289.883 Y85.249
G00 X290.367 Y81.376
G00 X290.932 Y78.292
G00 X290.956 Y78.144
G00 X290.97 Y78.047
G00 X290.983 Y77.951
G00 X291.005 Y77.755
G00 X291.014 Y77.656
G00 X291.022 Y77.559
G00 X291.027 Y77.462
G00 X291.035 Y77.267
G00 X291.038 Y77.17
G00 X291.039 Y77.073
G00 X291.038 Y76.975
G00 X291.032 Y76.78
G00 X291.028 Y76.683
G00 X291.022 Y76.585
G00 X291.014 Y76.487
G00 X290.994 Y76.29
G00 X290.983 Y76.193
G00 X290.959 Y76.02
G00 X290.932 Y75.851
G00 X290.358 Y72.609
G00 X289.859 Y69.12
G00 X289.837 Y68.984
G00 X289.82 Y68.888
G00 X289.8 Y68.786
G00 X289.758 Y68.589
G00 X289.736 Y68.495
G00 X289.712 Y68.4
G00 X289.687 Y68.307
G00 X289.632 Y68.117
G00 X289.602 Y68.02
G00 X289.572 Y67.928
G00 X289.539 Y67.835
G00 X289.473 Y67.655
G00 X289.44 Y67.569
G00 X289.403 Y67.479
G00 X289.366 Y67.392
G00 X289.288 Y67.216
G00 X289.247 Y67.128
G00 X289.204 Y67.04
G00 X289.16 Y66.953
G00 X289.067 Y66.78
G00 X289.02 Y66.694
G00 X288.936 Y66.552
G00 X288.865 Y66.434
G00 X288.803 Y66.338
G00 X288.74 Y66.244
G00 X288.641 Y66.101
G00 X288.536 Y65.956
G00 X283.937 Y59.824
G00 X283.85 Y59.712
G00 X283.789 Y59.636
G00 X283.725 Y59.56
G00 X283.594 Y59.408
G00 X283.527 Y59.333
G00 X283.46 Y59.261
G00 X283.393 Y59.192
G00 X283.258 Y59.055
G00 X283.189 Y58.988
G00 X283.117 Y58.922
G00 X283.043 Y58.854
G00 X282.896 Y58.726
G00 X282.824 Y58.665
G00 X282.749 Y58.604
G00 X282.674 Y58.545
G00 X282.52 Y58.428
G00 X282.441 Y58.37
G00 X282.362 Y58.314
G00 X282.281 Y58.259
G00 X282.116 Y58.151
G00 X282.032 Y58.098
G00 X281.949 Y58.048
G00 X281.861 Y57.997
G00 X281.686 Y57.899
G00 X281.598 Y57.853
G00 X281.456 Y57.781
G00 X281.34 Y57.725
G00 X281.264 Y57.689
G00 X281.122 Y57.626
G00 X278.156 Y56.355
G00 X277.125 Y55.668
G00 X276.999 Y55.588
G00 X276.916 Y55.536
G00 X276.831 Y55.486
G00 X276.66 Y55.389
G00 X276.575 Y55.343
G00 X276.489 Y55.298
G00 X276.408 Y55.257
G00 X276.239 Y55.175
G00 X276.151 Y55.134
G00 X276.062 Y55.095
G00 X275.968 Y55.056
G00 X275.782 Y54.982
G00 X275.689 Y54.947
G00 X275.598 Y54.914
G00 X275.506 Y54.883
G00 X275.321 Y54.824
G00 X275.229 Y54.796
G00 X275.135 Y54.77
G00 X275.043 Y54.745
G00 X274.859 Y54.7
G00 X274.768 Y54.68
G00 X274.672 Y54.66
G00 X274.574 Y54.641
G00 X274.378 Y54.607
G00 X274.281 Y54.592
G00 X274.121 Y54.57
G00 X273.985 Y54.555
G00 X273.854 Y54.543
G00 X273.707 Y54.534
G00 X273.499 Y54.524
G00 X273.358 Y54.52
G00 X273.284 Y54.519
G00 X273.106 Y54.519
G00 X271.783 Y53.99
G00 X271.65 Y53.94
G00 X271.559 Y53.906
G00 X271.459 Y53.872
G00 X271.262 Y53.809
G00 X271.166 Y53.78
G00 X271.072 Y53.754
G00 X270.98 Y53.73
G00 X270.797 Y53.685
G00 X270.705 Y53.664
G00 X270.61 Y53.644
G00 X270.512 Y53.625
G00 X270.316 Y53.591
G00 X270.218 Y53.576
G00 X270.059 Y53.555
G00 X269.922 Y53.539
G00 X269.8 Y53.528
G00 X269.654 Y53.518
G00 X269.511 Y53.511
G00 X269.437 Y53.508
G00 X269.291 Y53.504
G00 X269.22 Y53.503
G00 X266.841 Y53.503
G00 X261.767 Y53.258
G00 X256.749 Y53
G00 X256.646 Y52.997
G00 X256.519 Y52.995
G00 X249.866 Y52.996
G00 X249.72 Y52.999
G00 X249.623 Y53.002
G00 X249.526 Y53.007
G00 X249.331 Y53.021
G00 X249.233 Y53.029
G00 X249.136 Y53.039
G00 X249.045 Y53.05
G00 X248.874 Y53.074
G00 X248.793 Y53.087
G00 X248.672 Y53.107
G00 X248.542 Y53.131
G00 X246.719 Y53.496
G00 X244.622 Y53.474
G00 X244.475 Y53.475
G00 X244.377 Y53.478
G00 X244.28 Y53.482
G00 X244.085 Y53.493
G00 X243.987 Y53.501
G00 X243.89 Y53.51
G00 X243.793 Y53.521
G00 X243.597 Y53.546
G00 X243.499 Y53.561
G00 X243.403 Y53.576
G00 X243.31 Y53.594
G00 X243.126 Y53.631
G00 X243.036 Y53.65
G00 X242.941 Y53.673
G00 X242.845 Y53.697
G00 X242.652 Y53.75
G00 X242.554 Y53.778
G00 X242.461 Y53.807
G00 X242.395 Y53.829
G00 X242.264 Y53.873
G00 X242.156 Y53.913
G00 X242.048 Y53.955
G00 X241.873 Y54.026
G00 X241.698 Y54.101
G00 X239.358 Y55.166
G00 X239.218 Y55.232
G00 X239.131 Y55.276
G00 X239.045 Y55.321
G00 X238.88 Y55.41
G00 X238.801 Y55.454
G00 X238.717 Y55.504
G00 X238.63 Y55.557
G00 X238.457 Y55.667
G00 X238.371 Y55.724
G00 X238.29 Y55.779
G00 X238.213 Y55.834
G00 X238.061 Y55.946
G00 X237.987 Y56.003
G00 X237.91 Y56.064
G00 X237.838 Y56.123
G00 X237.692 Y56.247
G00 X237.617 Y56.312
G00 X237.545 Y56.378
G00 X237.469 Y56.449
G00 X237.326 Y56.59
G00 X237.259 Y56.658
G00 X237.192 Y56.729
G00 X237.13 Y56.796
G00 X237.002 Y56.939
G00 X236.936 Y57.016
G00 X236.874 Y57.091
G00 X236.812 Y57.168
G00 X236.697 Y57.318
G00 X236.644 Y57.39
G00 X236.549 Y57.521
G00 X236.472 Y57.635
G00 X236.409 Y57.73
G00 X236.353 Y57.819
G00 X236.302 Y57.902
G00 X236.257 Y57.98
G00 X236.166 Y58.139
G00 X236.121 Y58.221
G00 X236.075 Y58.308
G00 X236.032 Y58.394
G00 X235.949 Y58.567
G00 X235.909 Y58.653
G00 X235.869 Y58.742
G00 X235.831 Y58.834
G00 X235.758 Y59.017
G00 X235.723 Y59.109
G00 X235.69 Y59.2
G00 X235.658 Y59.295
G00 X235.598 Y59.482
G00 X235.57 Y59.576
G00 X235.544 Y59.669
G00 X235.519 Y59.765
G00 X235.471 Y59.961
G00 X235.448 Y60.061
G00 X235.417 Y60.219
G00 X235.39 Y60.369
G00 X234.366 Y66.512
G00 X234.344 Y66.665
G00 X234.331 Y66.762
G00 X234.323 Y66.832
G00 X234.309 Y66.969
G00 X234.3 Y67.078
G00 X234.291 Y67.213
G00 X234.282 Y67.411
G00 X234.279 Y67.546
G00 X234.278 Y67.616
G00 X234.279 Y87.478
G00 X234.281 Y87.624
G00 X234.285 Y87.721
G00 X234.288 Y87.796
G00 X234.298 Y87.944
G00 X234.305 Y88.039
G00 X234.321 Y88.202
G00 X234.834 Y92.82
G00 X234.855 Y92.975
G00 X234.869 Y93.072
G00 X234.885 Y93.164
G00 X234.918 Y93.35
G00 X234.937 Y93.443
G00 X234.966 Y93.576
G00 X234.995 Y93.699
G00 X235.514 Y95.773
G00 X235.552 Y95.914
G00 X235.579 Y96.007
G00 X235.607 Y96.1
G00 X235.667 Y96.285
G00 X235.699 Y96.377
G00 X235.732 Y96.469
G00 X235.767 Y96.561
G00 X235.841 Y96.744
G00 X235.88 Y96.834
G00 X235.919 Y96.923
G00 X235.961 Y97.012
G00 X236.046 Y97.188
G00 X236.091 Y97.275
G00 X236.136 Y97.361
G00 X236.186 Y97.451
G00 X236.285 Y97.621
G00 X236.334 Y97.702
G00 X236.386 Y97.785
G00 X236.436 Y97.862
G00 X236.543 Y98.021
G00 X236.6 Y98.103
G00 X236.657 Y98.182
G00 X236.715 Y98.259
G00 X236.835 Y98.413
G00 X236.896 Y98.489
G00 X236.959 Y98.564
G00 X237.023 Y98.638
G00 X237.152 Y98.781
G00 X239.235 Y96.91
G00 X239.302 Y96.98
G00 X239.4 Y97.077
G00 X239.451 Y97.123
G00 X239.523 Y97.188
G00 X239.66 Y97.304
G00 X239.737 Y97.364
G00 X239.901 Y97.484
G00 X239.981 Y97.538
G00 X240.144 Y97.64
G00 X240.228 Y97.689
G00 X240.401 Y97.782
G00 X240.489 Y97.825
G00 X240.669 Y97.905
G00 X240.759 Y97.942
G00 X240.943 Y98.009
G00 X241.041 Y98.041
G00 X241.139 Y98.071
G00 X244.814 Y99.122
G00 X244.903 Y99.146
G00 X244.997 Y99.17
G00 X245.192 Y99.212
G00 X245.287 Y99.229
G00 X245.482 Y99.256
G00 X245.579 Y99.266
G00 X245.717 Y99.277
G00 X245.786 Y99.28
G00 X245.896 Y99.283
G00 X246.007 Y99.284
G00 X249.927 Y99.249
G00 X252.137 Y99.249
G00 X256.831 Y99.964
G00 X256.931 Y99.977
G00 X257.028 Y99.988
G00 X257.213 Y100.003
G00 X257.31 Y100.008
G00 X257.515 Y100.011
G00 X257.612 Y100.008
G00 X257.75 Y100.001
G00 X257.832 Y99.994
G00 X257.957 Y99.981
G00 X258.078 Y99.966
G00 X262.923 Y99.249
G00 X266.68 Y99.249
G00 X266.777 Y99.248
G00 X266.874 Y99.244
G00 X267.069 Y99.231
G00 X267.166 Y99.221
G00 X267.361 Y99.193
G00 X267.457 Y99.176
G00 X267.642 Y99.137
G00 X267.736 Y99.114
G00 X267.929 Y99.058
G00 X268.022 Y99.028
G00 X268.199 Y98.964
G00 X268.289 Y98.928
G00 X268.476 Y98.845
G00 X268.563 Y98.802
G00 X268.679 Y98.741
G00 X270.744 Y98.741
G00 X270.841 Y98.74
G00 X270.938 Y98.736
G00 X271.133 Y98.723
G00 X271.23 Y98.713
G00 X271.425 Y98.685
G00 X271.521 Y98.668
G00 X271.706 Y98.629
G00 X271.8 Y98.606
G00 X271.993 Y98.55
G00 X272.086 Y98.52
G00 X272.263 Y98.456
G00 X272.353 Y98.42
G00 X272.511 Y98.351
G00 X272.622 Y98.298
G00 X274.783 Y97.217
G00 X274.808 Y97.217
G00 X274.905 Y97.216
G00 X275.003 Y97.212
G00 X275.197 Y97.199
G00 X275.294 Y97.189
G00 X275.489 Y97.161
G00 X275.585 Y97.144
G00 X275.77 Y97.105
G00 X275.865 Y97.082
G00 X276.057 Y97.026
G00 X276.15 Y96.996
G00 X276.327 Y96.932
G00 X276.417 Y96.896
G00 X276.604 Y96.813
G00 X276.692 Y96.77
G00 X276.853 Y96.685
G00 X276.938 Y96.637
G00 X277.11 Y96.53
G00 X277.191 Y96.475
G00 X277.326 Y96.379
G00 X277.432 Y96.297
G00 X279.921 Y94.305
G00 X280.971 Y93.518
G00 X281.138 Y93.47
G00 X281.23 Y93.44
G00 X281.407 Y93.376
G00 X281.498 Y93.34
G00 X281.684 Y93.257
G00 X281.772 Y93.214
G00 X281.933 Y93.129
G00 X282.018 Y93.08
G00 X282.19 Y92.973
G00 X282.271 Y92.919
G00 X282.43 Y92.804
G00 X282.507 Y92.744
G00 X282.65 Y92.625
G00 X282.722 Y92.56
G00 X282.866 Y92.422
G00 X282.935 Y92.352
G00 X283.065 Y92.208
G00 X283.128 Y92.133
G00 X283.247 Y91.982
G00 X283.305 Y91.903
G00 X283.415 Y91.74
G00 X283.467 Y91.658
G00 X283.563 Y91.494
G00 X283.605 Y91.415
G00 X283.645 Y91.339
G00 X285.372 Y87.885
G00 X285.906 Y87.351
G00 X285.973 Y87.281
G00 X286.04 Y87.21
G00 X286.171 Y87.059
G00 X286.232 Y86.984
G00 X286.345 Y86.833
G00 X286.401 Y86.753
G00 X286.505 Y86.595
G00 X286.555 Y86.511
G00 X286.624 Y86.392
G00 X286.657 Y86.329
G00 X286.701 Y86.242
G00 X286.78 Y86.072
G00 X286.818 Y85.983
G00 X286.888 Y85.802
G00 X286.92 Y85.71
G00 X286.978 Y85.522
G00 X287.003 Y85.428
G00 X287.048 Y85.235
G00 X287.067 Y85.139
G00 X287.089 Y85.01
G00 X287.104 Y84.902
G00 X287.598 Y80.952
G00 X288.17 Y77.829
G00 X288.186 Y77.734
G00 X288.2 Y77.638
G00 X288.222 Y77.442
G00 X288.23 Y77.345
G00 X288.238 Y77.15
G00 X288.239 Y77.053
G00 X288.233 Y76.858
G00 X288.227 Y76.761
G00 X288.208 Y76.564
G00 X288.193 Y76.456
G00 X288.175 Y76.339
G00 X287.592 Y73.047
G00 X287.094 Y69.562
G00 X287.08 Y69.471
G00 X287.063 Y69.375
G00 X287.02 Y69.178
G00 X286.997 Y69.084
G00 X286.942 Y68.894
G00 X286.911 Y68.801
G00 X286.845 Y68.622
G00 X286.809 Y68.532
G00 X286.73 Y68.356
G00 X286.688 Y68.269
G00 X286.596 Y68.096
G00 X286.547 Y68.012
G00 X286.475 Y67.894
G00 X286.431 Y67.829
G00 X286.365 Y67.732
G00 X286.296 Y67.636
G00 X281.724 Y61.54
G00 X281.667 Y61.466
G00 X281.606 Y61.39
G00 X281.475 Y61.238
G00 X281.408 Y61.167
G00 X281.273 Y61.03
G00 X281.202 Y60.964
G00 X281.055 Y60.836
G00 X280.98 Y60.774
G00 X280.826 Y60.658
G00 X280.746 Y60.601
G00 X280.581 Y60.493
G00 X280.498 Y60.443
G00 X280.323 Y60.345
G00 X280.236 Y60.301
G00 X280.121 Y60.245
G00 X280.019 Y60.199
G00 X276.817 Y58.827
G00 X275.614 Y58.025
G00 X275.53 Y57.971
G00 X275.447 Y57.92
G00 X275.276 Y57.823
G00 X275.19 Y57.778
G00 X275.021 Y57.697
G00 X274.932 Y57.657
G00 X274.746 Y57.583
G00 X274.654 Y57.55
G00 X274.47 Y57.491
G00 X274.376 Y57.465
G00 X274.192 Y57.42
G00 X274.097 Y57.4
G00 X273.901 Y57.366
G00 X273.805 Y57.353
G00 X273.668 Y57.337
G00 X273.566 Y57.33
G00 X273.425 Y57.323
G00 X273.284 Y57.32
G00 X272.568 Y57.32
G00 X270.78 Y56.604
G00 X270.695 Y56.572
G00 X270.604 Y56.539
G00 X270.407 Y56.476
G00 X270.313 Y56.449
G00 X270.13 Y56.404
G00 X270.035 Y56.384
G00 X269.839 Y56.35
G00 X269.742 Y56.337
G00 X269.605 Y56.321
G00 X269.508 Y56.315
G00 X269.365 Y56.307
G00 X269.22 Y56.304
G00 X266.776 Y56.304
G00 X261.622 Y56.055
G00 X256.67 Y55.799
G00 X256.598 Y55.797
G00 X256.519 Y55.795
G00 X249.915 Y55.795
G00 X249.817 Y55.797
G00 X249.72 Y55.801
G00 X249.525 Y55.814
G00 X249.429 Y55.824
G00 X249.257 Y55.848
G00 X249.176 Y55.862
G00 X249.091 Y55.877
G00 X246.981 Y56.299
G00 X244.641 Y56.274
G00 X244.543 Y56.274
G00 X244.445 Y56.277
G00 X244.25 Y56.288
G00 X244.153 Y56.297
G00 X243.957 Y56.323
G00 X243.862 Y56.339
G00 X243.678 Y56.376
G00 X243.583 Y56.398
G00 X243.39 Y56.451
G00 X243.297 Y56.48
G00 X243.166 Y56.524
G00 X243.09 Y56.554
G00 X242.974 Y56.601
G00 X242.857 Y56.65
G00 X240.556 Y57.697
G00 X240.467 Y57.739
G00 X240.38 Y57.782
G00 X240.215 Y57.872
G00 X240.131 Y57.921
G00 X239.957 Y58.031
G00 X239.877 Y58.086
G00 X239.725 Y58.198
G00 X239.649 Y58.259
G00 X239.502 Y58.383
G00 X239.43 Y58.448
G00 X239.287 Y58.589
G00 X239.22 Y58.659
G00 X239.092 Y58.803
G00 X239.03 Y58.878
G00 X238.915 Y59.027
G00 X238.858 Y59.106
G00 X238.78 Y59.22
G00 X238.741 Y59.282
G00 X238.69 Y59.365
G00 X238.6 Y59.524
G00 X238.554 Y59.61
G00 X238.471 Y59.783
G00 X238.432 Y59.872
G00 X238.358 Y60.055
G00 X238.326 Y60.147
G00 X238.266 Y60.334
G00 X238.239 Y60.428
G00 X238.191 Y60.624
G00 X238.17 Y60.726
G00 X238.151 Y60.829
G00 X237.135 Y66.926
G00 X237.121 Y67.025
G00 X237.108 Y67.122
G00 X237.094 Y67.259
G00 X237.088 Y67.348
G00 X237.082 Y67.482
G00 X237.078 Y67.616
G00 X237.078 Y87.429
G00 X237.08 Y87.526
G00 X237.083 Y87.624
G00 X237.092 Y87.772
G00 X237.104 Y87.893
G00 X237.612 Y92.465
G00 X237.625 Y92.566
G00 X237.639 Y92.662
G00 X237.673 Y92.847
G00 X237.692 Y92.936
G00 X237.712 Y93.02
G00 X238.22 Y95.052
G00 X238.244 Y95.143
G00 X238.271 Y95.237
G00 X238.331 Y95.422
G00 X238.364 Y95.513
G00 X238.438 Y95.696
G00 X238.478 Y95.785
G00 X238.563 Y95.961
G00 X238.609 Y96.047
G00 X238.708 Y96.218
G00 X238.759 Y96.3
G00 X238.866 Y96.459
G00 X238.924 Y96.538
G00 X239.043 Y96.691
G00 X239.106 Y96.766
G00 X239.235 Y96.91
G00 X241.253 Y94.969
G00 X241.32 Y95.039
G00 X241.393 Y95.104
G00 X241.47 Y95.164
G00 X241.55 Y95.219
G00 X241.634 Y95.268
G00 X241.722 Y95.311
G00 X241.812 Y95.347
G00 X241.909 Y95.379
G00 X245.584 Y96.43
G00 X245.679 Y96.454
G00 X245.774 Y96.471
G00 X245.871 Y96.481
G00 X245.982 Y96.485
G00 X249.927 Y96.449
G00 X252.349 Y96.449
G00 X257.252 Y97.195
G00 X257.349 Y97.207
G00 X257.446 Y97.211
G00 X257.544 Y97.209
G00 X257.668 Y97.196
G00 X262.717 Y96.449
G00 X266.68 Y96.449
G00 X266.777 Y96.446
G00 X266.874 Y96.436
G00 X266.969 Y96.419
G00 X267.064 Y96.395
G00 X267.157 Y96.365
G00 X267.247 Y96.329
G00 X267.335 Y96.286
G00 X267.419 Y96.238
G00 X267.5 Y96.184
G00 X267.577 Y96.124
G00 X267.67 Y96.039
G00 X267.767 Y95.941
G00 X270.744 Y95.941
G00 X270.841 Y95.938
G00 X270.938 Y95.928
G00 X271.034 Y95.911
G00 X271.128 Y95.887
G00 X271.221 Y95.857
G00 X271.311 Y95.821
G00 X271.37 Y95.793
G00 X274.122 Y94.417
G00 X274.808 Y94.417
G00 X274.905 Y94.414
G00 X275.002 Y94.404
G00 X275.098 Y94.387
G00 X275.192 Y94.363
G00 X275.285 Y94.333
G00 X275.376 Y94.297
G00 X275.463 Y94.254
G00 X275.548 Y94.206
G00 X275.628 Y94.152
G00 X275.682 Y94.11
G00 X278.206 Y92.092
G00 X279.846 Y90.861
G00 X279.888 Y90.861
G00 X279.985 Y90.858
G00 X280.082 Y90.848
G00 X280.178 Y90.831
G00 X280.273 Y90.807
G00 X280.365 Y90.777
G00 X280.456 Y90.741
G00 X280.543 Y90.698
G00 X280.628 Y90.65
G00 X280.708 Y90.596
G00 X280.785 Y90.536
G00 X280.858 Y90.471
G00 X280.926 Y90.401
G00 X280.989 Y90.327
G00 X281.046 Y90.248
G00 X281.098 Y90.166
G00 X281.14 Y90.087
G00 X283.071 Y86.226
G00 X283.926 Y85.371
G00 X283.993 Y85.3
G00 X284.054 Y85.224
G00 X284.11 Y85.144
G00 X284.16 Y85.061
G00 X284.204 Y84.974
G00 X284.243 Y84.884
G00 X284.274 Y84.793
G00 X284.3 Y84.698
G00 X284.318 Y84.603
G00 X284.326 Y84.555
G00 X284.829 Y80.528
G00 X285.416 Y77.324
G00 X285.43 Y77.228
G00 X285.438 Y77.131
G00 X285.438 Y77.033
G00 X285.432 Y76.936
G00 X285.418 Y76.828
G00 X284.826 Y73.484
G00 X284.322 Y69.958
G00 X284.305 Y69.862
G00 X284.281 Y69.768
G00 X284.251 Y69.675
G00 X284.214 Y69.585
G00 X284.172 Y69.498
G00 X284.123 Y69.413
G00 X284.056 Y69.316
G00 X279.484 Y63.22
G00 X279.423 Y63.144
G00 X279.357 Y63.073
G00 X279.286 Y63.006
G00 X279.21 Y62.945
G00 X279.131 Y62.888
G00 X279.048 Y62.838
G00 X278.961 Y62.794
G00 X278.915 Y62.773
G00 X275.478 Y61.3
G00 X274.06 Y60.355
G00 X273.977 Y60.304
G00 X273.891 Y60.259
G00 X273.802 Y60.219
G00 X273.711 Y60.186
G00 X273.617 Y60.16
G00 X273.522 Y60.14
G00 X273.425 Y60.127
G00 X273.284 Y60.12
G00 X272.029 Y60.12
G00 X269.74 Y59.204
G00 X269.648 Y59.171
G00 X269.554 Y59.144
G00 X269.459 Y59.124
G00 X269.363 Y59.111
G00 X269.22 Y59.104
G00 X266.712 Y59.104
G00 X261.477 Y58.851
G00 X256.592 Y58.598
G00 X256.519 Y58.596
G00 X249.915 Y58.596
G00 X249.818 Y58.599
G00 X249.721 Y58.609
G00 X249.64 Y58.623
G00 X247.243 Y59.102
G00 X244.611 Y59.074
G00 X244.513 Y59.076
G00 X244.416 Y59.085
G00 X244.321 Y59.101
G00 X244.226 Y59.123
G00 X244.133 Y59.152
G00 X244.016 Y59.199
G00 X241.715 Y60.245
G00 X241.628 Y60.289
G00 X241.544 Y60.338
G00 X241.464 Y60.393
G00 X241.387 Y60.454
G00 X241.315 Y60.519
G00 X241.248 Y60.59
G00 X241.186 Y60.665
G00 X241.129 Y60.744
G00 X241.078 Y60.827
G00 X241.033 Y60.913
G00 X240.994 Y61.002
G00 X240.961 Y61.093
G00 X240.934 Y61.187
G00 X240.913 Y61.29
G00 X239.897 Y67.386
G00 X239.885 Y67.482
G00 X239.878 Y67.616
G00 X239.878 Y87.429
G00 X239.882 Y87.526
G00 X239.887 Y87.584
G00 X240.395 Y92.156
G00 X240.409 Y92.252
G00 X240.428 Y92.341
G00 X240.936 Y94.373
G00 X240.963 Y94.466
G00 X240.996 Y94.558
G00 X241.036 Y94.647
G00 X241.082 Y94.733
G00 X241.133 Y94.815
G00 X241.19 Y94.894
G00 X241.253 Y94.969
G00 X242.762 Y104.028
G00 X242.666 Y104.046
G00 X242.473 Y104.086
G00 X242.378 Y104.107
G00 X242.283 Y104.13
G00 X242.187 Y104.155
G00 X241.991 Y104.21
G00 X241.892 Y104.24
G00 X241.799 Y104.27
G00 X241.708 Y104.301
G00 X241.531 Y104.365
G00 X241.445 Y104.397
G00 X241.354 Y104.433
G00 X241.261 Y104.472
G00 X241.079 Y104.552
G00 X240.991 Y104.593
G00 X240.853 Y104.659
G00 X240.708 Y104.733
G00 X238.973 Y105.652
G00 X238.836 Y105.728
G00 X238.752 Y105.777
G00 X238.671 Y105.826
G00 X238.516 Y105.923
G00 X238.44 Y105.972
G00 X238.359 Y106.026
G00 X238.281 Y106.08
G00 X238.123 Y106.193
G00 X238.043 Y106.253
G00 X237.966 Y106.313
G00 X237.887 Y106.377
G00 X237.733 Y106.505
G00 X237.658 Y106.57
G00 X237.585 Y106.635
G00 X237.515 Y106.701
G00 X237.376 Y106.835
G00 X237.307 Y106.903
G00 X237.239 Y106.973
G00 X237.174 Y107.042
G00 X237.045 Y107.184
G00 X236.98 Y107.258
G00 X236.917 Y107.332
G00 X236.855 Y107.408
G00 X236.735 Y107.561
G00 X236.677 Y107.638
G00 X236.619 Y107.716
G00 X236.561 Y107.799
G00 X236.45 Y107.963
G00 X236.398 Y108.043
G00 X236.346 Y108.125
G00 X236.297 Y108.206
G00 X236.2 Y108.372
G00 X236.152 Y108.457
G00 X236.106 Y108.543
G00 X236.06 Y108.632
G00 X235.973 Y108.808
G00 X235.933 Y108.895
G00 X235.893 Y108.984
G00 X235.855 Y109.071
G00 X235.782 Y109.248
G00 X235.747 Y109.339
G00 X235.713 Y109.43
G00 X235.681 Y109.521
G00 X235.619 Y109.708
G00 X235.589 Y109.804
G00 X235.555 Y109.921
G00 X235.525 Y110.03
G00 X234.415 Y114.245
G00 X234.383 Y114.378
G00 X234.361 Y114.472
G00 X234.341 Y114.571
G00 X234.303 Y114.766
G00 X234.287 Y114.863
G00 X234.272 Y114.959
G00 X234.259 Y115.055
G00 X234.235 Y115.25
G00 X234.225 Y115.35
G00 X234.217 Y115.447
G00 X234.211 Y115.543
G00 X234.201 Y115.736
G00 X234.198 Y115.833
G00 X234.196 Y115.978
G00 X234.197 Y116.111
G00 X234.278 Y120.473
G00 X234.279 Y140.834
G00 X234.28 Y140.914
G00 X234.285 Y141.073
G00 X234.495 Y145.948
G00 X234.504 Y146.093
G00 X234.512 Y146.19
G00 X234.521 Y146.292
G00 X234.545 Y146.498
G00 X234.558 Y146.6
G00 X234.573 Y146.697
G00 X234.589 Y146.789
G00 X234.623 Y146.973
G00 X234.641 Y147.064
G00 X234.662 Y147.16
G00 X234.685 Y147.255
G00 X234.733 Y147.441
G00 X234.758 Y147.53
G00 X234.785 Y147.624
G00 X234.806 Y147.69
G00 X234.848 Y147.821
G00 X234.886 Y147.931
G00 X234.936 Y148.066
G00 X234.985 Y148.194
G00 X235.011 Y148.259
G00 X235.064 Y148.387
G00 X235.092 Y148.451
G00 X235.995 Y150.48
G00 X236.059 Y150.616
G00 X236.102 Y150.703
G00 X236.146 Y150.79
G00 X236.238 Y150.963
G00 X236.286 Y151.049
G00 X236.335 Y151.134
G00 X236.383 Y151.214
G00 X236.48 Y151.37
G00 X236.529 Y151.445
G00 X236.583 Y151.526
G00 X236.64 Y151.607
G00 X236.758 Y151.771
G00 X236.82 Y151.855
G00 X236.88 Y151.932
G00 X236.943 Y152.009
G00 X237.071 Y152.162
G00 X237.137 Y152.238
G00 X237.202 Y152.31
G00 X237.268 Y152.38
G00 X237.402 Y152.519
G00 X237.47 Y152.588
G00 X237.54 Y152.655
G00 X237.608 Y152.719
G00 X237.746 Y152.843
G00 X237.816 Y152.905
G00 X237.891 Y152.968
G00 X237.971 Y153.033
G00 X238.131 Y153.158
G00 X238.21 Y153.218
G00 X238.34 Y153.312
G00 X238.475 Y153.405
G00 X240.475 Y154.745
G00 X240.609 Y154.83
G00 X240.692 Y154.881
G00 X240.769 Y154.927
G00 X240.932 Y155.02
G00 X241.017 Y155.067
G00 X241.103 Y155.113
G00 X241.188 Y155.155
G00 X241.356 Y155.237
G00 X241.44 Y155.276
G00 X241.529 Y155.316
G00 X241.625 Y155.356
G00 X241.816 Y155.433
G00 X241.912 Y155.469
G00 X242.004 Y155.502
G00 X242.091 Y155.532
G00 X242.269 Y155.589
G00 X242.361 Y155.617
G00 X242.454 Y155.644
G00 X242.554 Y155.67
G00 X242.746 Y155.718
G00 X242.84 Y155.739
G00 X242.935 Y155.759
G00 X243.016 Y155.775
G00 X243.178 Y155.804
G00 X243.272 Y155.819
G00 X243.463 Y155.846
G00 X248.758 Y156.504
G00 X248.894 Y156.518
G00 X249.058 Y156.532
G00 X249.196 Y156.541
G00 X249.313 Y156.547
G00 X249.431 Y156.549
G00 X249.595 Y156.551
G00 X249.76 Y156.549
G00 X255.08 Y156.408
G00 X263.69 Y156.407
G00 X263.86 Y156.403
G00 X264.038 Y156.395
G00 X264.213 Y156.383
G00 X270.017 Y155.9
G00 X271.301 Y155.899
G00 X271.447 Y155.896
G00 X271.544 Y155.893
G00 X271.641 Y155.888
G00 X271.836 Y155.874
G00 X271.934 Y155.866
G00 X272.03 Y155.856
G00 X272.129 Y155.844
G00 X272.323 Y155.816
G00 X272.42 Y155.801
G00 X272.516 Y155.784
G00 X272.61 Y155.766
G00 X272.795 Y155.726
G00 X272.886 Y155.705
G00 X273.046 Y155.665
G00 X273.179 Y155.629
G00 X273.297 Y155.594
G00 X273.451 Y155.544
G00 X273.586 Y155.497
G00 X273.656 Y155.472
G00 X273.852 Y155.399
G00 X275.14 Y154.883
G00 X275.365 Y154.883
G00 X275.511 Y154.88
G00 X275.608 Y154.877
G00 X275.705 Y154.872
G00 X275.9 Y154.858
G00 X275.998 Y154.85
G00 X276.095 Y154.84
G00 X276.193 Y154.828
G00 X276.388 Y154.8
G00 X276.484 Y154.785
G00 X276.58 Y154.768
G00 X276.674 Y154.75
G00 X276.859 Y154.71
G00 X276.95 Y154.689
G00 X277.045 Y154.666
G00 X277.144 Y154.64
G00 X277.337 Y154.584
G00 X277.43 Y154.556
G00 X277.523 Y154.525
G00 X277.612 Y154.495
G00 X277.788 Y154.431
G00 X277.877 Y154.397
G00 X277.967 Y154.361
G00 X278.046 Y154.328
G00 X278.203 Y154.26
G00 X278.295 Y154.218
G00 X278.446 Y154.144
G00 X280.518 Y153.108
G00 X280.649 Y153.04
G00 X280.734 Y152.993
G00 X280.823 Y152.943
G00 X280.991 Y152.844
G00 X281.071 Y152.794
G00 X281.153 Y152.742
G00 X281.233 Y152.689
G00 X281.394 Y152.579
G00 X281.474 Y152.521
G00 X281.552 Y152.464
G00 X281.632 Y152.402
G00 X281.789 Y152.277
G00 X281.866 Y152.213
G00 X281.94 Y152.15
G00 X281.995 Y152.102
G00 X282.104 Y152.003
G00 X282.173 Y151.939
G00 X282.298 Y151.817
G00 X285.154 Y148.961
G00 X288.546 Y146.053
G00 X288.655 Y145.956
G00 X288.726 Y145.89
G00 X288.796 Y145.824
G00 X288.933 Y145.689
G00 X289.001 Y145.62
G00 X289.068 Y145.549
G00 X289.134 Y145.476
G00 X289.267 Y145.326
G00 X289.333 Y145.248
G00 X289.395 Y145.173
G00 X289.453 Y145.099
G00 X289.567 Y144.951
G00 X289.622 Y144.875
G00 X289.679 Y144.796
G00 X289.736 Y144.713
G00 X289.845 Y144.548
G00 X289.896 Y144.467
G00 X289.947 Y144.384
G00 X289.995 Y144.303
G00 X290.09 Y144.135
G00 X290.137 Y144.049
G00 X290.182 Y143.963
G00 X290.228 Y143.87
G00 X290.316 Y143.686
G00 X290.357 Y143.594
G00 X290.396 Y143.504
G00 X290.432 Y143.418
G00 X290.501 Y143.243
G00 X290.534 Y143.154
G00 X290.566 Y143.062
G00 X290.597 Y142.972
G00 X290.655 Y142.786
G00 X290.683 Y142.692
G00 X290.709 Y142.598
G00 X290.734 Y142.504
G00 X290.778 Y142.318
G00 X290.799 Y142.227
G00 X290.818 Y142.131
G00 X290.833 Y142.052
G00 X290.901 Y141.946
G00 X290.952 Y141.863
G00 X291.002 Y141.778
G00 X291.099 Y141.608
G00 X291.146 Y141.522
G00 X291.191 Y141.436
G00 X291.232 Y141.355
G00 X291.313 Y141.186
G00 X291.354 Y141.098
G00 X291.393 Y141.009
G00 X291.432 Y140.915
G00 X291.507 Y140.729
G00 X291.541 Y140.637
G00 X291.574 Y140.545
G00 X291.605 Y140.453
G00 X291.664 Y140.268
G00 X291.692 Y140.176
G00 X291.719 Y140.082
G00 X291.743 Y139.99
G00 X291.788 Y139.806
G00 X291.809 Y139.715
G00 X291.829 Y139.619
G00 X291.848 Y139.521
G00 X291.881 Y139.326
G00 X291.896 Y139.228
G00 X291.918 Y139.068
G00 X291.932 Y138.939
G00 X293.281 Y136.241
G00 X293.344 Y136.109
G00 X293.385 Y136.02
G00 X293.425 Y135.928
G00 X293.501 Y135.746
G00 X293.536 Y135.657
G00 X293.57 Y135.565
G00 X293.603 Y135.474
G00 X293.665 Y135.29
G00 X293.694 Y135.197
G00 X293.722 Y135.104
G00 X293.748 Y135.009
G00 X293.797 Y134.822
G00 X293.819 Y134.729
G00 X293.841 Y134.634
G00 X293.86 Y134.542
G00 X293.897 Y134.349
G00 X293.914 Y134.247
G00 X293.928 Y134.151
G00 X293.942 Y134.05
G00 X293.964 Y133.854
G00 X293.973 Y133.76
G00 X293.981 Y133.662
G00 X293.986 Y133.59
G00 X293.994 Y133.44
G00 X293.997 Y133.362
G00 X294 Y133.263
G00 X294.001 Y133.151
G00 X294 Y131.578
G00 X293.998 Y131.432
G00 X293.994 Y131.334
G00 X293.99 Y131.26
G00 X293.981 Y131.111
G00 X293.974 Y131.017
G00 X293.958 Y130.853
G00 X293.493 Y126.668
G00 X293.492 Y123.45
G00 X293.49 Y123.303
G00 X293.486 Y123.206
G00 X293.481 Y123.109
G00 X293.468 Y122.914
G00 X293.459 Y122.817
G00 X293.449 Y122.72
G00 X293.437 Y122.621
G00 X293.409 Y122.427
G00 X293.394 Y122.33
G00 X293.377 Y122.234
G00 X293.359 Y122.141
G00 X293.32 Y121.955
G00 X293.299 Y121.864
G00 X293.275 Y121.769
G00 X293.249 Y121.67
G00 X293.194 Y121.478
G00 X293.165 Y121.384
G00 X293.135 Y121.291
G00 X293.104 Y121.203
G00 X293.04 Y121.026
G00 X293.007 Y120.938
G00 X292.97 Y120.847
G00 X292.931 Y120.753
G00 X292.848 Y120.566
G00 X292.804 Y120.473
G00 X292.762 Y120.386
G00 X292.721 Y120.307
G00 X292.636 Y120.145
G00 X292.591 Y120.063
G00 X292.512 Y119.927
G00 X292.429 Y119.788
G00 X290.329 Y116.428
G00 X290.072 Y115.658
